TheMarex/ba-thesis/notebook/pushrecovery_logs/2014-10-27-00:16:12_trajectory.csv
"Timestamp","Trajectory_LeftLeg_Joint6","Trajectory_LeftLeg_Joint5","Trajectory_LeftLeg_Joint4","Trajectory_LeftLeg_Joint3","Trajectory_LeftLeg_Joint2","Trajectory_LeftLeg_Joint1","Trajectory_RightLeg_Joint1","Trajectory_RightLeg_Joint2","Trajectory_RightLeg_Joint3","Trajectory_RightLeg_Joint4","Trajectory_RightLeg_Joint5","Trajectory_RightLeg_Joint6","Trajectory_Torso_Joint1","Trajectory_Torso_Joint2","Trajectory_LeftArm_Joint3","Trajectory_RightArm_Joint3","Actual_LeftFootX","Actual_LeftFootY","Actual_LeftFootZ","Actual_RightFootX","Actual_RightFootY","Actual_RightFootZ","Target_LeftFootX","Target_LeftFootY","Target_LeftFootZ","Target_RightFootX","Target_RightFootY","Target_RightFootZ","Target_CoMX","Target_CoMY","Target_CoMZ","Actual_CoMX","Actual_CoMY","Actual_CoMZ"
0.001,-0.192351,-0.00765519,0.33035,0.0664017,0.0622358,-0.104311,0.0576527,-0.10039,-0.100699,0.327431,0.0229967,-0.182843,1.10855e-08,-6.87696e-09,0.3,-0.3,0,0,0,172.018,-2.98923,-0.0121975,-13.99,-1.09148,0,185.773,-1.92314,0.000780106,0.000113596,1.27174e-05,0.86,94.498,-21.111,892.433
0.002,-0.192351,-0.00765519,0.33035,0.0664017,0.0622358,-0.104311,0.0576527,-0.10039,-0.100699,0.327431,0.0229967,-0.182843,1.10855e-08,-6.87696e-09,0.3,-0.3,0,0,0,172.018,-2.98923,-0.0121918,-13.99,-1.09148,0,185.773,-1.92314,0.000780106,0.000113596,1.27174e-05,0.86,94.498,-21.111,892.433
0.003,-0.192351,-0.00765519,0.33035,0.0664017,0.0622358,-0.104311,0.0576527,-0.10039,-0.100699,0.327431,0.0229967,-0.182843,1.10855e-08,-6.87696e-09,0.3,-0.3,0,0,-0.00981,172.01,-2.98587,0.030508,-13.99,-1.09148,0,185.773,-1.92314,0.000780106,0.000113596,1.27174e-05,0.86,94.496,-21.1215,892.442
0.004,-0.192351,-0.00765519,0.33035,0.0664017,0.0622358,-0.104311,0.0576527,-0.10039,-0.100699,0.327431,0.0229967,-0.182843,1.10855e-08,-6.87696e-09,0.3,-0.3,0.00649278,-0.0101578,-0.00160465,172.01,-2.98597,0.0923576,-13.99,-1.09148,0,185.773,-1.92314,0.000780106,0.000113596,1.27174e-05,0.86,94.4911,-21.1312,892.477
0.005,-0.192351,-0.00765519,0.33035,0.0664017,0.0622358,-0.104311,0.0576527,-0.10039,-0.100699,0.327431,0.0229967,-0.182843,1.10855e-08,-6.87696e-09,0.3,-0.3,0.0308392,-0.0322421,0.0405584,172.007,-2.98485,0.146626,-13.99,-1.09148,0,185.773,-1.92314,0.000780106,0.000113596,1.27174e-05,0.86,94.4851,-21.1421,892.515
0.006,-0.192351,-0.00765519,0.33035,0.0664017,0.0622358,-0.104311,0.0576527,-0.10039,-0.100699,0.327431,0.0229967,-0.182843,1.10855e-08,-6.87696e-09,0.3,-0.3,0.0554304,-0.0638325,0.0847164,172.006,-2.98424,0.202095,-13.99,-1.09148,0,185.773,-1.92314,0.000780106,0.000113596,1.27174e-05,0.86,94.4776,-21.1533,892.556
0.007,-0.192351,-0.00765519,0.33035,0.0664017,0.0622358,-0.104311,0.0576527,-0.10039,-0.100699,0.327431,0.0229967,-0.182843,1.10855e-08,-6.87696e-09,0.3,-0.3,0.0802212,-0.1022,0.134002,172.006,-2.98462,0.259693,-13.99,-1.09148,0,185.773,-1.92314,0.000780106,0.000113596,1.27174e-05,0.86,94.4685,-21.1647,892.6
0.008,-0.192351,-0.00765519,0.33035,0.0664017,0.0622358,-0.104311,0.0576527,-0.10039,-0.100699,0.327431,0.0229967,-0.182843,1.10855e-08,-6.87696e-09,0.3,-0.3,0.104346,-0.14461,0.188595,172.009,-2.98576,0.319864,-13.99,-1.09148,0,185.773,-1.92314,0.000780106,0.000113596,1.27174e-05,0.86,94.4579,-21.1761,892.646
0.009,-0.192351,-0.00765519,0.33035,0.0664017,0.0622358,-0.104311,0.0576527,-0.10039,-0.100699,0.327431,0.0229967,-0.182843,1.10855e-08,-6.87696e-09,0.3,-0.3,0.126731,-0.188338,0.248311,172.013,-2.98778,0.378246,-13.99,-1.09148,0,185.773,-1.92314,0.000780106,0.000113596,1.27174e-05,0.86,94.446,-21.1871,892.692
0.01,-0.192351,-0.00765519,0.33035,0.0664017,0.0622358,-0.104311,0.0576527,-0.10039,-0.100699,0.327431,0.0229967,-0.182843,1.10855e-08,-6.87696e-09,0.3,-0.3,0.143496,-0.230991,0.306607,172.02,-2.99316,0.427391,-13.99,-1.09148,0,185.773,-1.92314,0.000780106,0.000113596,1.27174e-05,0.86,94.4335,-21.1975,892.728
0.011,-0.192351,-0.00765519,0.33035,0.0664017,0.0622358,-0.104311,0.0576527,-0.10039,-0.100699,0.327431,0.0229967,-0.182843,1.10855e-08,-6.87696e-09,0.3,-0.3,0.151408,-0.270924,0.355997,172.033,-3.01092,0.46991,-13.99,-1.09148,0,185.773,-1.92314,0.000780106,0.000113596,1.27174e-05,0.86,94.4209,-21.208,892.754
0.012,-0.192351,-0.00765519,0.33035,0.0664017,0.0622358,-0.104311,0.0576527,-0.10039,-0.100699,0.327431,0.0229967,-0.182843,1.10855e-08,-6.87696e-09,0.3,-0.3,0.151014,-0.308785,0.397441,172.05,-3.03748,0.50606,-13.99,-1.09148,0,185.773,-1.92314,0.000780106,0.000113596,1.27174e-05,0.86,94.4082,-21.2186,892.77
0.013,-0.192351,-0.00765519,0.33035,0.0664017,0.0622358,-0.104311,0.0576527,-0.10039,-0.100699,0.327431,0.0229967,-0.182843,1.10855e-08,-6.87696e-09,0.3,-0.3,0.143647,-0.345628,0.431475,172.07,-3.06868,0.53611,-13.99,-1.09148,0,185.773,-1.92314,0.000780106,0.000113596,1.27174e-05,0.86,94.3953,-21.229,892.777
0.014,-0.192351,-0.00765519,0.33035,0.0664017,0.0622358,-0.104311,0.0576527,-0.10039,-0.100699,0.327431,0.0229967,-0.182843,1.10855e-08,-6.87696e-09,0.3,-0.3,0.130674,-0.38259,0.458536,172.091,-3.09747,0.56076,-13.99,-1.09148,0,185.773,-1.92314,0.000780106,0.000113596,1.27174e-05,0.86,94.382,-21.2387,892.775
0.015,-0.192351,-0.00765519,0.33035,0.0664017,0.0622358,-0.104311,0.0576527,-0.10039,-0.100699,0.327431,0.0229967,-0.182843,1.10855e-08,-6.87696e-09,0.3,-0.3,0.113588,-0.420188,0.479519,172.111,-3.11893,0.580347,-13.99,-1.09148,0,185.773,-1.92314,0.000780106,0.000113596,1.27174e-05,0.86,94.3681,-21.2472,892.764
0.016,-0.192351,-0.00765519,0.33035,0.0664017,0.0622358,-0.104311,0.0576527,-0.10039,-0.100699,0.327431,0.0229967,-0.182843,1.10855e-08,-6.87696e-09,0.3,-0.3,0.0931518,-0.458236,0.495032,172.127,-3.1298,0.595186,-13.99,-1.09148,0,185.773,-1.92314,0.000780106,0.000113596,1.27174e-05,0.86,94.3534,-21.2542,892.745
0.017,-0.192351,-0.00765519,0.33035,0.0664017,0.0622358,-0.104311,0.0576527,-0.10039,-0.100699,0.327431,0.0229967,-0.182843,1.10855e-08,-6.87696e-09,0.3,-0.3,0.0696222,-0.496053,0.505511,172.142,-3.13705,0.606518,-13.99,-1.09148,0,185.773,-1.92314,0.000780106,0.000113596,1.27174e-05,0.86,94.3379,-21.2605,892.719
0.018,-0.192351,-0.00765519,0.33035,0.0664017,0.0622358,-0.104311,0.0576527,-0.10039,-0.100699,0.327431,0.0229967,-0.182843,1.10855e-08,-6.87696e-09,0.3,-0.3,0.0432431,-0.533291,0.512301,172.158,-3.14455,0.615217,-13.99,-1.09148,0,185.773,-1.92314,0.000780106,0.000113596,1.27174e-05,0.86,94.3218,-21.2667,892.687
0.019,-0.192351,-0.00765519,0.33035,0.0664017,0.0622358,-0.104311,0.0576527,-0.10039,-0.100699,0.327431,0.0229967,-0.182843,1.10855e-08,-6.87696e-09,0.3,-0.3,0.0146534,-0.570229,0.516529,172.175,-3.15231,0.62167,-13.99,-1.09148,0,185.773,-1.92314,0.000780106,0.000113596,1.27174e-05,0.86,94.305,-21.2728,892.65
0.02,-0.192351,-0.00765519,0.33035,0.0664017,0.0622358,-0.104311,0.0576527,-0.10039,-0.100699,0.327431,0.0229967,-0.182843,1.10855e-08,-6.87696e-09,0.3,-0.3,-0.0157648,-0.607194,0.518851,172.192,-3.16036,0.626192,-13.99,-1.09148,0,185.773,-1.92314,0.000780106,0.000113596,1.27174e-05,0.86,94.2875,-21.279,892.608
0.021,-0.192351,-0.00765519,0.33035,0.0664017,0.0622358,-0.104311,0.0576527,-0.10039,-0.100699,0.327431,0.0229967,-0.182843,1.10855e-08,-6.87696e-09,0.3,-0.3,-0.0477782,-0.644468,0.519621,172.21,-3.16871,0.629036,-13.99,-1.09148,0,185.773,-1.92314,0.000780106,0.000113596,1.27174e-05,0.86,94.2693,-21.2854,892.562
0.022,-0.192351,-0.00765519,0.33035,0.0664017,0.0622358,-0.104311,0.0576527,-0.10039,-0.100699,0.327431,0.0229967,-0.182843,1.10855e-08,-6.87696e-09,0.3,-0.3,-0.081227,-0.682278,0.519042,172.228,-3.17734,0.630407,-13.99,-1.09148,0,185.773,-1.92314,0.000780106,0.000113596,1.27174e-05,0.86,94.2504,-21.2919,892.511
0.023,-0.192351,-0.00765519,0.33035,0.0664017,0.0622358,-0.104311,0.0576527,-0.10039,-0.100699,0.327431,0.0229967,-0.182843,1.10855e-08,-6.87696e-09,0.3,-0.3,-0.116047,-0.72079,0.5173,172.247,-3.18623,0.630478,-13.99,-1.09148,0,185.773,-1.92314,0.000780106,0.000113596,1.27174e-05,0.86,94.2307,-21.2987,892.456
0.024,-0.192351,-0.00765519,0.33035,0.0664017,0.0622358,-0.104311,0.0576527,-0.10039,-0.100699,0.327431,0.0229967,-0.182843,1.10855e-08,-6.87696e-09,0.3,-0.3,-0.15221,-0.760121,0.51453,172.266,-3.19538,0.629391,-13.99,-1.09148,0,185.773,-1.92314,0.000780106,0.000113596,1.27174e-05,0.86,94.2101,-21.3057,892.398
0.025,-0.192351,-0.00765519,0.33035,0.0664017,0.0622358,-0.104311,0.0576527,-0.10039,-0.100699,0.327431,0.0229967,-0.182843,1.10855e-08,-6.87696e-09,0.3,-0.3,-0.189722,-0.80035,0.510837,172.286,-3.20479,0.62727,-13.99,-1.09148,0,185.773,-1.92314,0.000780106,0.000113596,1.27174e-05,0.86,94.1888,-21.313,892.335
0.026,-0.192351,-0.00765519,0.33035,0.0664017,0.0622358,-0.104311,0.0576527,-0.10039,-0.100699,0.327431,0.0229967,-0.182843,1.10855e-08,-6.87696e-09,0.3,-0.3,-0.228611,-0.841532,0.506309,172.307,-3.21447,0.624208,-13.99,-1.09148,0,185.773,-1.92314,0.000780106,0.000113596,1.27174e-05,0.86,94.1667,-21.3207,892.27
0.027,-0.192351,-0.00765519,0.33035,0.0664017,0.0622358,-0.104311,0.0576527,-0.10039,-0.100699,0.327431,0.0229967,-0.182843,1.10855e-08,-6.87696e-09,0.3,-0.3,-0.268921,-0.883704,0.501015,172.328,-3.22441,0.620296,-13.99,-1.09148,0,185.773,-1.92314,0.000780106,0.000113596,1.27174e-05,0.86,94.1437,-21.3287,892.2
0.028,-0.192351,-0.00765519,0.33035,0.0664017,0.0622358,-0.104311,0.0576527,-0.10039,-0.100699,0.327431,0.0229967,-0.182843,1.10855e-08,-6.87696e-09,0.3,-0.3,-0.310701,-0.9269,0.495015,172.35,-3.23462,0.615606,-13.99,-1.09148,0,185.773,-1.92314,0.000780106,0.000113596,1.27174e-05,0.86,94.1198,-21.337,892.128
0.029,-0.192351,-0.00765519,0.33035,0.0664017,0.0622358,-0.104311,0.0576527,-0.10039,-0.100699,0.327431,0.0229967,-0.182843,1.10855e-08,-6.87696e-09,0.3,-0.3,-0.354006,-0.971148,0.488358,172.372,-3.2451,0.610197,-13.99,-1.09148,0,185.773,-1.92314,0.000780106,0.000113596,1.27174e-05,0.86,94.0951,-21.3458,892.052
0.03,-0.192351,-0.00765519,0.33035,0.0664017,0.0622358,-0.104311,0.0576527,-0.10039,-0.100699,0.327431,0.0229967,-0.182843,1.10855e-08,-6.87696e-09,0.3,-0.3,-0.398888,-1.01648,0.481091,172.395,-3.25587,0.604122,-13.99,-1.09148,0,185.773,-1.92314,0.000780106,0.000113596,1.27174e-05,0.86,94.0694,-21.3549,891.972
0.031,-0.192351,-0.00765519,0.33035,0.0664017,0.0622358,-0.104311,0.0576527,-0.10039,-0.100699,0.327431,0.0229967,-0.182843,1.10855e-08,-6.87696e-09,0.3,-0.3,-0.445395,-1.06294,0.47325,172.418,-3.26693,0.597427,-13.99,-1.09148,0,185.773,-1.92314,0.000780106,0.000113596,1.27174e-05,0.86,94.0429,-21.3645,891.89
0.032,-0.192351,-0.00765519,0.33035,0.0664017,0.0622358,-0.104311,0.0576527,-0.10039,-0.100699,0.327431,0.0229967,-0.182843,1.10855e-08,-6.87696e-09,0.3,-0.3,-0.493568,-1.11057,0.464872,172.443,-3.27829,0.590153,-13.99,-1.09148,0,185.773,-1.92314,0.000780106,0.000113596,1.27174e-05,0.86,94.0155,-21.3746,891.805
0.033,-0.192351,-0.00765519,0.33035,0.0664017,0.0622358,-0.104311,0.0576527,-0.10039,-0.100699,0.327431,0.0229967,-0.182843,1.10855e-08,-6.87696e-09,0.3,-0.3,-0.543441,-1.15943,0.455985,172.467,-3.28995,0.582331,-13.99,-1.09148,0,185.773,-1.92314,0.000780106,0.000113596,1.27174e-05,0.86,93.9871,-21.3852,891.716
0.034,-0.192351,-0.00765519,0.33035,0.0664017,0.0622358,-0.104311,0.0576527,-0.10039,-0.100699,0.327431,0.0229967,-0.182843,1.10855e-08,-6.87696e-09,0.3,-0.3,-0.595042,-1.20956,0.446617,172.493,-3.30193,0.573988,-13.99,-1.09148,0,185.773,-1.92314,0.000780106,0.000113596,1.27174e-05,0.86,93.9578,-21.3963,891.625
0.035,-0.192351,-0.00765519,0.33035,0.0664017,0.0622358,-0.104311,0.0576527,-0.10039,-0.100699,0.327431,0.0229967,-0.182843,1.10855e-08,-6.87696e-09,0.3,-0.3,-0.648387,-1.26103,0.43679,172.519,-3.31423,0.565155,-13.99,-1.09148,0,185.773,-1.92314,0.000780106,0.000113596,1.27174e-05,0.86,93.9276,-21.4079,891.53
0.036,-0.192351,-0.00765519,0.33035,0.0664017,0.0622358,-0.104311,0.0576527,-0.10039,-0.100699,0.327431,0.0229967,-0.182843,1.10855e-08,-6.87696e-09,0.3,-0.3,-0.703486,-1.3139,0.426525,172.546,-3.32685,0.555849,-13.99,-1.09148,0,185.773,-1.92314,0.000780106,0.000113596,1.27174e-05,0.86,93.8964,-21.42,891.433
0.037,-0.192351,-0.00765519,0.33035,0.0664017,0.0622358,-0.104311,0.0576527,-0.10039,-0.100699,0.327431,0.0229967,-0.182843,1.10855e-08,-6.87696e-09,0.3,-0.3,-0.760343,-1.36824,0.415836,172.574,-3.3398,0.546093,-13.99,-1.09148,0,185.773,-1.92314,0.000780106,0.000113596,1.27174e-05,0.86,93.8643,-21.4327,891.333
0.038,-0.192351,-0.00765519,0.33035,0.0664017,0.0622358,-0.104311,0.0576527,-0.10039,-0.100699,0.327431,0.0229967,-0.182843,1.10855e-08,-6.87696e-09,0.3,-0.3,-0.818955,-1.42411,0.404738,172.602,-3.35308,0.535906,-13.99,-1.09148,0,185.773,-1.92314,0.000780106,0.000113596,1.27174e-05,0.86,93.8312,-21.446,891.23
0.039,-0.192351,-0.00765519,0.33035,0.0664017,0.0622358,-0.104311,0.0576527,-0.10039,-0.100699,0.327431,0.0229967,-0.182843,1.10855e-08,-6.87696e-09,0.3,-0.3,-0.879312,-1.48156,0.393241,172.631,-3.36669,0.525297,-13.99,-1.09148,0,185.773,-1.92314,0.000780106,0.000113596,1.27174e-05,0.86,93.7971,-21.4598,891.124
0.04,-0.192351,-0.00765519,0.33035,0.0664017,0.0622358,-0.104311,0.0576527,-0.10039,-0.100699,0.327431,0.0229967,-0.182843,1.10855e-08,-6.87696e-09,0.3,-0.3,-0.9414,-1.54065,0.381354,172.661,-3.38064,0.514286,-13.99,-1.09148,0,185.773,-1.92314,0.000780106,0.000113596,1.27174e-05,0.86,93.7621,-21.4743,891.016
0.041,-0.192351,-0.00765519,0.33035,0.0664017,0.0622358,-0.104311,0.0576527,-0.10039,-0.100699,0.327431,0.0229967,-0.182843,1.10855e-08,-6.87696e-09,0.3,-0.3,-1.0052,-1.60142,0.369083,172.692,-3.39491,0.502876,-13.99,-1.09148,0,185.773,-1.92314,0.000780106,0.000113596,1.27174e-05,0.86,93.7261,-21.4893,890.905
0.042,-0.192351,-0.00765519,0.33035,0.0664017,0.0622358,-0.104311,0.0576527,-0.10039,-0.100699,0.327431,0.0229967,-0.182843,1.10855e-08,-6.87696e-09,0.3,-0.3,-1.0707,-1.66392,0.356432,172.723,-3.4095,0.491083,-13.99,-1.09148,0,185.773,-1.92314,0.000780106,0.000113596,1.27174e-05,0.86,93.6891,-21.5051,890.791
0.043,-0.192351,-0.00765519,0.33035,0.0664017,0.0622358,-0.104311,0.0576527,-0.10039,-0.100699,0.327431,0.0229967,-0.182843,1.10855e-08,-6.87696e-09,0.3,-0.3,-1.13787,-1.72817,0.343405,172.755,-3.42443,0.478918,-13.99,-1.09148,0,185.773,-1.92314,0.000780106,0.000113596,1.27174e-05,0.86,93.6512,-21.5214,890.674
0.044,-0.192351,-0.00765519,0.33035,0.0664017,0.0622358,-0.104311,0.0576527,-0.10039,-0.100699,0.327431,0.0229967,-0.182843,1.10855e-08,-6.87696e-09,0.3,-0.3,-1.2067,-1.79418,0.330005,172.787,-3.43967,0.466387,-13.99,-1.09148,0,185.773,-1.92314,0.000780106,0.000113596,1.27174e-05,0.86,93.6123,-21.5384,890.555
0.045,-0.192351,-0.00765519,0.33035,0.0664017,0.0622358,-0.104311,0.0576527,-0.10039,-0.100699,0.327431,0.0229967,-0.182843,1.10855e-08,-6.87696e-09,0.3,-0.3,-1.27715,-1.86198,0.31623,172.821,-3.45519,0.453489,-13.99,-1.09148,0,185.773,-1.92314,0.000780106,0.000113596,1.27174e-05,0.86,93.5723,-21.5561,890.433
0.046,-0.192351,-0.00765519,0.33035,0.0664017,0.0622358,-0.104311,0.0576527,-0.10039,-0.100699,0.327431,0.0229967,-0.182843,1.10855e-08,-6.87696e-09,0.3,-0.3,-1.34925,-1.93155,0.302081,172.855,-3.47094,0.440226,-13.99,-1.09148,0,185.773,-1.92314,0.000780106,0.000113596,1.27174e-05,0.86,93.5314,-21.5744,890.309
0.047,-0.192351,-0.00765519,0.33035,0.0664017,0.0622358,-0.104311,0.0576527,-0.10039,-0.100699,0.327431,0.0229967,-0.182843,1.10855e-08,-6.87696e-09,0.3,-0.3,-1.423,-2.00282,0.287553,172.889,-3.48688,0.426598,-13.99,-1.09148,0,185.773,-1.92314,0.000780106,0.000113596,1.27174e-05,0.86,93.4895,-21.5934,890.182
0.048,-0.192351,-0.00765519,0.33035,0.0664017,0.0622358,-0.104311,0.0576527,-0.10039,-0.100699,0.327431,0.0229967,-0.182843,1.10855e-08,-6.87696e-09,0.3,-0.3,-1.49843,-2.07569,0.272656,172.924,-3.5032,0.412638,-13.99,-1.09148,0,185.773,-1.92314,0.000780106,0.000113596,1.27174e-05,0.86,93.4465,-21.6131,890.053
0.049,-0.192351,-0.00765519,0.33035,0.0664017,0.0622358,-0.104311,0.0576527,-0.10039,-0.100699,0.327431,0.0229967,-0.182843,1.10855e-08,-6.87696e-09,0.3,-0.3,-1.57546,-2.15019,0.257381,172.959,-3.51971,0.398327,-13.99,-1.09148,0,185.773,-1.92314,0.000780106,0.000113596,1.27174e-05,0.86,93.4026,-21.6334,889.921
0.05,-0.192351,-0.00765519,0.33035,0.0664017,0.0622358,-0.104311,0.0576527,-0.10039,-0.100699,0.327431,0.0229967,-0.182843,1.10855e-08,-6.87696e-09,0.3,-0.3,-1.61776,-2.16878,0.268576,172.992,-3.53451,0.404016,-13.99,-1.09148,0,185.773,-1.92314,0.000780106,0.000113596,1.27174e-05,0.86,93.3644,-21.6444,889.806
0.051,-0.192351,-0.00765519,0.33035,0.0664017,0.0622358,-0.104311,0.0576527,-0.10039,-0.100699,0.327431,0.0229967,-0.182843,1.10855e-08,-6.87696e-09,0.3,-0.3,-1.64693,-2.15141,0.294519,173.025,-3.54337,0.424967,-13.99,-1.09148,0,185.773,-1.92314,0.000780106,0.000113596,1.27174e-05,0.86,93.3287,-21.6526,889.705
0.052,-0.192351,-0.00765519,0.33035,0.0664017,0.0622358,-0.104311,0.0576527,-0.10039,-0.100699,0.327431,0.0229967,-0.182843,1.10855e-08,-6.87696e-09,0.3,-0.3,-1.67694,-2.13592,0.317706,173.063,-3.54518,0.451639,-13.99,-1.09148,0,185.773,-1.92314,0.000780106,0.000113596,1.27174e-05,0.86,93.2952,-21.6583,889.608
0.053,-0.192351,-0.00765519,0.33035,0.0664017,0.0622358,-0.104311,0.0576527,-0.10039,-0.100699,0.327431,0.0229967,-0.182843,1.10855e-08,-6.87696e-09,0.3,-0.3,-1.70679,-2.1212,0.337594,173.109,-3.53922,0.479984,-13.99,-1.09148,0,185.773,-1.92314,0.000780106,0.000113596,1.27174e-05,0.86,93.264,-21.6616,889.51
0.054,-0.192351,-0.00765519,0.33035,0.0664017,0.0622358,-0.104311,0.0576527,-0.10039,-0.100699,0.327431,0.0229967,-0.182843,1.10855e-08,-6.87696e-09,0.3,-0.3,-1.73643,-2.10683,0.356313,173.163,-3.52513,0.508537,-13.99,-1.09148,0,185.773,-1.92314,0.000780106,0.000113596,1.27174e-05,0.86,93.2352,-21.6623,889.41
0.055,-0.192351,-0.00765519,0.33035,0.0664017,0.0622358,-0.104311,0.0576527,-0.10039,-0.100699,0.327431,0.0229967,-0.182843,1.10855e-08,-6.87696e-09,0.3,-0.3,-1.76744,-2.09924,0.374811,173.225,-3.50284,0.537102,-13.99,-1.09148,0,185.773,-1.92314,0.000780106,0.000113596,1.27174e-05,0.86,93.2089,-21.6604,889.307
0.056,-0.192351,-0.00765519,0.33035,0.0664017,0.0622358,-0.104311,0.0576527,-0.10039,-0.100699,0.327431,0.0229967,-0.182843,1.10855e-08,-6.87696e-09,0.3,-0.3,-1.79791,-2.09218,0.394513,173.296,-3.47254,0.565781,-13.99,-1.09148,0,185.773,-1.92314,0.000780106,0.000113596,1.27174e-05,0.86,93.1851,-21.6561,889.202
0.057,-0.192351,-0.00765519,0.33035,0.0664017,0.0622358,-0.104311,0.0576527,-0.10039,-0.100699,0.327431,0.0229967,-0.182843,1.10855e-08,-6.87696e-09,0.3,-0.3,-1.82542,-2.07854,0.416565,173.374,-3.43458,0.594713,-13.99,-1.09148,0,185.773,-1.92314,0.000780106,0.000113596,1.27174e-05,0.86,93.1637,-21.6494,889.094
0.058,-0.192351,-0.00765519,0.33035,0.0664017,0.0622358,-0.104311,0.0576527,-0.10039,-0.100699,0.327431,0.0229967,-0.182843,1.10855e-08,-6.87696e-09,0.3,-0.3,-1.85162,-2.06295,0.440135,173.461,-3.38937,0.623993,-13.99,-1.09148,0,185.773,-1.92314,0.000780106,0.000113596,1.27174e-05,0.86,93.1447,-21.6404,888.985
0.059,-0.192351,-0.00765519,0.33035,0.0664017,0.0622358,-0.104311,0.0576527,-0.10039,-0.100699,0.327431,0.0229967,-0.182843,1.10855e-08,-6.87696e-09,0.3,-0.3,-1.87744,-2.04817,0.464879,173.556,-3.33745,0.653629,-13.99,-1.09148,0,185.773,-1.92314,0.000780106,0.000113596,1.27174e-05,0.86,93.128,-21.6291,888.873
0.06,-0.192351,-0.00765519,0.33035,0.0664017,0.0622358,-0.104311,0.0576527,-0.10039,-0.100699,0.327431,0.0229967,-0.182843,1.10855e-08,-6.87696e-09,0.3,-0.3,-1.90284,-2.03406,0.490547,173.659,-3.27939,0.683592,-13.99,-1.09148,0,185.773,-1.92314,0.000780106,0.000113596,1.27174e-05,0.86,93.1135,-21.6158,888.759
0.061,-0.192351,-0.00765519,0.33035,0.0664017,0.0622358,-0.104311,0.0576527,-0.10039,-0.100699,0.327431,0.0229967,-0.182843,1.10855e-08,-6.87696e-09,0.3,-0.3,-1.9278,-2.02055,0.516894,173.768,-3.21573,0.71382,-13.99,-1.09148,0,185.773,-1.92314,0.000780106,0.000113596,1.27174e-05,0.86,93.1012,-21.6005,888.644
0.062,-0.192351,-0.00765519,0.33035,0.0664017,0.0622358,-0.104311,0.0576527,-0.10039,-0.100699,0.327431,0.0229967,-0.182843,1.10855e-08,-6.87696e-09,0.3,-0.3,-1.95232,-2.00754,0.543691,173.885,-3.14709,0.744253,-13.99,-1.09148,0,185.773,-1.92314,0.000780106,0.000113596,1.27174e-05,0.86,93.091,-21.5834,888.527
0.063,-0.192351,-0.00765519,0.33035,0.0664017,0.0622358,-0.104311,0.0576527,-0.10039,-0.100699,0.327431,0.0229967,-0.182843,1.10855e-08,-6.87696e-09,0.3,-0.3,-1.97642,-1.99498,0.570727,174.007,-3.07406,0.774809,-13.99,-1.09148,0,185.773,-1.92314,0.000780106,0.000113596,1.27174e-05,0.86,93.0829,-21.5646,888.407
0.064,-0.192351,-0.00765519,0.33035,0.0664017,0.0622358,-0.104311,0.0576527,-0.10039,-0.100699,0.327431,0.0229967,-0.182843,1.10855e-08,-6.87696e-09,0.3,-0.3,-2.00015,-1.9828,0.597815,174.136,-2.99723,0.805422,-13.99,-1.09148,0,185.773,-1.92314,0.000780106,0.000113596,1.27174e-05,0.86,93.0766,-21.5442,888.286
0.065,-0.192351,-0.00765519,0.33035,0.0664017,0.0622358,-0.104311,0.0576527,-0.10039,-0.100699,0.327431,0.0229967,-0.182843,1.10855e-08,-6.87696e-09,0.3,-0.3,-2.02354,-1.97095,0.624793,174.27,-2.91714,0.83602,-13.99,-1.09148,0,185.773,-1.92314,0.000780106,0.000113596,1.27174e-05,0.86,93.0721,-21.5222,888.163
0.066,-0.192351,-0.00765519,0.33035,0.0664017,0.0622358,-0.104311,0.0576527,-0.10039,-0.100699,0.327431,0.0229967,-0.182843,1.10855e-08,-6.87696e-09,0.3,-0.3,-2.04665,-1.95941,0.651528,174.409,-2.83431,0.866541,-13.99,-1.09148,0,185.773,-1.92314,0.000780106,0.000113596,1.27174e-05,0.86,93.0694,-21.4989,888.038
0.067,-0.192351,-0.00765519,0.33035,0.0664017,0.0622358,-0.104311,0.0576527,-0.10039,-0.100699,0.327431,0.0229967,-0.182843,1.10855e-08,-6.87696e-09,0.3,-0.3,-2.06952,-1.94812,0.677914,174.553,-2.74922,0.896929,-13.99,-1.09148,0,185.773,-1.92314,0.000780106,0.000113596,1.27174e-05,0.86,93.0684,-21.4742,887.911
0.068,-0.192351,-0.00765519,0.33035,0.0664017,0.0622358,-0.104311,0.0576527,-0.10039,-0.100699,0.327431,0.0229967,-0.182843,1.10855e-08,-6.87696e-09,0.3,-0.3,-2.09222,-1.93705,0.703871,174.7,-2.66231,0.927132,-13.99,-1.09148,0,185.773,-1.92314,0.000780106,0.000113596,1.27174e-05,0.86,93.0689,-21.4483,887.781
0.069,-0.192351,-0.00765519,0.33035,0.0664017,0.0622358,-0.104311,0.0576527,-0.10039,-0.100699,0.327431,0.0229967,-0.182843,1.10855e-08,-6.87696e-09,0.3,-0.3,-2.1148,-1.92616,0.729345,174.851,-2.57398,0.957106,-13.99,-1.09148,0,185.773,-1.92314,0.000780106,0.000113596,1.27174e-05,0.86,93.0709,-21.4212,887.65
0.07,-0.192351,-0.00765519,0.33035,0.0664017,0.0622358,-0.104311,0.0576527,-0.10039,-0.100699,0.327431,0.0229967,-0.182843,1.10855e-08,-6.87696e-09,0.3,-0.3,-2.13731,-1.91543,0.754304,175.006,-2.4846,0.986811,-13.99,-1.09148,0,185.773,-1.92314,0.000780106,0.000113596,1.27174e-05,0.86,93.0744,-21.393,887.517
0.071,-0.192351,-0.00765519,0.33035,0.0664017,0.0622358,-0.104311,0.0576527,-0.10039,-0.100699,0.327431,0.0229967,-0.182843,1.10855e-08,-6.87696e-09,0.3,-0.3,-2.15979,-1.90483,0.778738,175.162,-2.3945,1.01621,-13.99,-1.09148,0,185.773,-1.92314,0.000780106,0.000113596,1.27174e-05,0.86,93.0791,-21.3637,887.382
0.072,-0.192351,-0.00765519,0.33035,0.0664017,0.0622358,-0.104311,0.0576527,-0.10039,-0.100699,0.327431,0.0229967,-0.182843,1.10855e-08,-6.87696e-09,0.3,-0.3,-2.18228,-1.8943,0.802653,175.321,-2.30396,1.04527,-13.99,-1.09148,0,185.773,-1.92314,0.000780106,0.000113596,1.27174e-05,0.86,93.0852,-21.3333,887.245
0.073,-0.192351,-0.00765519,0.33035,0.0664017,0.0622358,-0.104311,0.0576527,-0.10039,-0.100699,0.327431,0.0229967,-0.182843,1.10855e-08,-6.87696e-09,0.3,-0.3,-2.20483,-1.88384,0.826069,175.482,-2.21326,1.07398,-13.99,-1.09148,0,185.773,-1.92314,0.000780106,0.000113596,1.27174e-05,0.86,93.0925,-21.302,887.106
0.074,-0.192351,-0.00765519,0.33035,0.0664017,0.0622358,-0.104311,0.0576527,-0.10039,-0.100699,0.327431,0.0229967,-0.182843,1.10855e-08,-6.87696e-09,0.3,-0.3,-2.22748,-1.87338,0.84902,175.645,-2.12262,1.10232,-13.99,-1.09148,0,185.773,-1.92314,0.000780106,0.000113596,1.27174e-05,0.86,93.101,-21.2698,886.965
0.075,-0.192351,-0.00765519,0.33035,0.0664017,0.0622358,-0.104311,0.0576527,-0.10039,-0.100699,0.327431,0.0229967,-0.182843,1.10855e-08,-6.87696e-09,0.3,-0.3,-2.25026,-1.86289,0.871544,175.809,-2.03224,1.13025,-13.99,-1.09148,0,185.773,-1.92314,0.000780106,0.000113596,1.27174e-05,0.86,93.1107,-21.2365,886.822
0.076,-0.192351,-0.00765519,0.33035,0.0664017,0.0622358,-0.104311,0.0576527,-0.10039,-0.100699,0.327431,0.0229967,-0.182843,1.10855e-08,-6.87696e-09,0.3,-0.3,-2.27322,-1.85232,0.893687,175.974,-1.94231,1.15779,-13.99,-1.09148,0,185.773,-1.92314,0.000780106,0.000113596,1.27174e-05,0.86,93.1215,-21.2024,886.677
0.077,-0.192351,-0.00765519,0.33035,0.0664017,0.0622358,-0.104311,0.0576527,-0.10039,-0.100699,0.327431,0.0229967,-0.182843,1.10855e-08,-6.87696e-09,0.3,-0.3,-2.29646,-1.84158,0.915494,176.139,-1.85297,1.18491,-13.99,-1.09148,0,185.773,-1.92314,0.000780106,0.000113596,1.27174e-05,0.86,93.1333,-21.1674,886.531
0.078,-0.192351,-0.00765519,0.33035,0.0664017,0.0622358,-0.104311,0.0576527,-0.10039,-0.100699,0.327431,0.0229967,-0.182843,1.10855e-08,-6.87696e-09,0.3,-0.3,-2.32027,-1.83065,0.937008,176.306,-1.76434,1.2116,-13.99,-1.09148,0,185.773,-1.92314,0.000780106,0.000113596,1.27174e-05,0.86,93.1463,-21.1315,886.382
0.079,-0.192351,-0.00765519,0.33035,0.0664017,0.0622358,-0.104311,0.0576527,-0.10039,-0.100699,0.327431,0.0229967,-0.182843,1.10855e-08,-6.87696e-09,0.3,-0.3,-2.34402,-1.8204,0.958318,176.472,-1.67654,1.23786,-13.99,-1.09148,0,185.773,-1.92314,0.000780106,0.000113596,1.27174e-05,0.86,93.1602,-21.0947,886.232
0.08,-0.192351,-0.00765519,0.33035,0.0664017,0.0622358,-0.104311,0.0576527,-0.10039,-0.100699,0.327431,0.0229967,-0.182843,1.10855e-08,-6.87696e-09,0.3,-0.3,-2.36779,-1.81,0.979377,176.639,-1.58965,1.26369,-13.99,-1.09148,0,185.773,-1.92314,0.000780106,0.000113596,1.27174e-05,0.86,93.1752,-21.057,886.08
0.081,-0.192351,-0.00765519,0.33035,0.0664017,0.0622358,-0.104311,0.0576527,-0.10039,-0.100699,0.327431,0.0229967,-0.182843,1.10855e-08,-6.87696e-09,0.3,-0.3,-2.39186,-1.79932,1.00026,176.806,-1.50375,1.2891,-13.99,-1.09148,0,185.773,-1.92314,0.000780106,0.000113596,1.27174e-05,0.86,93.1913,-21.0185,885.926
0.082,-0.192351,-0.00765519,0.33035,0.0664017,0.0622358,-0.104311,0.0576527,-0.10039,-0.100699,0.327431,0.0229967,-0.182843,1.10855e-08,-6.87696e-09,0.3,-0.3,-2.41625,-1.7884,1.02103,176.974,-1.4189,1.31408,-13.99,-1.09148,0,185.773,-1.92314,0.000780106,0.000113596,1.27174e-05,0.86,93.2084,-20.9791,885.771
0.083,-0.192351,-0.00765519,0.33035,0.0664017,0.0622358,-0.104311,0.0576527,-0.10039,-0.100699,0.327431,0.0229967,-0.182843,1.10855e-08,-6.87696e-09,0.3,-0.3,-2.44116,-1.77718,1.04171,177.141,-1.33512,1.33862,-13.99,-1.09148,0,185.773,-1.92314,0.000780106,0.000113596,1.27174e-05,0.86,93.2266,-20.9388,885.613
0.084,-0.192351,-0.00765519,0.33035,0.0664017,0.0622358,-0.104311,0.0576527,-0.10039,-0.100699,0.327431,0.0229967,-0.182843,1.10855e-08,-6.87696e-09,0.3,-0.3,-2.46654,-1.76577,1.06238,177.309,-1.25242,1.36273,-13.99,-1.09148,0,185.773,-1.92314,0.000780106,0.000113596,1.27174e-05,0.86,93.2458,-20.8976,885.454
0.085,-0.192351,-0.00765519,0.33035,0.0664017,0.0622358,-0.104311,0.0576527,-0.10039,-0.100699,0.327431,0.0229967,-0.182843,1.10855e-08,-6.87696e-09,0.3,-0.3,-2.49183,-1.75457,1.08296,177.477,-1.17082,1.38641,-13.99,-1.09148,0,185.773,-1.92314,0.000780106,0.000113596,1.27174e-05,0.86,93.266,-20.8556,885.294
0.086,-0.192351,-0.00765519,0.33035,0.0664017,0.0622358,-0.104311,0.0576527,-0.10039,-0.100699,0.327431,0.0229967,-0.182843,1.10855e-08,-6.87696e-09,0.3,-0.3,-2.51741,-1.7436,1.10351,177.645,-1.09032,1.40966,-13.99,-1.09148,0,185.773,-1.92314,0.000780106,0.000113596,1.27174e-05,0.86,93.2873,-20.8128,885.131
0.087,-0.192351,-0.00765519,0.33035,0.0664017,0.0622358,-0.104311,0.0576527,-0.10039,-0.100699,0.327431,0.0229967,-0.182843,1.10855e-08,-6.87696e-09,0.3,-0.3,-2.54324,-1.73264,1.12404,177.813,-1.01093,1.43246,-13.99,-1.09148,0,185.773,-1.92314,0.000780106,0.000113596,1.27174e-05,0.86,93.3097,-20.7691,884.968
0.088,-0.192351,-0.00765519,0.33035,0.0664017,0.0622358,-0.104311,0.0576527,-0.10039,-0.100699,0.327431,0.0229967,-0.182843,1.10855e-08,-6.87696e-09,0.3,-0.3,-2.56917,-1.72151,1.14449,177.982,-0.932613,1.45485,-13.99,-1.09148,0,185.773,-1.92314,0.000780106,0.000113596,1.27174e-05,0.86,93.3332,-20.7246,884.802
0.089,-0.192351,-0.00765519,0.33035,0.0664017,0.0622358,-0.104311,0.0576527,-0.10039,-0.100699,0.327431,0.0229967,-0.182843,1.10855e-08,-6.87696e-09,0.3,-0.3,-2.59531,-1.71029,1.16493,178.15,-0.855342,1.4768,-13.99,-1.09148,0,185.773,-1.92314,0.000780106,0.000113596,1.27174e-05,0.86,93.3578,-20.6791,884.635
0.09,-0.192351,-0.00765519,0.33035,0.0664017,0.0622358,-0.104311,0.0576527,-0.10039,-0.100699,0.327431,0.0229967,-0.182843,1.10855e-08,-6.87696e-09,0.3,-0.3,-2.62165,-1.69898,1.18532,178.32,-0.779083,1.49831,-13.99,-1.09148,0,185.773,-1.92314,0.000780106,0.000113596,1.27174e-05,0.86,93.3836,-20.6329,884.467
0.091,-0.192351,-0.00765519,0.33035,0.0664017,0.0622358,-0.104311,0.0576527,-0.10039,-0.100699,0.327431,0.0229967,-0.182843,1.10855e-08,-6.87696e-09,0.3,-0.3,-2.64818,-1.68754,1.20567,178.489,-0.703786,1.51939,-13.99,-1.09148,0,185.773,-1.92314,0.000780106,0.000113596,1.27174e-05,0.86,93.4104,-20.5858,884.297
0.092,-0.192351,-0.00765519,0.33035,0.0664017,0.0622358,-0.104311,0.0576527,-0.10039,-0.100699,0.327431,0.0229967,-0.182843,1.10855e-08,-6.87696e-09,0.3,-0.3,-2.67488,-1.67597,1.22597,178.66,-0.629396,1.54003,-13.99,-1.09148,0,185.773,-1.92314,0.000780106,0.000113596,1.27174e-05,0.86,93.4385,-20.5378,884.126
0.093,-0.192351,-0.00765519,0.33035,0.0664017,0.0622358,-0.104311,0.0576527,-0.10039,-0.100699,0.327431,0.0229967,-0.182843,1.10855e-08,-6.87696e-09,0.3,-0.3,-2.70177,-1.66424,1.24619,178.831,-0.555848,1.56023,-13.99,-1.09148,0,185.773,-1.92314,0.000780106,0.000113596,1.27174e-05,0.86,93.4677,-20.489,883.953
0.094,-0.192351,-0.00765519,0.33035,0.0664017,0.0622358,-0.104311,0.0576527,-0.10039,-0.100699,0.327431,0.0229967,-0.182843,1.10855e-08,-6.87696e-09,0.3,-0.3,-2.72886,-1.6523,1.26633,179.003,-0.483075,1.57998,-13.99,-1.09148,0,185.773,-1.92314,0.000780106,0.000113596,1.27174e-05,0.86,93.4981,-20.4393,883.779
0.095,-0.192351,-0.00765519,0.33035,0.0664017,0.0622358,-0.104311,0.0576527,-0.10039,-0.100699,0.327431,0.0229967,-0.182843,1.10855e-08,-6.87696e-09,0.3,-0.3,-2.75628,-1.64012,1.28635,179.175,-0.411002,1.59928,-13.99,-1.09148,0,185.773,-1.92314,0.000780106,0.000113596,1.27174e-05,0.86,93.5298,-20.3887,883.603
0.096,-0.192351,-0.00765519,0.33035,0.0664017,0.0622358,-0.104311,0.0576527,-0.10039,-0.100699,0.327431,0.0229967,-0.182843,1.10855e-08,-6.87696e-09,0.3,-0.3,-2.78424,-1.62788,1.30627,179.348,-0.339546,1.61811,-13.99,-1.09148,0,185.773,-1.92314,0.000780106,0.000113596,1.27174e-05,0.86,93.5626,-20.3373,883.427
0.097,-0.192351,-0.00765519,0.33035,0.0664017,0.0622358,-0.104311,0.0576527,-0.10039,-0.100699,0.327431,0.0229967,-0.182843,1.10855e-08,-6.87696e-09,0.3,-0.3,-2.81203,-1.61558,1.32607,179.523,-0.268622,1.63648,-13.99,-1.09148,0,185.773,-1.92314,0.000780106,0.000113596,1.27174e-05,0.86,93.5966,-20.285,883.248
0.098,-0.192351,-0.00765519,0.33035,0.0664017,0.0622358,-0.104311,0.0576527,-0.10039,-0.100699,0.327431,0.0229967,-0.182843,1.10855e-08,-6.87696e-09,0.3,-0.3,-2.8397,-1.60352,1.34568,179.698,-0.198167,1.65439,-13.99,-1.09148,0,185.773,-1.92314,0.000780106,0.000113596,1.27174e-05,0.86,93.6319,-20.2318,883.069
0.099,-0.192351,-0.00765519,0.33035,0.0664017,0.0622358,-0.104311,0.0576527,-0.10039,-0.100699,0.327431,0.0229967,-0.182843,1.10855e-08,-6.87696e-09,0.3,-0.3,-2.86768,-1.59128,1.36515,179.874,-0.128117,1.67181,-13.99,-1.09148,0,185.773,-1.92314,0.000780106,0.000113596,1.27174e-05,0.86,93.6685,-20.1778,882.889
0.1,-0.192351,-0.00765519,0.33035,0.0664017,0.0622358,-0.104311,0.0576527,-0.10039,-0.100699,0.327431,0.0229967,-0.182843,1.10855e-08,-6.87696e-09,0.3,-0.3,-2.89556,-1.57941,1.38439,180.051,-0.0584069,1.68876,-13.99,-1.09148,0,185.773,-1.92314,0.000780106,0.000113596,1.27174e-05,0.86,93.7063,-20.1229,882.707
0.101,-0.192351,-0.00765519,0.33035,0.0664017,0.0622358,-0.104311,0.0576527,-0.10039,-0.100699,0.327431,0.0229967,-0.182843,1.10855e-08,-6.87696e-09,0.3,-0.3,-2.92349,-1.56754,1.40341,180.229,0.0110236,1.70522,-13.99,-1.09148,0,185.773,-1.92314,0.000780106,0.000113596,1.27174e-05,0.86,93.7453,-20.0671,882.523
0.102,-0.192351,-0.00765519,0.33035,0.0664017,0.0622358,-0.104311,0.0576527,-0.10039,-0.100699,0.327431,0.0229967,-0.182843,1.10855e-08,-6.87696e-09,0.3,-0.3,-2.9512,-1.55563,1.42217,180.408,0.0802304,1.72121,-13.99,-1.09148,0,185.773,-1.92314,0.000780106,0.000113596,1.27174e-05,0.86,93.7857,-20.0105,882.339
0.103,-0.192351,-0.00765519,0.33035,0.0664017,0.0622358,-0.104311,0.0576527,-0.10039,-0.100699,0.327431,0.0229967,-0.182843,1.10855e-08,-6.87696e-09,0.3,-0.3,-2.97897,-1.54371,1.4407,180.588,0.149246,1.73671,-13.99,-1.09148,0,185.773,-1.92314,0.000780106,0.000113596,1.27174e-05,0.86,93.8273,-19.953,882.154
0.104,-0.192351,-0.00765519,0.33035,0.0664017,0.0622358,-0.104311,0.0576527,-0.10039,-0.100699,0.327431,0.0229967,-0.182843,1.10855e-08,-6.87696e-09,0.3,-0.3,-3.00679,-1.53179,1.45899,180.769,0.218111,1.75172,-13.99,-1.09148,0,185.773,-1.92314,0.000780106,0.000113596,1.27174e-05,0.86,93.8703,-19.8946,881.968
0.105,-0.192351,-0.00765519,0.33035,0.0664017,0.0622358,-0.104311,0.0576527,-0.10039,-0.100699,0.327431,0.0229967,-0.182843,1.10855e-08,-6.87696e-09,0.3,-0.3,-3.03464,-1.51987,1.47703,180.951,0.286866,1.76622,-13.99,-1.09148,0,185.773,-1.92314,0.000780106,0.000113596,1.27174e-05,0.86,93.9145,-19.8354,881.781
0.106,-0.192351,-0.00765519,0.33035,0.0664017,0.0622358,-0.104311,0.0576527,-0.10039,-0.100699,0.327431,0.0229967,-0.182843,1.10855e-08,-6.87696e-09,0.3,-0.3,-3.0625,-1.50796,1.49481,181.134,0.355549,1.78021,-13.99,-1.09148,0,185.773,-1.92314,0.000780106,0.000113596,1.27174e-05,0.86,93.9601,-19.7752,881.592
0.107,-0.192351,-0.00765519,0.33035,0.0664017,0.0622358,-0.104311,0.0576527,-0.10039,-0.100699,0.327431,0.0229967,-0.182843,1.10855e-08,-6.87696e-09,0.3,-0.3,-3.09036,-1.49606,1.51233,181.318,0.424193,1.79369,-13.99,-1.09148,0,185.773,-1.92314,0.000780106,0.000113596,1.27174e-05,0.86,94.0069,-19.7142,881.403
0.108,-0.192351,-0.00765519,0.33035,0.0664017,0.0622358,-0.104311,0.0576527,-0.10039,-0.100699,0.327431,0.0229967,-0.182843,1.10855e-08,-6.87696e-09,0.3,-0.3,-3.11819,-1.48419,1.52957,181.503,0.492826,1.80664,-13.99,-1.09148,0,185.773,-1.92314,0.000780106,0.000113596,1.27174e-05,0.86,94.0551,-19.6524,881.213
0.109,-0.192351,-0.00765519,0.33035,0.0664017,0.0622358,-0.104311,0.0576527,-0.10039,-0.100699,0.327431,0.0229967,-0.182843,1.10855e-08,-6.87696e-09,0.3,-0.3,-3.14598,-1.47233,1.54653,181.689,0.561471,1.81906,-13.99,-1.09148,0,185.773,-1.92314,0.000780106,0.000113596,1.27174e-05,0.86,94.1045,-19.5896,881.021
0.11,-0.192351,-0.00765519,0.33035,0.0664017,0.0622358,-0.104311,0.0576527,-0.10039,-0.100699,0.327431,0.0229967,-0.182843,1.10855e-08,-6.87696e-09,0.3,-0.3,-3.17371,-1.46048,1.5632,181.876,0.630144,1.83094,-13.99,-1.09148,0,185.773,-1.92314,0.000780106,0.000113596,1.27174e-05,0.86,94.1553,-19.526,880.829
0.111,-0.192351,-0.00765519,0.33035,0.0664017,0.0622358,-0.104311,0.0576527,-0.10039,-0.100699,0.327431,0.0229967,-0.182843,1.10855e-08,-6.87696e-09,0.3,-0.3,-3.20139,-1.44865,1.57957,182.064,0.698855,1.84227,-13.99,-1.09148,0,185.773,-1.92314,0.000780106,0.000113596,1.27174e-05,0.86,94.2074,-19.4616,880.637
0.112,-0.192351,-0.00765519,0.33035,0.0664017,0.0622358,-0.104311,0.0576527,-0.10039,-0.100699,0.327431,0.0229967,-0.182843,1.10855e-08,-6.87696e-09,0.3,-0.3,-3.229,-1.43681,1.59565,182.253,0.767611,1.85305,-13.99,-1.09148,0,185.773,-1.92314,0.000780106,0.000113596,1.27174e-05,0.86,94.2608,-19.3963,880.443
0.113,-0.192351,-0.00765519,0.33035,0.0664017,0.0622358,-0.104311,0.0576527,-0.10039,-0.100699,0.327431,0.0229967,-0.182843,1.10855e-08,-6.87696e-09,0.3,-0.3,-3.25653,-1.42496,1.61143,182.442,0.836412,1.86327,-13.99,-1.09148,0,185.773,-1.92314,0.000780106,0.000113596,1.27174e-05,0.86,94.3155,-19.3301,880.249
0.114,-0.192351,-0.00765519,0.33035,0.0664017,0.0622358,-0.104311,0.0576527,-0.10039,-0.100699,0.327431,0.0229967,-0.182843,1.10855e-08,-6.87696e-09,0.3,-0.3,-3.28401,-1.41308,1.6269,182.632,0.905255,1.87292,-13.99,-1.09148,0,185.773,-1.92314,0.000780106,0.000113596,1.27174e-05,0.86,94.3715,-19.2631,880.054
0.115,-0.192351,-0.00765519,0.33035,0.0664017,0.0622358,-0.104311,0.0576527,-0.10039,-0.100699,0.327431,0.0229967,-0.182843,1.10855e-08,-6.87696e-09,0.3,-0.3,-3.31143,-1.40115,1.64206,182.823,0.974132,1.882,-13.99,-1.09148,0,185.773,-1.92314,0.000780106,0.000113596,1.27174e-05,0.86,94.4287,-19.1952,879.858
0.116,-0.192351,-0.00765519,0.33035,0.0664017,0.0622358,-0.104311,0.0576527,-0.10039,-0.100699,0.327431,0.0229967,-0.182843,1.10855e-08,-6.87696e-09,0.3,-0.3,-3.33886,-1.38913,1.65691,183.014,1.04303,1.89049,-13.99,-1.09148,0,185.773,-1.92314,0.000780106,0.000113596,1.27174e-05,0.86,94.4874,-19.1265,879.661
0.117,-0.192351,-0.00765519,0.33035,0.0664017,0.0622358,-0.104311,0.0576527,-0.10039,-0.100699,0.327431,0.0229967,-0.182843,1.10855e-08,-6.87696e-09,0.3,-0.3,-3.3664,-1.377,1.67143,183.205,1.11195,1.89839,-13.99,-1.09148,0,185.773,-1.92314,0.000780106,0.000113596,1.27174e-05,0.86,94.5472,-19.0569,879.465
0.118,-0.192351,-0.00765519,0.33035,0.0664017,0.0622358,-0.104311,0.0576527,-0.10039,-0.100699,0.327431,0.0229967,-0.182843,1.10855e-08,-6.87696e-09,0.3,-0.3,-3.39418,-1.36488,1.68566,183.397,1.18087,1.90568,-13.99,-1.09148,0,185.773,-1.92314,0.000780106,0.000113596,1.27174e-05,0.86,94.6084,-18.9865,879.267
0.119,-0.192351,-0.00765519,0.33035,0.0664017,0.0622358,-0.104311,0.0576527,-0.10039,-0.100699,0.327431,0.0229967,-0.182843,1.10855e-08,-6.87696e-09,0.3,-0.3,-3.42154,-1.35283,1.69957,183.589,1.24978,1.91237,-13.99,-1.09148,0,185.773,-1.92314,0.000780106,0.000113596,1.27174e-05,0.86,94.6709,-18.9153,879.069
0.12,-0.192351,-0.00765519,0.33035,0.0664017,0.0622358,-0.104311,0.0576527,-0.10039,-0.100699,0.327431,0.0229967,-0.182843,1.10855e-08,-6.87696e-09,0.3,-0.3,-3.44874,-1.34089,1.71315,183.782,1.31865,1.91844,-13.99,-1.09148,0,185.773,-1.92314,0.000780106,0.000113596,1.27174e-05,0.86,94.7346,-18.8433,878.871
0.121,-0.192351,-0.00765519,0.33035,0.0664017,0.0622358,-0.104311,0.0576527,-0.10039,-0.100699,0.327431,0.0229967,-0.182843,1.10855e-08,-6.87696e-09,0.3,-0.3,-3.47589,-1.32903,1.72638,183.975,1.38745,1.92389,-13.99,-1.09148,0,185.773,-1.92314,0.000780106,0.000113596,1.27174e-05,0.86,94.7996,-18.7704,878.672
0.122,-0.192351,-0.00765519,0.33035,0.0664017,0.0622358,-0.104311,0.0576527,-0.10039,-0.100699,0.327431,0.0229967,-0.182843,1.10855e-08,-6.87696e-09,0.3,-0.3,-3.50301,-1.31727,1.73927,184.168,1.45613,1.92871,-13.99,-1.09148,0,185.773,-1.92314,0.000780106,0.000113596,1.27174e-05,0.86,94.866,-18.6968,878.473
0.123,-0.192351,-0.00765519,0.33035,0.0664017,0.0622358,-0.104311,0.0576527,-0.10039,-0.100699,0.327431,0.0229967,-0.182843,1.10855e-08,-6.87696e-09,0.3,-0.3,-3.53016,-1.30568,1.75201,184.232,1.4798,1.94791,-13.99,-1.09148,0,185.773,-1.92314,0.000780106,0.000113596,1.27174e-05,0.86,94.9178,-18.6251,878.278
0.124,-0.192351,-0.00765519,0.33035,0.0664017,0.0622358,-0.104311,0.0576527,-0.10039,-0.100699,0.327431,0.0229967,-0.182843,1.10855e-08,-6.87696e-09,0.3,-0.3,-3.58187,-1.2993,1.76739,184.232,1.47945,1.9669,-13.99,-1.09148,0,185.773,-1.92314,0.000780106,0.000113596,1.27174e-05,0.86,94.9605,-18.5531,878.088
0.125,-0.192351,-0.00765519,0.33035,0.0664017,0.0622358,-0.104311,0.0576527,-0.10039,-0.100699,0.327431,0.0229967,-0.182843,1.10855e-08,-6.87696e-09,0.3,-0.3,-3.64552,-1.27934,1.79135,184.224,1.47535,1.98573,-13.99,-1.09148,0,185.773,-1.92314,0.000780106,0.000113596,1.27174e-05,0.86,94.999,-18.4797,877.903
0.126,-0.192351,-0.00765519,0.33035,0.0664017,0.0622358,-0.104311,0.0576527,-0.10039,-0.100699,0.327431,0.0229967,-0.182843,1.10855e-08,-6.87696e-09,0.3,-0.3,-3.72239,-1.24924,1.82143,184.213,1.46975,2.00481,-13.99,-1.09148,0,185.773,-1.92314,0.000780106,0.000113596,1.27174e-05,0.86,95.0339,-18.4051,877.721
0.127,-0.192351,-0.00765519,0.33035,0.0664017,0.0622358,-0.104311,0.0576527,-0.10039,-0.100699,0.327431,0.0229967,-0.182843,1.10855e-08,-6.87696e-09,0.3,-0.3,-3.81246,-1.21223,1.85652,184.2,1.46343,2.02419,-13.99,-1.09148,0,185.773,-1.92314,0.000780106,0.000113596,1.27174e-05,0.86,95.0654,-18.3294,877.542
0.128,-0.192351,-0.00765519,0.33035,0.0664017,0.0622358,-0.104311,0.0576527,-0.10039,-0.100699,0.327431,0.0229967,-0.182843,1.10855e-08,-6.87696e-09,0.3,-0.3,-3.91448,-1.17031,1.89602,184.187,1.45686,2.04349,-13.99,-1.09148,0,185.773,-1.92314,0.000780106,0.000113596,1.27174e-05,0.86,95.0937,-18.2526,877.365
0.129,-0.192351,-0.00765519,0.33035,0.0664017,0.0622358,-0.104311,0.0576527,-0.10039,-0.100699,0.327431,0.0229967,-0.182843,1.10855e-08,-6.87696e-09,0.3,-0.3,-4.02757,-1.12533,1.93892,184.175,1.45047,2.06237,-13.99,-1.09148,0,185.773,-1.92314,0.000780106,0.000113596,1.27174e-05,0.86,95.119,-18.175,877.19
0.13,-0.192351,-0.00765519,0.33035,0.0664017,0.0622358,-0.104311,0.0576527,-0.10039,-0.100699,0.327431,0.0229967,-0.182843,1.10855e-08,-6.87696e-09,0.3,-0.3,-4.1515,-1.07897,1.98417,184.163,1.44425,2.08075,-13.99,-1.09148,0,185.773,-1.92314,0.000780106,0.000113596,1.27174e-05,0.86,95.1414,-18.0966,877.016
0.131,-0.192351,-0.00765519,0.33035,0.0664017,0.0622358,-0.104311,0.0576527,-0.10039,-0.100699,0.327431,0.0229967,-0.182843,1.10855e-08,-6.87696e-09,0.3,-0.3,-4.28571,-1.03226,2.03114,184.151,1.43827,2.09863,-13.99,-1.09148,0,185.773,-1.92314,0.000780106,0.000113596,1.27174e-05,0.86,95.1609,-18.0176,876.842
0.132,-0.192351,-0.00765519,0.33035,0.0664017,0.0622358,-0.104311,0.0576527,-0.10039,-0.100699,0.327431,0.0229967,-0.182843,1.10855e-08,-6.87696e-09,0.3,-0.3,-4.42968,-0.986208,2.07954,184.14,1.43257,2.11602,-13.99,-1.09148,0,185.773,-1.92314,0.000780106,0.000113596,1.27174e-05,0.86,95.1776,-17.9379,876.669
0.133,-0.192351,-0.00765519,0.33035,0.0664017,0.0622358,-0.104311,0.0576527,-0.10039,-0.100699,0.327431,0.0229967,-0.182843,1.10855e-08,-6.87696e-09,0.3,-0.3,-4.58295,-0.941667,2.1292,184.129,1.42716,2.13292,-13.99,-1.09148,0,185.773,-1.92314,0.000780106,0.000113596,1.27174e-05,0.86,95.1915,-17.8577,876.497
0.134,-0.192351,-0.00765519,0.33035,0.0664017,0.0622358,-0.104311,0.0576527,-0.10039,-0.100699,0.327431,0.0229967,-0.182843,1.10855e-08,-6.87696e-09,0.3,-0.3,-4.74508,-0.899369,2.17996,184.119,1.42204,2.14932,-13.99,-1.09148,0,185.773,-1.92314,0.000780106,0.000113596,1.27174e-05,0.86,95.2027,-17.777,876.326
0.135,-0.192351,-0.00765519,0.33035,0.0664017,0.0622358,-0.104311,0.0576527,-0.10039,-0.100699,0.327431,0.0229967,-0.182843,1.10855e-08,-6.87696e-09,0.3,-0.3,-4.91577,-0.859953,2.23166,184.11,1.41724,2.16513,-13.99,-1.09148,0,185.773,-1.92314,0.000780106,0.000113596,1.27174e-05,0.86,95.2113,-17.6959,876.156
0.136,-0.192351,-0.00765519,0.33035,0.0664017,0.0622358,-0.104311,0.0576527,-0.10039,-0.100699,0.327431,0.0229967,-0.182843,1.10855e-08,-6.87696e-09,0.3,-0.3,-5.09482,-0.823981,2.2841,184.101,1.41274,2.1803,-13.99,-1.09148,0,185.773,-1.92314,0.000780106,0.000113596,1.27174e-05,0.86,95.2171,-17.6143,875.986
0.137,-0.192351,-0.00765519,0.33035,0.0664017,0.0622358,-0.104311,0.0576527,-0.10039,-0.100699,0.327431,0.0229967,-0.182843,1.10855e-08,-6.87696e-09,0.3,-0.3,-5.28212,-0.791926,2.33697,184.093,1.40852,2.19479,-13.99,-1.09148,0,185.773,-1.92314,0.000780106,0.000113596,1.27174e-05,0.86,95.2204,-17.5325,875.817
0.138,-0.192351,-0.00765519,0.33035,0.0664017,0.0622358,-0.104311,0.0576527,-0.10039,-0.100699,0.327431,0.0229967,-0.182843,1.10855e-08,-6.87696e-09,0.3,-0.3,-5.47772,-0.764141,2.38996,184.085,1.40457,2.20854,-13.99,-1.09148,0,185.773,-1.92314,0.000780106,0.000113596,1.27174e-05,0.86,95.2211,-17.4502,875.648
0.139,-0.192351,-0.00765519,0.33035,0.0664017,0.0622358,-0.104311,0.0576527,-0.10039,-0.100699,0.327431,0.0229967,-0.182843,1.10855e-08,-6.87696e-09,0.3,-0.3,-5.6818,-0.740852,2.44279,184.078,1.40089,2.2215,-13.99,-1.09148,0,185.773,-1.92314,0.000780106,0.000113596,1.27174e-05,0.86,95.2192,-17.3677,875.48
0.14,-0.192351,-0.00765519,0.33035,0.0664017,0.0622358,-0.104311,0.0576527,-0.10039,-0.100699,0.327431,0.0229967,-0.182843,1.10855e-08,-6.87696e-09,0.3,-0.3,-5.8945,-0.722092,2.49519,184.072,1.39755,2.23364,-13.99,-1.09148,0,185.773,-1.92314,0.000780106,0.000113596,1.27174e-05,0.86,95.2148,-17.2849,875.313
0.141,-0.192351,-0.00765519,0.33035,0.0664017,0.0622358,-0.104311,0.0576527,-0.10039,-0.100699,0.327431,0.0229967,-0.182843,1.10855e-08,-6.87696e-09,0.3,-0.3,-6.11616,-0.707963,2.54702,184.066,1.3945,2.24489,-13.99,-1.09148,0,185.773,-1.92314,0.000780106,0.000113596,1.27174e-05,0.86,95.2078,-17.2018,875.145
0.142,-0.192351,-0.00765519,0.33035,0.0664017,0.0622358,-0.104311,0.0576527,-0.10039,-0.100699,0.327431,0.0229967,-0.182843,1.10855e-08,-6.87696e-09,0.3,-0.3,-6.34703,-0.69841,2.59816,184.06,1.39162,2.25523,-13.99,-1.09148,0,185.773,-1.92314,0.000780106,0.000113596,1.27174e-05,0.86,95.1982,-17.1183,874.978
0.143,-0.192351,-0.00765519,0.33035,0.0664017,0.0622358,-0.104311,0.0576527,-0.10039,-0.100699,0.327431,0.0229967,-0.182843,1.10855e-08,-6.87696e-09,0.3,-0.3,-6.5872,-0.693165,2.6485,184.055,1.38895,2.26459,-13.99,-1.09148,0,185.773,-1.92314,0.000780106,0.000113596,1.27174e-05,0.86,95.1861,-17.0346,874.811
0.144,-0.192351,-0.00765519,0.33035,0.0664017,0.0622358,-0.104311,0.0576527,-0.10039,-0.100699,0.327431,0.0229967,-0.182843,1.10855e-08,-6.87696e-09,0.3,-0.3,-6.83678,-0.692053,2.69801,184.05,1.38644,2.27291,-13.99,-1.09148,0,185.773,-1.92314,0.000780106,0.000113596,1.27174e-05,0.86,95.1713,-16.9506,874.645
0.145,-0.192351,-0.00765519,0.33035,0.0664017,0.0622358,-0.104311,0.0576527,-0.10039,-0.100699,0.327431,0.0229967,-0.182843,1.10855e-08,-6.87696e-09,0.3,-0.3,-7.09575,-0.694805,2.74671,184.046,1.38404,2.28013,-13.99,-1.09148,0,185.773,-1.92314,0.000780106,0.000113596,1.27174e-05,0.86,95.1539,-16.8662,874.479
0.146,-0.192351,-0.00765519,0.33035,0.0664017,0.0622358,-0.104311,0.0576527,-0.10039,-0.100699,0.327431,0.0229967,-0.182843,1.10855e-08,-6.87696e-09,0.3,-0.3,-7.36374,-0.700997,2.79468,184.041,1.3816,2.28648,-13.99,-1.09148,0,185.773,-1.92314,0.000780106,0.000113596,1.27174e-05,0.86,95.134,-16.7815,874.313
0.147,-0.192351,-0.00765519,0.33035,0.0664017,0.0622358,-0.104311,0.0576527,-0.10039,-0.100699,0.327431,0.0229967,-0.182843,1.10855e-08,-6.87696e-09,0.3,-0.3,-7.63967,-0.709627,2.84184,184.037,1.3795,2.29242,-13.99,-1.09148,0,185.773,-1.92314,0.000780106,0.000113596,1.27174e-05,0.86,95.1119,-16.6963,874.148
0.148,-0.192351,-0.00765519,0.33035,0.0664017,0.0622358,-0.104311,0.0576527,-0.10039,-0.100699,0.327431,0.0229967,-0.182843,1.10855e-08,-6.87696e-09,0.3,-0.3,-7.92248,-0.719818,2.88753,184.033,1.37758,2.29791,-13.99,-1.09148,0,185.773,-1.92314,0.000780106,0.000113596,1.27174e-05,0.86,95.0876,-16.6106,873.984
0.149,-0.192351,-0.00765519,0.33035,0.0664017,0.0622358,-0.104311,0.0576527,-0.10039,-0.100699,0.327431,0.0229967,-0.182843,1.10855e-08,-6.87696e-09,0.3,-0.3,-8.21047,-0.730744,2.93187,184.03,1.37584,2.30297,-13.99,-1.09148,0,185.773,-1.92314,0.000780106,0.000113596,1.27174e-05,0.86,95.0615,-16.5243,873.821
0.15,-0.192351,-0.00765519,0.33035,0.0664017,0.0622358,-0.104311,0.0576527,-0.10039,-0.100699,0.327431,0.0229967,-0.182843,1.10855e-08,-6.87696e-09,0.3,-0.3,-8.50185,-0.741783,2.97498,184.027,1.3743,2.30762,-13.99,-1.09148,0,185.773,-1.92314,0.000780106,0.000113596,1.27174e-05,0.86,95.0337,-16.4373,873.659
0.151,-0.192351,-0.00765519,0.33035,0.0664017,0.0622358,-0.104311,0.0576527,-0.10039,-0.100699,0.327431,0.0229967,-0.182843,1.10855e-08,-6.87696e-09,0.3,-0.3,-8.79488,-0.752412,3.0169,184.024,1.37295,2.31187,-13.99,-1.09148,0,185.773,-1.92314,0.000780106,0.000113596,1.27174e-05,0.86,95.0043,-16.3496,873.498
0.152,-0.192351,-0.00765519,0.33035,0.0664017,0.0622358,-0.104311,0.0576527,-0.10039,-0.100699,0.327431,0.0229967,-0.182843,1.10855e-08,-6.87696e-09,0.3,-0.3,-9.0879,-0.762204,3.05763,184.022,1.3718,2.31572,-13.99,-1.09148,0,185.773,-1.92314,0.000780106,0.000113596,1.27174e-05,0.86,94.9736,-16.2611,873.338
0.153,-0.192351,-0.00765519,0.33035,0.0664017,0.0622358,-0.104311,0.0576527,-0.10039,-0.100699,0.327431,0.0229967,-0.182843,1.10855e-08,-6.87696e-09,0.3,-0.3,-9.37943,-0.770825,3.09714,184.02,1.37085,2.31918,-13.99,-1.09148,0,185.773,-1.92314,0.000780106,0.000113596,1.27174e-05,0.86,94.9415,-16.1717,873.179
0.154,-0.192351,-0.00765519,0.33035,0.0664017,0.0622358,-0.104311,0.0576527,-0.10039,-0.100699,0.327431,0.0229967,-0.182843,1.10855e-08,-6.87696e-09,0.3,-0.3,-9.66812,-0.778015,3.13537,184.018,1.3701,2.32223,-13.99,-1.09148,0,185.773,-1.92314,0.000780106,0.000113596,1.27174e-05,0.86,94.9084,-16.0816,873.021
0.155,-0.192351,-0.00765519,0.33035,0.0664017,0.0622358,-0.104311,0.0576527,-0.10039,-0.100699,0.327431,0.0229967,-0.182843,1.10855e-08,-6.87696e-09,0.3,-0.3,-9.95284,-0.783572,3.17224,184.017,1.36955,2.32488,-13.99,-1.09148,0,185.773,-1.92314,0.000780106,0.000113596,1.27174e-05,0.86,94.8742,-15.9905,872.865
0.156,-0.192351,-0.00765519,0.33035,0.0664017,0.0622358,-0.104311,0.0576527,-0.10039,-0.100699,0.327431,0.0229967,-0.182843,1.10855e-08,-6.87696e-09,0.3,-0.3,-10.2326,-0.78734,3.20766,184.017,1.3692,2.32711,-13.99,-1.09148,0,185.773,-1.92314,0.000780106,0.000113596,1.27174e-05,0.86,94.8392,-15.8986,872.709
0.157,-0.192351,-0.00765519,0.33035,0.0664017,0.0622358,-0.104311,0.0576527,-0.10039,-0.100699,0.327431,0.0229967,-0.182843,1.10855e-08,-6.87696e-09,0.3,-0.3,-10.5065,-0.78919,3.24152,184.017,1.36903,2.32891,-13.99,-1.09148,0,185.773,-1.92314,0.000780106,0.000113596,1.27174e-05,0.86,94.8033,-15.8058,872.555
0.158,-0.192351,-0.00765519,0.33035,0.0664017,0.0622358,-0.104311,0.0576527,-0.10039,-0.100699,0.327431,0.0229967,-0.182843,1.10855e-08,-6.87696e-09,0.3,-0.3,-10.774,-0.789009,3.27372,184.017,1.36906,2.33025,-13.99,-1.09148,0,185.773,-1.92314,0.000780106,0.000113596,1.27174e-05,0.86,94.7667,-15.7121,872.403
0.159,-0.192351,-0.00765519,0.33035,0.0664017,0.0622358,-0.104311,0.0576527,-0.10039,-0.100699,0.327431,0.0229967,-0.182843,1.10855e-08,-6.87696e-09,0.3,-0.3,-11.0345,-0.786689,3.30415,184.017,1.36927,2.33112,-13.99,-1.09148,0,185.773,-1.92314,0.000780106,0.000113596,1.27174e-05,0.86,94.7294,-15.6175,872.251
0.16,-0.192351,-0.00765519,0.33035,0.0664017,0.0622358,-0.104311,0.0576527,-0.10039,-0.100699,0.327431,0.0229967,-0.182843,1.10855e-08,-6.87696e-09,0.3,-0.3,-11.2876,-0.782118,3.33273,184.018,1.36966,2.33149,-13.99,-1.09148,0,185.773,-1.92314,0.000780106,0.000113596,1.27174e-05,0.86,94.6915,-15.5219,872.1
0.161,-0.192351,-0.00765519,0.33035,0.0664017,0.0622358,-0.104311,0.0576527,-0.10039,-0.100699,0.327431,0.0229967,-0.182843,1.10855e-08,-6.87696e-09,0.3,-0.3,-11.533,-0.775178,3.35934,184.019,1.37022,2.33132,-13.99,-1.09148,0,185.773,-1.92314,0.000780106,0.000113596,1.27174e-05,0.86,94.6531,-15.4255,871.951
0.162,-0.192351,-0.00765519,0.33035,0.0664017,0.0622358,-0.104311,0.0576527,-0.10039,-0.100699,0.327431,0.0229967,-0.182843,1.10855e-08,-6.87696e-09,0.3,-0.3,-11.7703,-0.765732,3.3839,184.021,1.37096,2.3306,-13.99,-1.09148,0,185.773,-1.92314,0.000780106,0.000113596,1.27174e-05,0.86,94.614,-15.328,871.803
0.163,-0.192351,-0.00765519,0.33035,0.0664017,0.0622358,-0.104311,0.0576527,-0.10039,-0.100699,0.327431,0.0229967,-0.182843,1.10855e-08,-6.87696e-09,0.3,-0.3,-11.9996,-0.753711,3.40634,184.022,1.37185,2.32929,-13.99,-1.09148,0,185.773,-1.92314,0.000780106,0.000113596,1.27174e-05,0.86,94.5744,-15.2297,871.656
0.164,-0.192351,-0.00765519,0.33035,0.0664017,0.0622358,-0.104311,0.0576527,-0.10039,-0.100699,0.327431,0.0229967,-0.182843,1.10855e-08,-6.87696e-09,0.3,-0.3,-12.2207,-0.738941,3.42656,184.024,1.3729,2.32736,-13.99,-1.09148,0,185.773,-1.92314,0.000780106,0.000113596,1.27174e-05,0.86,94.5343,-15.1304,871.51
0.165,-0.192351,-0.00765519,0.33035,0.0664017,0.0622358,-0.104311,0.0576527,-0.10039,-0.100699,0.327431,0.0229967,-0.182843,1.10855e-08,-6.87696e-09,0.3,-0.3,-12.4337,-0.721337,3.4445,184.027,1.3741,2.32477,-13.99,-1.09148,0,185.773,-1.92314,0.000780106,0.000113596,1.27174e-05,0.86,94.4936,-15.0301,871.365
0.166,-0.192351,-0.00765519,0.33035,0.0664017,0.0622358,-0.104311,0.0576527,-0.10039,-0.100699,0.327431,0.0229967,-0.182843,1.10855e-08,-6.87696e-09,0.3,-0.3,-12.6384,-0.700791,3.46011,184.029,1.37541,2.32148,-13.99,-1.09148,0,185.773,-1.92314,0.000780106,0.000113596,1.27174e-05,0.86,94.4524,-14.9289,871.221
0.167,-0.192351,-0.00765519,0.33035,0.0664017,0.0622358,-0.104311,0.0576527,-0.10039,-0.100699,0.327431,0.0229967,-0.182843,1.10855e-08,-6.87696e-09,0.3,-0.3,-12.8351,-0.677138,3.47332,184.032,1.37686,2.31746,-13.99,-1.09148,0,185.773,-1.92314,0.000780106,0.000113596,1.27174e-05,0.86,94.4106,-14.8268,871.079
0.168,-0.192351,-0.00765519,0.33035,0.0664017,0.0622358,-0.104311,0.0576527,-0.10039,-0.100699,0.327431,0.0229967,-0.182843,1.10855e-08,-6.87696e-09,0.3,-0.3,-13.0237,-0.650281,3.48407,184.035,1.37843,2.31269,-13.99,-1.09148,0,185.773,-1.92314,0.000780106,0.000113596,1.27174e-05,0.86,94.3682,-14.7236,870.938
0.169,-0.192351,-0.00765519,0.33035,0.0664017,0.0622358,-0.104311,0.0576527,-0.10039,-0.100699,0.327431,0.0229967,-0.182843,1.10855e-08,-6.87696e-09,0.3,-0.3,-13.2046,-0.620129,3.49233,184.038,1.38009,2.3071,-13.99,-1.09148,0,185.773,-1.92314,0.000780106,0.000113596,1.27174e-05,0.86,94.3253,-14.6195,870.797
0.17,-0.192351,-0.00765519,0.33035,0.0664017,0.0622358,-0.104311,0.0576527,-0.10039,-0.100699,0.327431,0.0229967,-0.182843,1.10855e-08,-6.87696e-09,0.3,-0.3,-13.3778,-0.58654,3.49802,184.042,1.38184,2.30068,-13.99,-1.09148,0,185.773,-1.92314,0.000780106,0.000113596,1.27174e-05,0.86,94.2817,-14.5144,870.658
0.171,-0.192351,-0.00765519,0.33035,0.0664017,0.0622358,-0.104311,0.0576527,-0.10039,-0.100699,0.327431,0.0229967,-0.182843,1.10855e-08,-6.87696e-09,0.3,-0.3,-13.5434,-0.549425,3.50111,184.045,1.3837,2.29338,-13.99,-1.09148,0,185.773,-1.92314,0.000780106,0.000113596,1.27174e-05,0.86,94.2374,-14.4084,870.521
0.172,-0.192351,-0.00765519,0.33035,0.0664017,0.0622358,-0.104311,0.0576527,-0.10039,-0.100699,0.327431,0.0229967,-0.182843,1.10855e-08,-6.87696e-09,0.3,-0.3,-13.7018,-0.508716,3.50153,184.049,1.38565,2.28516,-13.99,-1.09148,0,185.773,-1.92314,0.000780106,0.000113596,1.27174e-05,0.86,94.1925,-14.3013,870.384
0.173,-0.192351,-0.00765519,0.33035,0.0664017,0.0622358,-0.104311,0.0576527,-0.10039,-0.100699,0.327431,0.0229967,-0.182843,1.10855e-08,-6.87696e-09,0.3,-0.3,-13.853,-0.464299,3.49925,184.053,1.38767,2.27599,-13.99,-1.09148,0,185.773,-1.92314,0.000780106,0.000113596,1.27174e-05,0.86,94.1469,-14.1933,870.248
0.174,-0.192351,-0.00765519,0.33035,0.0664017,0.0622358,-0.104311,0.0576527,-0.10039,-0.100699,0.327431,0.0229967,-0.182843,1.10855e-08,-6.87696e-09,0.3,-0.3,-13.9973,-0.416099,3.49419,184.057,1.38976,2.26584,-13.99,-1.09148,0,185.773,-1.92314,0.000780106,0.000113596,1.27174e-05,0.86,94.1005,-14.0843,870.113
0.175,-0.192351,-0.00765519,0.33035,0.0664017,0.0622358,-0.104311,0.0576527,-0.10039,-0.100699,0.327431,0.0229967,-0.182843,1.10855e-08,-6.87696e-09,0.3,-0.3,-14.1349,-0.364047,3.4863,184.061,1.39191,2.25467,-13.99,-1.09148,0,185.773,-1.92314,0.000780106,0.000113596,1.27174e-05,0.86,94.0534,-13.9743,869.98
0.176,-0.192351,-0.00765519,0.33035,0.0664017,0.0622358,-0.104311,0.0576527,-0.10039,-0.100699,0.327431,0.0229967,-0.182843,1.10855e-08,-6.87696e-09,0.3,-0.3,-14.266,-0.308085,3.47553,184.065,1.39413,2.24244,-13.99,-1.09148,0,185.773,-1.92314,0.000780106,0.000113596,1.27174e-05,0.86,94.0054,-13.8632,869.848
0.177,-0.192351,-0.00765519,0.33035,0.0664017,0.0622358,-0.104311,0.0576527,-0.10039,-0.100699,0.327431,0.0229967,-0.182843,1.10855e-08,-6.87696e-09,0.3,-0.3,-14.3908,-0.248157,3.46181,184.069,1.39639,2.22912,-13.99,-1.09148,0,185.773,-1.92314,0.000780106,0.000113596,1.27174e-05,0.86,93.9567,-13.7512,869.717
0.178,-0.192351,-0.00765519,0.33035,0.0664017,0.0622358,-0.104311,0.0576527,-0.10039,-0.100699,0.327431,0.0229967,-0.182843,1.10855e-08,-6.87696e-09,0.3,-0.3,-14.5094,-0.184215,3.44509,184.074,1.39871,2.21468,-13.99,-1.09148,0,185.773,-1.92314,0.000780106,0.000113596,1.27174e-05,0.86,93.9071,-13.6382,869.587
0.179,-0.192351,-0.00765519,0.33035,0.0664017,0.0622358,-0.104311,0.0576527,-0.10039,-0.100699,0.327431,0.0229967,-0.182843,1.10855e-08,-6.87696e-09,0.3,-0.3,-14.6221,-0.116206,3.42531,184.078,1.40106,2.19908,-13.99,-1.09148,0,185.773,-1.92314,0.000780106,0.000113596,1.27174e-05,0.86,93.8566,-13.5242,869.458
0.18,-0.192351,-0.00765519,0.33035,0.0664017,0.0622358,-0.104311,0.0576527,-0.10039,-0.100699,0.327431,0.0229967,-0.182843,1.10855e-08,-6.87696e-09,0.3,-0.3,-14.7291,-0.0440704,3.40237,184.082,1.40346,2.18229,-13.99,-1.09148,0,185.773,-1.92314,0.000780106,0.000113596,1.27174e-05,0.86,93.8052,-13.4091,869.33
0.181,-0.192351,-0.00765519,0.33035,0.0664017,0.0622358,-0.104311,0.0576527,-0.10039,-0.100699,0.327431,0.0229967,-0.182843,1.10855e-08,-6.87696e-09,0.3,-0.3,-14.8305,0.0322337,3.37626,184.087,1.40593,2.16429,-13.99,-1.09148,0,185.773,-1.92314,0.000780106,0.000113596,1.27174e-05,0.86,93.7529,-13.2931,869.204
0.182,-0.192351,-0.00765519,0.33035,0.0664017,0.0622358,-0.104311,0.0576527,-0.10039,-0.100699,0.327431,0.0229967,-0.182843,1.10855e-08,-6.87696e-09,0.3,-0.3,-14.9266,0.112746,3.3469,184.091,1.4084,2.14502,-13.99,-1.09148,0,185.773,-1.92314,0.000780106,0.000113596,1.27174e-05,0.86,93.6997,-13.176,869.078
0.183,-0.192351,-0.00765519,0.33035,0.0664017,0.0622358,-0.104311,0.0576527,-0.10039,-0.100699,0.327431,0.0229967,-0.182843,1.10855e-08,-6.87696e-09,0.3,-0.3,-15.0176,0.197586,3.31419,184.096,1.41091,2.12448,-13.99,-1.09148,0,185.773,-1.92314,0.000780106,0.000113596,1.27174e-05,0.86,93.6454,-13.0579,868.954
0.184,-0.192351,-0.00765519,0.33035,0.0664017,0.0622358,-0.104311,0.0576527,-0.10039,-0.100699,0.327431,0.0229967,-0.182843,1.10855e-08,-6.87696e-09,0.3,-0.3,-15.1035,0.286778,3.27812,184.1,1.41346,2.10263,-13.99,-1.09148,0,185.773,-1.92314,0.000780106,0.000113596,1.27174e-05,0.86,93.5903,-12.9388,868.83
0.185,-0.192351,-0.00765519,0.33035,0.0664017,0.0622358,-0.104311,0.0576527,-0.10039,-0.100699,0.327431,0.0229967,-0.182843,1.10855e-08,-6.87696e-09,0.3,-0.3,-15.1846,0.380374,3.2386,184.105,1.41601,2.07944,-13.99,-1.09148,0,185.773,-1.92314,0.000780106,0.000113596,1.27174e-05,0.86,93.534,-12.8186,868.708
0.186,-0.192351,-0.00765519,0.33035,0.0664017,0.0622358,-0.104311,0.0576527,-0.10039,-0.100699,0.327431,0.0229967,-0.182843,1.10855e-08,-6.87696e-09,0.3,-0.3,-15.2611,0.47848,3.19559,184.109,1.41859,2.05488,-13.99,-1.09148,0,185.773,-1.92314,0.000780106,0.000113596,1.27174e-05,0.86,93.4768,-12.6974,868.587
0.187,-0.192351,-0.00765519,0.33035,0.0664017,0.0622358,-0.104311,0.0576527,-0.10039,-0.100699,0.327431,0.0229967,-0.182843,1.10855e-08,-6.87696e-09,0.3,-0.3,-15.333,0.581172,3.14902,184.114,1.4212,2.02892,-13.99,-1.09148,0,185.773,-1.92314,0.000780106,0.000113596,1.27174e-05,0.86,93.4185,-12.5751,868.468
0.188,-0.192351,-0.00765519,0.33035,0.0664017,0.0622358,-0.104311,0.0576527,-0.10039,-0.100699,0.327431,0.0229967,-0.182843,1.10855e-08,-6.87696e-09,0.3,-0.3,-15.4007,0.688533,3.09882,184.118,1.42385,2.00155,-13.99,-1.09148,0,185.773,-1.92314,0.000780106,0.000113596,1.27174e-05,0.86,93.3592,-12.4518,868.349
0.189,-0.192351,-0.00765519,0.33035,0.0664017,0.0622358,-0.104311,0.0576527,-0.10039,-0.100699,0.327431,0.0229967,-0.182843,1.10855e-08,-6.87696e-09,0.3,-0.3,-15.4641,0.800656,3.04493,184.123,1.42653,1.97274,-13.99,-1.09148,0,185.773,-1.92314,0.000780106,0.000113596,1.27174e-05,0.86,93.2988,-12.3274,868.231
0.19,-0.192351,-0.00765519,0.33035,0.0664017,0.0622358,-0.104311,0.0576527,-0.10039,-0.100699,0.327431,0.0229967,-0.182843,1.10855e-08,-6.87696e-09,0.3,-0.3,-15.5234,0.917635,2.98729,184.128,1.42926,1.94246,-13.99,-1.09148,0,185.773,-1.92314,0.000780106,0.000113596,1.27174e-05,0.86,93.2374,-12.202,868.115
0.191,-0.192351,-0.00765519,0.33035,0.0664017,0.0622358,-0.104311,0.0576527,-0.10039,-0.100699,0.327431,0.0229967,-0.182843,1.10855e-08,-6.87696e-09,0.3,-0.3,-15.5787,1.03957,2.92586,184.132,1.43204,1.91069,-13.99,-1.09148,0,185.773,-1.92314,0.000780106,0.000113596,1.27174e-05,0.86,93.1748,-12.0754,868
0.192,-0.192351,-0.00765519,0.33035,0.0664017,0.0622358,-0.104311,0.0576527,-0.10039,-0.100699,0.327431,0.0229967,-0.182843,1.10855e-08,-6.87696e-09,0.3,-0.3,-15.63,1.16657,2.86058,184.137,1.43487,1.87741,-13.99,-1.09148,0,185.773,-1.92314,0.000780106,0.000113596,1.27174e-05,0.86,93.1112,-11.9478,867.886
0.193,-0.192351,-0.00765519,0.33035,0.0664017,0.0622358,-0.104311,0.0576527,-0.10039,-0.100699,0.327431,0.0229967,-0.182843,1.10855e-08,-6.87696e-09,0.3,-0.3,-15.6776,1.29874,2.79139,184.142,1.43776,1.84259,-13.99,-1.09148,0,185.773,-1.92314,0.000780106,0.000113596,1.27174e-05,0.86,93.0465,-11.8191,867.773
0.194,-0.192351,-0.00765519,0.33035,0.0664017,0.0622358,-0.104311,0.0576527,-0.10039,-0.100699,0.327431,0.0229967,-0.182843,1.10855e-08,-6.87696e-09,0.3,-0.3,-15.7213,1.4362,2.71825,184.147,1.44071,1.80622,-13.99,-1.09148,0,185.773,-1.92314,0.000780106,0.000113596,1.27174e-05,0.86,92.9807,-11.6893,867.661
0.195,-0.192351,-0.00765519,0.33035,0.0664017,0.0622358,-0.104311,0.0576527,-0.10039,-0.100699,0.327431,0.0229967,-0.182843,1.10855e-08,-6.87696e-09,0.3,-0.3,-15.7614,1.57906,2.64111,184.152,1.44372,1.76827,-13.99,-1.09148,0,185.773,-1.92314,0.000780106,0.000113596,1.27174e-05,0.86,92.9137,-11.5584,867.551
0.196,-0.192351,-0.00765519,0.33035,0.0664017,0.0622358,-0.104311,0.0576527,-0.10039,-0.100699,0.327431,0.0229967,-0.182843,1.10855e-08,-6.87696e-09,0.3,-0.3,-15.7977,1.72744,2.55991,184.157,1.4468,1.72872,-13.99,-1.09148,0,185.773,-1.92314,0.000780106,0.000113596,1.27174e-05,0.86,92.8457,-11.4263,867.442
0.197,-0.192351,-0.00765519,0.33035,0.0664017,0.0622358,-0.104311,0.0576527,-0.10039,-0.100699,0.327431,0.0229967,-0.182843,1.10855e-08,-6.87696e-09,0.3,-0.3,-15.789,1.74721,2.52577,184.161,1.44888,1.69273,-13.99,-1.09148,0,185.773,-1.92314,0.000780106,0.000113596,1.27174e-05,0.86,92.7795,-11.2998,867.347
0.198,-0.192351,-0.00765519,0.33035,0.0664017,0.0622358,-0.104311,0.0576527,-0.10039,-0.100699,0.327431,0.0229967,-0.182843,1.10855e-08,-6.87696e-09,0.3,-0.3,-15.7742,1.7531,2.50132,184.165,1.45128,1.65935,-13.99,-1.09148,0,185.773,-1.92314,0.000780106,0.000113596,1.27174e-05,0.86,92.7132,-11.1741,867.265
0.199,-0.192351,-0.00765519,0.33035,0.0664017,0.0622358,-0.104311,0.0576527,-0.10039,-0.100699,0.327431,0.0229967,-0.182843,1.10855e-08,-6.87696e-09,0.3,-0.3,-15.7585,1.75892,2.46696,184.17,1.45404,1.62851,-13.99,-1.09148,0,185.773,-1.92314,0.000780106,0.000113596,1.27174e-05,0.86,92.6471,-11.049,867.194
0.2,-0.192351,-0.00765519,0.33035,0.0664017,0.0622358,-0.104311,0.0576527,-0.10039,-0.100699,0.327431,0.0229967,-0.182843,1.10855e-08,-6.87696e-09,0.3,-0.3,-15.7413,1.7654,2.42427,184.176,1.45725,1.59997,-13.99,-1.09148,0,185.773,-1.92314,0.000780106,0.000113596,1.27174e-05,0.86,92.581,-10.9244,867.133
0.201,-0.192351,-0.00765519,0.33035,0.0664017,0.0622358,-0.104311,0.0576527,-0.10039,-0.100699,0.327431,0.0229967,-0.182843,1.10855e-08,-6.87696e-09,0.3,-0.3,-15.7232,1.77175,2.37892,184.23,1.53313,1.57727,-13.99,-1.09148,0,185.773,-1.92314,0.000780106,0.000113596,1.27174e-05,0.86,92.2757,-10.762,867.049
0.202,-0.192351,-0.00765519,0.33035,0.0664017,0.0622358,-0.104311,0.0576527,-0.10039,-0.100699,0.327431,0.0229967,-0.182843,1.10855e-08,-6.87696e-09,0.3,-0.3,-15.7043,1.77802,2.33248,184.191,1.46545,1.54859,-13.99,-1.09148,0,185.773,-1.92314,0.000780106,0.000113596,1.27174e-05,0.86,92.4494,-10.6757,867.042
0.203,-0.192351,-0.00765519,0.33035,0.0664017,0.0622358,-0.104311,0.0576527,-0.10039,-0.100699,0.327431,0.0229967,-0.182843,1.10855e-08,-6.87696e-09,0.3,-0.3,-15.685,1.7844,2.28603,184.201,1.47053,1.52518,-13.99,-1.09148,0,185.773,-1.92314,0.000780106,0.000113596,1.27174e-05,0.86,92.3837,-10.5513,867.009
0.204,-0.192351,-0.00765519,0.33035,0.0664017,0.0622358,-0.104311,0.0576527,-0.10039,-0.100699,0.327431,0.0229967,-0.182843,1.10855e-08,-6.87696e-09,0.3,-0.3,-15.6652,1.79089,2.24041,184.212,1.47624,1.50299,-13.99,-1.09148,0,185.773,-1.92314,0.000780106,0.000113596,1.27174e-05,0.86,92.318,-10.4265,866.985
0.205,-0.192351,-0.00765519,0.33035,0.0664017,0.0622358,-0.104311,0.0576527,-0.10039,-0.100699,0.327431,0.0229967,-0.182843,1.10855e-08,-6.87696e-09,0.3,-0.3,-15.6447,1.79767,2.19793,184.226,1.48328,1.47832,-13.99,-1.09148,0,185.773,-1.92314,0.000780106,0.000113596,1.27174e-05,0.86,92.2535,-10.303,866.964
0.206,-0.192351,-0.00765519,0.33035,0.0664017,0.0622358,-0.104311,0.0576527,-0.10039,-0.100699,0.327431,0.0229967,-0.182843,1.10855e-08,-6.87696e-09,0.3,-0.3,-15.6244,1.80511,2.15549,184.243,1.49159,1.45237,-13.99,-1.09148,0,185.773,-1.92314,0.000780106,0.000113596,1.27174e-05,0.86,92.1903,-10.1812,866.946
0.207,-0.192351,-0.00765519,0.33035,0.0664017,0.0622358,-0.104311,0.0576527,-0.10039,-0.100699,0.327431,0.0229967,-0.182843,1.10855e-08,-6.87696e-09,0.3,-0.3,-15.5927,1.79907,2.11236,184.262,1.50111,1.42564,-13.99,-1.09148,0,185.773,-1.92314,0.000780106,0.000113596,1.27174e-05,0.86,92.1281,-10.0611,866.93
0.208,-0.192351,-0.00765519,0.33035,0.0664017,0.0622358,-0.104311,0.0576527,-0.10039,-0.100699,0.327431,0.0229967,-0.182843,1.10855e-08,-6.87696e-09,0.3,-0.3,-15.5515,1.7817,2.06902,184.282,1.5111,1.39833,-13.99,-1.09148,0,185.773,-1.92314,0.000780106,0.000113596,1.27174e-05,0.86,92.0665,-9.94224,866.913
0.209,-0.192351,-0.00765519,0.33035,0.0664017,0.0622358,-0.104311,0.0576527,-0.10039,-0.100699,0.327431,0.0229967,-0.182843,1.10855e-08,-6.87696e-09,0.3,-0.3,-15.5163,1.77531,2.03675,184.302,1.52133,1.37112,-13.99,-1.09148,0,185.773,-1.92314,0.000780106,0.000113596,1.27174e-05,0.86,92.005,-9.82421,866.895
0.21,-0.192351,-0.00765519,0.33035,0.0664017,0.0622358,-0.104311,0.0576527,-0.10039,-0.100699,0.327431,0.0229967,-0.182843,1.10855e-08,-6.87696e-09,0.3,-0.3,-15.4839,1.77582,2.00138,184.323,1.53159,1.34506,-13.99,-1.09148,0,185.773,-1.92314,0.000780106,0.000113596,1.27174e-05,0.86,91.943,-9.70636,866.877
0.211,-0.192351,-0.00765519,0.33035,0.0664017,0.0622358,-0.104311,0.0576527,-0.10039,-0.100699,0.327431,0.0229967,-0.182843,1.10855e-08,-6.87696e-09,0.3,-0.3,-15.4538,1.78097,1.96308,184.479,1.51008,1.50911,-15.6428,0.214185,0,184.102,3.0186,0.000780106,0.000113596,1.27174e-05,0.86,90.8502,-8.96858,866.947
0.212,-0.192351,-0.00765519,0.33035,0.0664017,0.0622358,-0.104311,0.0576527,-0.10039,-0.100699,0.327431,0.0229967,-0.182843,1.10855e-08,-6.87696e-09,0.3,-0.3,-15.4253,1.78714,1.92349,184.363,1.55119,1.3014,-15.6428,0.214185,0,184.102,3.0186,0.000780106,0.000113596,1.27174e-05,0.86,91.8143,-9.46801,866.847
0.213,-0.192351,-0.00765519,0.33035,0.0664017,0.0622358,-0.104311,0.0576527,-0.10039,-0.100699,0.327431,0.0229967,-0.182843,1.10855e-08,-6.87696e-09,0.3,-0.3,-15.4113,1.79344,1.88569,184.38,1.55971,1.28662,-15.6428,0.214185,0,184.102,3.0186,0.000780106,0.000113596,1.27174e-05,0.86,91.7461,-9.34562,866.838
0.214,-0.192351,-0.00765519,0.33035,0.0664017,0.0622358,-0.104311,0.0576527,-0.10039,-0.100699,0.327431,0.0229967,-0.182843,1.10855e-08,-6.87696e-09,0.3,-0.3,-15.4033,1.81228,1.8561,184.396,1.56722,1.27856,-15.6428,0.214185,0,184.102,3.0186,0.000780106,0.000113596,1.27174e-05,0.86,91.6743,-9.21967,866.838
0.215,-0.192351,-0.00765519,0.33035,0.0664017,0.0622358,-0.104311,0.0576527,-0.10039,-0.100699,0.327431,0.0229967,-0.182843,1.10855e-08,-6.87696e-09,0.3,-0.3,-15.3842,1.80904,1.83204,184.412,1.57537,1.26371,-15.6428,0.214185,0,184.102,3.0186,0.000780106,0.000113596,1.27174e-05,0.86,91.6013,-9.0929,866.836
0.216,-0.192351,-0.00765519,0.33035,0.0664017,0.0622358,-0.104311,0.0576527,-0.10039,-0.100699,0.327431,0.0229967,-0.182843,1.10855e-08,-6.87696e-09,0.3,-0.3,-15.3607,1.79676,1.82189,184.43,1.58431,1.24476,-15.6428,0.214185,0,184.102,3.0186,0.000780106,0.000113596,1.27174e-05,0.86,91.5273,-8.96587,866.833
0.217,-0.192351,-0.00765519,0.33035,0.0664017,0.0622358,-0.104311,0.0576527,-0.10039,-0.100699,0.327431,0.0229967,-0.182843,1.10855e-08,-6.87696e-09,0.3,-0.3,-15.336,1.78023,1.81178,184.45,1.5941,1.22318,-15.6428,0.214185,0,184.102,3.0186,0.000780106,0.000113596,1.27174e-05,0.86,91.4527,-8.83875,866.829
0.218,-0.192351,-0.00765519,0.33035,0.0664017,0.0622358,-0.104311,0.0576527,-0.10039,-0.100699,0.327431,0.0229967,-0.182843,1.10855e-08,-6.87696e-09,0.3,-0.3,-15.3114,1.76288,1.79997,184.472,1.60463,1.20023,-15.6428,0.214185,0,184.102,3.0186,0.000780106,0.000113596,1.27174e-05,0.86,91.3773,-8.71152,866.823
0.219,-0.192351,-0.00765519,0.33035,0.0664017,0.0622358,-0.104311,0.0576527,-0.10039,-0.100699,0.327431,0.0229967,-0.182843,1.10855e-08,-6.87696e-09,0.3,-0.3,-15.2867,1.7454,1.78578,184.494,1.61563,1.17709,-15.6428,0.214185,0,184.102,3.0186,0.000780106,0.000113596,1.27174e-05,0.86,91.3011,-8.58408,866.817
0.22,-0.192351,-0.00765519,0.33035,0.0664017,0.0622358,-0.104311,0.0576527,-0.10039,-0.100699,0.327431,0.0229967,-0.182843,1.10855e-08,-6.87696e-09,0.3,-0.3,-15.2608,1.72657,1.76908,184.517,1.62679,1.15488,-15.6428,0.214185,0,184.102,3.0186,0.000780106,0.000113596,1.27174e-05,0.86,91.2237,-8.45619,866.811
0.221,-0.192351,-0.00765519,0.33035,0.0664017,0.0622358,-0.104311,0.0576527,-0.10039,-0.100699,0.327431,0.0229967,-0.182843,1.10855e-08,-6.87696e-09,0.3,-0.3,-15.2322,1.70388,1.75012,184.566,1.80689,1.18841,-15.6428,0.214185,0,184.102,3.0186,0.000780106,0.000113596,1.27174e-05,0.86,90.6818,-8.33182,866.827
0.222,-0.192351,-0.00765519,0.33035,0.0664017,0.0622358,-0.104311,0.0576527,-0.10039,-0.100699,0.327431,0.0229967,-0.182843,1.10855e-08,-6.87696e-09,0.3,-0.3,-15.1993,1.67408,1.72941,184.56,1.64817,1.11773,-15.6428,0.214185,0,184.102,3.0186,0.000780106,0.000113596,1.27174e-05,0.86,91.0641,-8.19772,866.801
0.223,-0.192351,-0.00765519,0.33035,0.0664017,0.0622358,-0.104311,0.0576527,-0.10039,-0.100699,0.327431,0.0229967,-0.182843,1.10855e-08,-6.87696e-09,0.3,-0.3,-15.1604,1.63344,1.7077,184.58,1.65764,1.10502,-15.6428,0.214185,0,184.102,3.0186,0.000780106,0.000113596,1.27174e-05,0.86,90.9811,-8.06632,866.799
0.224,-0.192351,-0.00765519,0.33035,0.0664017,0.0622358,-0.104311,0.0576527,-0.10039,-0.100699,0.327431,0.0229967,-0.182843,1.10855e-08,-6.87696e-09,0.3,-0.3,-15.1142,1.5781,1.68592,184.597,1.66582,1.09777,-15.6428,0.214185,0,184.102,3.0186,0.000780106,0.000113596,1.27174e-05,0.86,90.8953,-7.93282,866.801
0.225,-0.192351,-0.00765519,0.33035,0.0664017,0.0622358,-0.104311,0.0576527,-0.10039,-0.100699,0.327431,0.0229967,-0.182843,1.10855e-08,-6.87696e-09,0.3,-0.3,-15.0637,1.5045,1.67278,184.614,1.67413,1.0867,-15.6428,0.214185,0,184.102,3.0186,0.000780106,0.000113596,1.27174e-05,0.86,90.8072,-7.79791,866.803
0.226,-0.192351,-0.00765519,0.33035,0.0664017,0.0622358,-0.104311,0.0576527,-0.10039,-0.100699,0.327431,0.0229967,-0.182843,1.10855e-08,-6.87696e-09,0.3,-0.3,-15.0158,1.42459,1.66179,184.632,1.68287,1.07321,-15.6428,0.214185,0,184.102,3.0186,0.000780106,0.000113596,1.27174e-05,0.86,90.7172,-7.66206,866.806
0.227,-0.192351,-0.00765519,0.33035,0.0664017,0.0622358,-0.104311,0.0576527,-0.10039,-0.100699,0.327431,0.0229967,-0.182843,1.10855e-08,-6.87696e-09,0.3,-0.3,-14.9721,1.34316,1.65203,184.651,1.69211,1.05812,-15.6428,0.214185,0,184.102,3.0186,0.000780106,0.000113596,1.27174e-05,0.86,90.6253,-7.52548,866.81
0.228,-0.192351,-0.00765519,0.33035,0.0664017,0.0622358,-0.104311,0.0576527,-0.10039,-0.100699,0.327431,0.0229967,-0.182843,1.10855e-08,-6.87696e-09,0.3,-0.3,-14.9332,1.2626,1.64255,184.67,1.70178,1.0422,-15.6428,0.214185,0,184.102,3.0186,0.000780106,0.000113596,1.27174e-05,0.86,90.5318,-7.38827,866.813
0.229,-0.192351,-0.00765519,0.33035,0.0664017,0.0622358,-0.104311,0.0576527,-0.10039,-0.100699,0.327431,0.0229967,-0.182843,1.10855e-08,-6.87696e-09,0.3,-0.3,-14.8985,1.18355,1.63279,184.691,1.71174,1.02627,-15.6428,0.214185,0,184.102,3.0186,0.000780106,0.000113596,1.27174e-05,0.86,90.4365,-7.25042,866.817
0.23,-0.192351,-0.00765519,0.33035,0.0664017,0.0622358,-0.104311,0.0576527,-0.10039,-0.100699,0.327431,0.0229967,-0.182843,1.10855e-08,-6.87696e-09,0.3,-0.3,-14.8674,1.10569,1.62245,184.712,1.72187,1.00952,-15.6428,0.214185,0,184.102,3.0186,0.000780106,0.000113596,1.27174e-05,0.86,90.3398,-7.11183,866.819
0.231,-0.192351,-0.00765519,0.33035,0.0664017,0.0622358,-0.104311,0.0576527,-0.10039,-0.100699,0.327431,0.0229967,-0.182843,1.10855e-08,-6.87696e-09,0.3,-0.3,-14.8404,1.02877,1.60798,184.751,1.91535,0.823242,-15.6428,0.214185,0,184.102,3.0186,0.000780106,0.000113596,1.27174e-05,0.86,90.7298,-7.53763,866.728
0.232,-0.192351,-0.00765519,0.33035,0.0664017,0.0622358,-0.104311,0.0576527,-0.10039,-0.100699,0.327431,0.0229967,-0.182843,1.10855e-08,-6.87696e-09,0.3,-0.3,-14.8166,0.951805,1.58814,184.752,1.74129,0.975687,-15.6428,0.214185,0,184.102,3.0186,0.000780106,0.000113596,1.27174e-05,0.86,90.1422,-6.83168,866.814
0.233,-0.192351,-0.00765519,0.33035,0.0664017,0.0622358,-0.104311,0.0576527,-0.10039,-0.100699,0.327431,0.0229967,-0.182843,1.10855e-08,-6.87696e-09,0.3,-0.3,-14.7943,0.873371,1.56334,184.77,1.75002,0.960173,-15.6428,0.214185,0,184.102,3.0186,0.000780106,0.000113596,1.27174e-05,0.86,90.0411,-6.68955,866.807
0.234,-0.192351,-0.00765519,0.33035,0.0664017,0.0622358,-0.104311,0.0576527,-0.10039,-0.100699,0.327431,0.0229967,-0.182843,1.10855e-08,-6.87696e-09,0.3,-0.3,-14.772,0.791818,1.5345,184.786,1.75777,0.94668,-15.6428,0.214185,0,184.102,3.0186,0.000780106,0.000113596,1.27174e-05,0.86,89.9382,-6.54556,866.799
0.235,-0.192351,-0.00765519,0.33035,0.0664017,0.0622358,-0.104311,0.0576527,-0.10039,-0.100699,0.327431,0.0229967,-0.182843,1.10855e-08,-6.87696e-09,0.3,-0.3,-14.751,0.706027,1.50667,184.803,1.76619,0.927179,-15.6428,0.214185,0,184.102,3.0186,0.000780106,0.000113596,1.27174e-05,0.86,89.8344,-6.39987,866.786
0.236,-0.192351,-0.00765519,0.33035,0.0664017,0.0622358,-0.104311,0.0576527,-0.10039,-0.100699,0.327431,0.0229967,-0.182843,1.10855e-08,-6.87696e-09,0.3,-0.3,-14.7355,0.624915,1.4733,184.822,1.77531,0.902866,-15.6428,0.214185,0,184.102,3.0186,0.000780106,0.000113596,1.27174e-05,0.86,89.7299,-6.25275,866.768
0.237,-0.192351,-0.00765519,0.33035,0.0664017,0.0622358,-0.104311,0.0576527,-0.10039,-0.100699,0.327431,0.0229967,-0.182843,1.10855e-08,-6.87696e-09,0.3,-0.3,-14.7253,0.552843,1.43358,184.841,1.78495,0.874922,-15.6428,0.214185,0,184.102,3.0186,0.000780106,0.000113596,1.27174e-05,0.86,89.6247,-6.10424,866.743
0.238,-0.192351,-0.00765519,0.33035,0.0664017,0.0622358,-0.104311,0.0576527,-0.10039,-0.100699,0.327431,0.0229967,-0.182843,1.10855e-08,-6.87696e-09,0.3,-0.3,-14.7187,0.49187,1.38837,184.862,1.79485,0.844435,-15.6428,0.214185,0,184.102,3.0186,0.000780106,0.000113596,1.27174e-05,0.86,89.5188,-5.95426,866.715
0.239,-0.192351,-0.00765519,0.33035,0.0664017,0.0622358,-0.104311,0.0576527,-0.10039,-0.100699,0.327431,0.0229967,-0.182843,1.10855e-08,-6.87696e-09,0.3,-0.3,-14.7139,0.442387,1.33883,184.882,1.80472,0.812414,-15.6428,0.214185,0,184.102,3.0186,0.000780106,0.000113596,1.27174e-05,0.86,89.4121,-5.80274,866.684
0.24,-0.192351,-0.00765519,0.33035,0.0664017,0.0622358,-0.104311,0.0576527,-0.10039,-0.100699,0.327431,0.0229967,-0.182843,1.10855e-08,-6.87696e-09,0.3,-0.3,-14.7093,0.403572,1.28603,184.901,1.81424,0.77981,-15.6428,0.214185,0,184.102,3.0186,0.000780106,0.000113596,1.27174e-05,0.86,89.3044,-5.64958,866.65
0.241,-0.192351,-0.00765519,0.33035,0.0664017,0.0622358,-0.104311,0.0576527,-0.10039,-0.100699,0.327431,0.0229967,-0.182843,1.10855e-08,-6.87696e-09,0.3,-0.3,-14.7033,0.373744,1.23095,184.981,1.68799,0.584976,-15.6428,0.214185,0,184.102,3.0186,0.000780106,0.000113596,1.27174e-05,0.86,89.6357,-5.57608,866.525
0.242,-0.192351,-0.00765519,0.33035,0.0664017,0.0622358,-0.104311,0.0576527,-0.10039,-0.100699,0.327431,0.0229967,-0.182843,1.10855e-08,-6.87696e-09,0.3,-0.3,-14.6946,0.350627,1.17447,184.936,1.83094,0.71645,-15.6428,0.214185,0,184.102,3.0186,0.000780106,0.000113596,1.27174e-05,0.86,89.0852,-5.33804,866.581
0.243,-0.192351,-0.00765519,0.33035,0.0664017,0.0622358,-0.104311,0.0576527,-0.10039,-0.100699,0.327431,0.0229967,-0.182843,1.10855e-08,-6.87696e-09,0.3,-0.3,-14.6823,0.331576,1.11744,184.949,1.83743,0.687439,-15.6428,0.214185,0,184.102,3.0186,0.000780106,0.000113596,1.27174e-05,0.86,88.9732,-5.17947,866.546
0.244,-0.192351,-0.00765519,0.33035,0.0664017,0.0622358,-0.104311,0.0576527,-0.10039,-0.100699,0.327431,0.0229967,-0.182843,1.10855e-08,-6.87696e-09,0.3,-0.3,-14.6654,0.313744,1.06068,184.959,1.84225,0.661345,-15.6428,0.214185,0,184.102,3.0186,0.000780106,0.000113596,1.27174e-05,0.86,88.8593,-5.01889,866.512
0.245,-0.192351,-0.00765519,0.33035,0.0664017,0.0622358,-0.104311,0.0576527,-0.10039,-0.100699,0.327431,0.0229967,-0.182843,1.10855e-08,-6.87696e-09,0.3,-0.3,-14.6454,0.296833,1.00596,184.969,1.84719,0.631624,-15.6428,0.214185,0,184.102,3.0186,0.000780106,0.000113596,1.27174e-05,0.86,88.7441,-4.85629,866.477
0.246,-0.192351,-0.00765519,0.33035,0.0664017,0.0622358,-0.104311,0.0576527,-0.10039,-0.100699,0.327431,0.0229967,-0.182843,1.10855e-08,-6.87696e-09,0.3,-0.3,-14.6253,0.283026,0.948518,184.979,1.85229,0.598839,-15.6428,0.214185,0,184.102,3.0186,0.000780106,0.000113596,1.27174e-05,0.86,88.6277,-4.69194,866.438
0.247,-0.192351,-0.00765519,0.33035,0.0664017,0.0622358,-0.104311,0.0576527,-0.10039,-0.100699,0.327431,0.0229967,-0.182843,1.10855e-08,-6.87696e-09,0.3,-0.3,-14.6059,0.273101,0.887612,184.99,1.85748,0.563667,-15.6428,0.214185,0,184.102,3.0186,0.000780106,0.000113596,1.27174e-05,0.86,88.5101,-4.52593,866.395
0.248,-0.192351,-0.00765519,0.33035,0.0664017,0.0622358,-0.104311,0.0576527,-0.10039,-0.100699,0.327431,0.0229967,-0.182843,1.10855e-08,-6.87696e-09,0.3,-0.3,-14.5872,0.267443,0.823909,185,1.86266,0.526779,-15.6428,0.214185,0,184.102,3.0186,0.000780106,0.000113596,1.27174e-05,0.86,88.3912,-4.35827,866.349
0.249,-0.192351,-0.00765519,0.33035,0.0664017,0.0622358,-0.104311,0.0576527,-0.10039,-0.100699,0.327431,0.0229967,-0.182843,1.10855e-08,-6.87696e-09,0.3,-0.3,-14.5691,0.266183,0.758338,185.01,1.86772,0.488855,-15.6428,0.214185,0,184.102,3.0186,0.000780106,0.000113596,1.27174e-05,0.86,88.271,-4.189,866.302
0.25,-0.192351,-0.00765519,0.33035,0.0664017,0.0622358,-0.104311,0.0576527,-0.10039,-0.100699,0.327431,0.0229967,-0.182843,1.10855e-08,-6.87696e-09,0.3,-0.3,-14.5515,0.269254,0.691797,185.02,1.87257,0.45056,-15.6428,0.214185,0,184.102,3.0186,0.000780106,0.000113596,1.27174e-05,0.86,88.1493,-4.01812,866.253
0.251,-0.192351,-0.00765519,0.33035,0.0664017,0.0622358,-0.104311,0.0576527,-0.10039,-0.100699,0.327431,0.0229967,-0.182843,1.10855e-08,-6.87696e-09,0.3,-0.3,-14.5345,0.276421,0.625102,185.14,1.56158,0.307951,-15.6428,0.214185,0,184.102,3.0186,0.000780106,0.000113596,1.27174e-05,0.86,88.1405,-3.49522,866.131
0.252,-0.192351,-0.00765519,0.33035,0.0664017,0.0622358,-0.104311,0.0576527,-0.10039,-0.100699,0.327431,0.0229967,-0.182843,1.10855e-08,-6.87696e-09,0.3,-0.3,-14.5181,0.287303,0.559005,185.038,1.8813,0.375425,-15.6428,0.214185,0,184.102,3.0186,0.000780106,0.000113596,1.27174e-05,0.86,87.9016,-3.67174,866.156
0.253,-0.192351,-0.00765519,0.33035,0.0664017,0.0622358,-0.104311,0.0576527,-0.10039,-0.100699,0.327431,0.0229967,-0.182843,1.10855e-08,-6.87696e-09,0.3,-0.3,-14.5025,0.301363,0.494235,185.046,1.87795,0.353916,-15.6428,0.214185,0,184.102,3.0186,0.000780106,0.000113596,1.27174e-05,0.86,87.777,-3.49538,866.112
0.254,-0.192351,-0.00765519,0.33035,0.0664017,0.0622358,-0.104311,0.0576527,-0.10039,-0.100699,0.327431,0.0229967,-0.182843,1.10855e-08,-6.87696e-09,0.3,-0.3,-14.4842,0.319994,0.435376,185.052,1.87525,0.333742,-15.6428,0.214185,0,184.102,3.0186,0.000780106,0.000113596,1.27174e-05,0.86,87.6524,-3.31702,866.073
0.255,-0.192351,-0.00765519,0.33035,0.0664017,0.0622358,-0.104311,0.0576527,-0.10039,-0.100699,0.327431,0.0229967,-0.182843,1.10855e-08,-6.87696e-09,0.3,-0.3,-14.466,0.345854,0.378535,185.057,1.87298,0.312386,-15.6428,0.214185,0,184.102,3.0186,0.000780106,0.000113596,1.27174e-05,0.86,87.5275,-3.13689,866.035
0.256,-0.192351,-0.00765519,0.33035,0.0664017,0.0622358,-0.104311,0.0576527,-0.10039,-0.100699,0.327431,0.0229967,-0.182843,1.10855e-08,-6.87696e-09,0.3,-0.3,-14.4473,0.375958,0.324723,185.062,1.87108,0.290249,-15.6428,0.214185,0,184.102,3.0186,0.000780106,0.000113596,1.27174e-05,0.86,87.4022,-2.95517,866
0.257,-0.192351,-0.00765519,0.33035,0.0664017,0.0622358,-0.104311,0.0576527,-0.10039,-0.100699,0.327431,0.0229967,-0.182843,1.10855e-08,-6.87696e-09,0.3,-0.3,-14.428,0.408294,0.273835,185.065,1.86956,0.267075,-15.6428,0.214185,0,184.102,3.0186,0.000780106,0.000113596,1.27174e-05,0.86,87.2765,-2.77204,865.966
0.258,-0.192351,-0.00765519,0.33035,0.0664017,0.0622358,-0.104311,0.0576527,-0.10039,-0.100699,0.327431,0.0229967,-0.182843,1.10855e-08,-6.87696e-09,0.3,-0.3,-14.4093,0.442143,0.224245,185.069,1.86802,0.24279,-15.6428,0.214185,0,184.102,3.0186,0.000780106,0.000113596,1.27174e-05,0.86,87.1503,-2.58759,865.931
0.259,-0.192351,-0.00765519,0.33035,0.0664017,0.0622358,-0.104311,0.0576527,-0.10039,-0.100699,0.327431,0.0229967,-0.182843,1.10855e-08,-6.87696e-09,0.3,-0.3,-14.3922,0.477124,0.174035,185.072,1.8665,0.217863,-15.6428,0.214185,0,184.102,3.0186,0.000780106,0.000113596,1.27174e-05,0.86,87.0238,-2.40196,865.895
0.26,-0.192351,-0.00765519,0.33035,0.0664017,0.0622358,-0.104311,0.0576527,-0.10039,-0.100699,0.327431,0.0229967,-0.182843,1.10855e-08,-6.87696e-09,0.3,-0.3,-14.3767,0.513041,0.122989,185.076,1.86498,0.192865,-15.6428,0.214185,0,184.102,3.0186,0.000780106,0.000113596,1.27174e-05,0.86,86.8967,-2.21521,865.859
0.261,-0.192351,-0.00765519,0.33035,0.0664017,0.0622358,-0.104311,0.0576527,-0.10039,-0.100699,0.327431,0.0229967,-0.182843,1.10855e-08,-6.87696e-09,0.3,-0.3,-14.3622,0.549744,0.0716083,185.201,1.66108,0.11937,-15.6428,0.214185,0,184.102,3.0186,0.000780106,0.000113596,1.27174e-05,0.86,86.66,-1.77017,865.774
0.262,-0.192351,-0.00765519,0.33035,0.0664017,0.0622358,-0.104311,0.0576527,-0.10039,-0.100699,0.327431,0.0229967,-0.182843,1.10855e-08,-6.87696e-09,0.3,-0.3,-14.3484,0.587089,0.0206044,185.084,1.8616,0.145164,-15.6428,0.214185,0,184.102,3.0186,0.000780106,0.000113596,1.27174e-05,0.86,86.6417,-1.8386,865.786
0.263,-0.192351,-0.00765519,0.33035,0.0664017,0.0622358,-0.104311,0.0576527,-0.10039,-0.100699,0.327431,0.0229967,-0.182843,1.10855e-08,-6.87696e-09,0.3,-0.3,-14.3491,0.588957,0.0315489,185.086,1.86027,0.129986,-15.6428,0.214185,0,184.102,3.0186,0.000780106,0.000113596,1.27174e-05,0.86,86.5144,-1.65552,865.762
0.264,-0.192351,-0.00765519,0.33035,0.0664017,0.0622358,-0.104311,0.0576527,-0.10039,-0.100699,0.327431,0.0229967,-0.182843,1.10855e-08,-6.87696e-09,0.3,-0.3,-14.3576,0.593122,0.0480787,185.084,1.86086,0.129921,-15.6428,0.214185,0,184.102,3.0186,0.000780106,0.000113596,1.27174e-05,0.86,86.3888,-1.47382,865.751
0.265,-0.192351,-0.00765519,0.33035,0.0664017,0.0622358,-0.104311,0.0576527,-0.10039,-0.100699,0.327431,0.0229967,-0.182843,1.10855e-08,-6.87696e-09,0.3,-0.3,-14.364,0.599294,0.0621737,185.081,1.85797,0.143606,-15.6428,0.214185,0,184.102,3.0186,0.000780106,0.000113596,1.27174e-05,0.86,86.2649,-1.29376,865.753
0.266,-0.192351,-0.00765519,0.33035,0.0664017,0.0622358,-0.104311,0.0576527,-0.10039,-0.100699,0.327431,0.0229967,-0.182843,1.10855e-08,-6.87696e-09,0.3,-0.3,-14.37,0.607399,0.0763266,185.073,1.85425,0.172522,-15.6428,0.214185,0,184.102,3.0186,0.000780106,0.000113596,1.27174e-05,0.86,86.1417,-1.11701,865.768
0.267,-0.192351,-0.00765519,0.33035,0.0664017,0.0622358,-0.104311,0.0576527,-0.10039,-0.100699,0.327431,0.0229967,-0.182843,1.10855e-08,-6.87696e-09,0.3,-0.3,-14.376,0.614642,0.0905653,185.069,1.84394,0.203981,-15.6428,0.214185,0,184.102,3.0186,0.000780106,0.000113596,1.27174e-05,0.86,86.02,-0.94272,865.788
0.268,-0.192351,-0.00765519,0.33035,0.0664017,0.0622358,-0.104311,0.0576527,-0.10039,-0.100699,0.327431,0.0229967,-0.182843,1.10855e-08,-6.87696e-09,0.3,-0.3,-14.3809,0.6206,0.102728,185.07,1.82708,0.237335,-15.6428,0.214185,0,184.102,3.0186,0.000780106,0.000113596,1.27174e-05,0.86,85.8995,-0.770785,865.81
0.269,-0.192351,-0.00765519,0.33035,0.0664017,0.0622358,-0.104311,0.0576527,-0.10039,-0.100699,0.327431,0.0229967,-0.182843,1.10855e-08,-6.87696e-09,0.3,-0.3,-14.3852,0.62509,0.113501,185.075,1.80479,0.270861,-15.6428,0.214185,0,184.102,3.0186,0.000780106,0.000113596,1.27174e-05,0.86,85.7803,-0.601129,865.831
0.27,-0.192351,-0.00765519,0.33035,0.0664017,0.0622358,-0.104311,0.0576527,-0.10039,-0.100699,0.327431,0.0229967,-0.182843,1.10855e-08,-6.87696e-09,0.3,-0.3,-14.389,0.627901,0.123416,185.082,1.77834,0.304466,-15.6428,0.214185,0,184.102,3.0186,0.000780106,0.000113596,1.27174e-05,0.86,85.6626,-0.433528,865.851
0.271,-0.192351,-0.00765519,0.33035,0.0664017,0.0622358,-0.104311,0.0576527,-0.10039,-0.100699,0.327431,0.0229967,-0.182843,1.10855e-08,-6.87696e-09,0.3,-0.3,-14.3934,0.629515,0.133242,185.202,1.65757,0.132393,-15.6428,0.214185,0,184.102,3.0186,0.000780106,0.000113596,1.27174e-05,0.86,86.3086,-0.557795,865.764
0.272,-0.192351,-0.00765519,0.33035,0.0664017,0.0622358,-0.104311,0.0576527,-0.10039,-0.100699,0.327431,0.0229967,-0.182843,1.10855e-08,-6.87696e-09,0.3,-0.3,-14.3973,0.630937,0.145568,185.098,1.71961,0.372042,-15.6428,0.214185,0,184.102,3.0186,0.000780106,0.000113596,1.27174e-05,0.86,85.4326,-0.103749,865.893
0.273,-0.192351,-0.00765519,0.33035,0.0664017,0.0622358,-0.104311,0.0576527,-0.10039,-0.100699,0.327431,0.0229967,-0.182843,1.10855e-08,-6.87696e-09,0.3,-0.3,-14.4012,0.63193,0.160638,185.103,1.6908,0.405533,-15.6428,0.214185,0,184.102,3.0186,0.000780106,0.000113596,1.27174e-05,0.86,85.3208,0.0586169,865.915
0.274,-0.192351,-0.00765519,0.33035,0.0664017,0.0622358,-0.104311,0.0576527,-0.10039,-0.100699,0.327431,0.0229967,-0.182843,1.10855e-08,-6.87696e-09,0.3,-0.3,-14.4049,0.632603,0.178573,185.103,1.66455,0.438639,-15.6428,0.214185,0,184.102,3.0186,0.000780106,0.000113596,1.27174e-05,0.86,85.2115,0.219393,865.937
0.275,-0.192351,-0.00765519,0.33035,0.0664017,0.0622358,-0.104311,0.0576527,-0.10039,-0.100699,0.327431,0.0229967,-0.182843,1.10855e-08,-6.87696e-09,0.3,-0.3,-14.4073,0.63282,0.194645,185.103,1.63736,0.473366,-15.6428,0.214185,0,184.102,3.0186,0.000780106,0.000113596,1.27174e-05,0.86,85.1041,0.378603,865.96
0.276,-0.192351,-0.00765519,0.33035,0.0664017,0.0622358,-0.104311,0.0576527,-0.10039,-0.100699,0.327431,0.0229967,-0.182843,1.10855e-08,-6.87696e-09,0.3,-0.3,-14.4092,0.632765,0.211144,185.103,1.6091,0.509769,-15.6428,0.214185,0,184.102,3.0186,0.000780106,0.000113596,1.27174e-05,0.86,84.9987,0.53645,865.985
0.277,-0.192351,-0.00765519,0.33035,0.0664017,0.0622358,-0.104311,0.0576527,-0.10039,-0.100699,0.327431,0.0229967,-0.182843,1.10855e-08,-6.87696e-09,0.3,-0.3,-14.4106,0.632601,0.228567,185.104,1.58016,0.547876,-15.6428,0.214185,0,184.102,3.0186,0.000780106,0.000113596,1.27174e-05,0.86,84.895,0.69309,866.011
0.278,-0.192351,-0.00765519,0.33035,0.0664017,0.0622358,-0.104311,0.0576527,-0.10039,-0.100699,0.327431,0.0229967,-0.182843,1.10855e-08,-6.87696e-09,0.3,-0.3,-14.4118,0.632392,0.247243,185.104,1.55132,0.587614,-15.6428,0.214185,0,184.102,3.0186,0.000780106,0.000113596,1.27174e-05,0.86,84.7931,0.84863,866.039
0.279,-0.192351,-0.00765519,0.33035,0.0664017,0.0622358,-0.104311,0.0576527,-0.10039,-0.100699,0.327431,0.0229967,-0.182843,1.10855e-08,-6.87696e-09,0.3,-0.3,-14.4129,0.632165,0.267415,185.104,1.52354,0.628855,-15.6428,0.214185,0,184.102,3.0186,0.000780106,0.000113596,1.27174e-05,0.86,84.693,1.00313,866.068
0.28,-0.192351,-0.00765519,0.33035,0.0664017,0.0622358,-0.104311,0.0576527,-0.10039,-0.100699,0.327431,0.0229967,-0.182843,1.10855e-08,-6.87696e-09,0.3,-0.3,-14.4137,0.631931,0.289268,185.103,1.49789,0.671463,-15.6428,0.214185,0,184.102,3.0186,0.000780106,0.000113596,1.27174e-05,0.86,84.5947,1.15661,866.1
0.281,-0.192351,-0.00765519,0.33035,0.0664017,0.0622358,-0.104311,0.0576527,-0.10039,-0.100699,0.327431,0.0229967,-0.182843,1.10855e-08,-6.87696e-09,0.3,-0.3,-14.4145,0.631687,0.312955,185.113,1.50053,0.430023,-15.6428,0.214185,0,184.102,3.0186,0.000780106,0.000113596,1.27174e-05,0.86,85.6298,0.832352,865.992
0.282,-0.192351,-0.00765519,0.33035,0.0664017,0.0622358,-0.104311,0.0576527,-0.10039,-0.100699,0.327431,0.0229967,-0.182843,1.10855e-08,-6.87696e-09,0.3,-0.3,-14.4153,0.631428,0.338601,185.094,1.45731,0.760294,-15.6428,0.214185,0,184.102,3.0186,0.000780106,0.000113596,1.27174e-05,0.86,84.4036,1.46037,866.167
0.283,-0.192351,-0.00765519,0.33035,0.0664017,0.0622358,-0.104311,0.0576527,-0.10039,-0.100699,0.327431,0.0229967,-0.182843,1.10855e-08,-6.87696e-09,0.3,-0.3,-14.4162,0.631154,0.366316,185.085,1.44436,0.806318,-15.6428,0.214185,0,184.102,3.0186,0.000780106,0.000113596,1.27174e-05,0.86,84.3112,1.61051,866.203
0.284,-0.192351,-0.00765519,0.33035,0.0664017,0.0622358,-0.104311,0.0576527,-0.10039,-0.100699,0.327431,0.0229967,-0.182843,1.10855e-08,-6.87696e-09,0.3,-0.3,-14.4171,0.630864,0.396198,185.072,1.43743,0.853325,-15.6428,0.214185,0,184.102,3.0186,0.000780106,0.000113596,1.27174e-05,0.86,84.221,1.75932,866.24
0.285,-0.192351,-0.00765519,0.33035,0.0664017,0.0622358,-0.104311,0.0576527,-0.10039,-0.100699,0.327431,0.0229967,-0.182843,1.10855e-08,-6.87696e-09,0.3,-0.3,-14.4172,0.630304,0.42428,185.058,1.43324,0.903095,-15.6428,0.214185,0,184.102,3.0186,0.000780106,0.000113596,1.27174e-05,0.86,84.1326,1.90691,866.28
0.286,-0.192351,-0.00765519,0.33035,0.0664017,0.0622358,-0.104311,0.0576527,-0.10039,-0.100699,0.327431,0.0229967,-0.182843,1.10855e-08,-6.87696e-09,0.3,-0.3,-14.4173,0.629632,0.452769,185.046,1.43003,0.955427,-15.6428,0.214185,0,184.102,3.0186,0.000780106,0.000113596,1.27174e-05,0.86,84.0459,2.05341,866.322
0.287,-0.192351,-0.00765519,0.33035,0.0664017,0.0622358,-0.104311,0.0576527,-0.10039,-0.100699,0.327431,0.0229967,-0.182843,1.10855e-08,-6.87696e-09,0.3,-0.3,-14.4174,0.628949,0.482221,185.036,1.42699,1.01011,-15.6428,0.214185,0,184.102,3.0186,0.000780106,0.000113596,1.27174e-05,0.86,83.9609,2.19889,866.366
0.288,-0.192351,-0.00765519,0.33035,0.0664017,0.0622358,-0.104311,0.0576527,-0.10039,-0.100699,0.327431,0.0229967,-0.182843,1.10855e-08,-6.87696e-09,0.3,-0.3,-14.4176,0.628281,0.513032,185.028,1.42402,1.06685,-15.6428,0.214185,0,184.102,3.0186,0.000780106,0.000113596,1.27174e-05,0.86,83.8774,2.34337,866.412
0.289,-0.192351,-0.00765519,0.33035,0.0664017,0.0622358,-0.104311,0.0576527,-0.10039,-0.100699,0.327431,0.0229967,-0.182843,1.10855e-08,-6.87696e-09,0.3,-0.3,-14.418,0.627641,0.545509,185.023,1.42146,1.12535,-15.6428,0.214185,0,184.102,3.0186,0.000780106,0.000113596,1.27174e-05,0.86,83.7956,2.48687,866.46
0.29,-0.192351,-0.00765519,0.33035,0.0664017,0.0622358,-0.104311,0.0576527,-0.10039,-0.100699,0.327431,0.0229967,-0.182843,1.10855e-08,-6.87696e-09,0.3,-0.3,-14.4186,0.62705,0.579887,185.02,1.41999,1.18532,-15.6428,0.214185,0,184.102,3.0186,0.000780106,0.000113596,1.27174e-05,0.86,83.7153,2.62932,866.51
0.291,-0.192351,-0.00765519,0.33035,0.0664017,0.0622358,-0.104311,0.0576527,-0.10039,-0.100699,0.327431,0.0229967,-0.182843,1.10855e-08,-6.87696e-09,0.3,-0.3,-14.4195,0.626568,0.616355,185.059,1.50899,1.02752,-15.6428,0.214185,0,184.102,3.0186,0.000780106,0.000113596,1.27174e-05,0.86,84.4786,1.98948,866.452
0.292,-0.192351,-0.00765519,0.33035,0.0664017,0.0622358,-0.104311,0.0576527,-0.10039,-0.100699,0.327431,0.0229967,-0.182843,1.10855e-08,-6.87696e-09,0.3,-0.3,-14.4217,0.62594,0.655049,185.016,1.42373,1.30852,-15.6428,0.214185,0,184.102,3.0186,0.000780106,0.000113596,1.27174e-05,0.86,83.5602,2.91077,866.613
0.293,-0.192351,-0.00765519,0.33035,0.0664017,0.0622358,-0.104311,0.0576527,-0.10039,-0.100699,0.327431,0.0229967,-0.182843,1.10855e-08,-6.87696e-09,0.3,-0.3,-14.4235,0.62547,0.69622,185.013,1.43078,1.37126,-15.6428,0.214185,0,184.102,3.0186,0.000780106,0.000113596,1.27174e-05,0.86,83.4854,3.04953,866.668
0.294,-0.192351,-0.00765519,0.33035,0.0664017,0.0622358,-0.104311,0.0576527,-0.10039,-0.100699,0.327431,0.0229967,-0.182843,1.10855e-08,-6.87696e-09,0.3,-0.3,-14.4249,0.625239,0.739882,185.008,1.44251,1.43439,-15.6428,0.214185,0,184.102,3.0186,0.000780106,0.000113596,1.27174e-05,0.86,83.4128,3.18676,866.724
0.295,-0.192351,-0.00765519,0.33035,0.0664017,0.0622358,-0.104311,0.0576527,-0.10039,-0.100699,0.327431,0.0229967,-0.182843,1.10855e-08,-6.87696e-09,0.3,-0.3,-14.4254,0.624533,0.780939,185.003,1.45754,1.49641,-15.6428,0.214185,0,184.102,3.0186,0.000780106,0.000113596,1.27174e-05,0.86,83.3416,3.32282,866.778
0.296,-0.192351,-0.00765519,0.33035,0.0664017,0.0622358,-0.104311,0.0576527,-0.10039,-0.100699,0.327431,0.0229967,-0.182843,1.10855e-08,-6.87696e-09,0.3,-0.3,-14.4252,0.623155,0.818984,185.001,1.47347,1.55569,-15.6428,0.214185,0,184.102,3.0186,0.000780106,0.000113596,1.27174e-05,0.86,83.2716,3.458,866.83
0.297,-0.192351,-0.00765519,0.33035,0.0664017,0.0622358,-0.104311,0.0576527,-0.10039,-0.100699,0.327431,0.0229967,-0.182843,1.10855e-08,-6.87696e-09,0.3,-0.3,-14.4249,0.621235,0.854189,185.002,1.48899,1.61176,-15.6428,0.214185,0,184.102,3.0186,0.000780106,0.000113596,1.27174e-05,0.86,83.2024,3.59248,866.878
0.298,-0.192351,-0.00765519,0.33035,0.0664017,0.0622358,-0.104311,0.0576527,-0.10039,-0.100699,0.327431,0.0229967,-0.182843,1.10855e-08,-6.87696e-09,0.3,-0.3,-14.4247,0.619134,0.887354,185.006,1.50352,1.66487,-15.6428,0.214185,0,184.102,3.0186,0.000780106,0.000113596,1.27174e-05,0.86,83.1342,3.72636,866.923
0.299,-0.192351,-0.00765519,0.33035,0.0664017,0.0622358,-0.104311,0.0576527,-0.10039,-0.100699,0.327431,0.0229967,-0.182843,1.10855e-08,-6.87696e-09,0.3,-0.3,-14.4251,0.616892,0.919187,185.013,1.51705,1.7155,-15.6428,0.214185,0,184.102,3.0186,0.000780106,0.000113596,1.27174e-05,0.86,83.0668,3.85964,866.964
0.3,-0.192351,-0.00765519,0.33035,0.0664017,0.0622358,-0.104311,0.0576527,-0.10039,-0.100699,0.327431,0.0229967,-0.182843,1.10855e-08,-6.87696e-09,0.3,-0.3,-14.4261,0.614644,0.950085,185.02,1.52987,1.76417,-15.6428,0.214185,0,184.102,3.0186,0.000780106,0.000113596,1.27174e-05,0.86,83.0005,3.99225,867.004
0.301,-0.192351,-0.00765519,0.33035,0.0664017,0.0622358,-0.104311,0.0576527,-0.10039,-0.100699,0.327431,0.0229967,-0.182843,1.10855e-08,-6.87696e-09,0.3,-0.3,-14.4279,0.612574,0.980582,185.112,1.63159,1.74982,-15.6428,0.214185,0,184.102,3.0186,0.000780106,0.000113596,1.27174e-05,0.86,83.1705,3.53869,867.012
0.302,-0.192351,-0.00765519,0.33035,0.0664017,0.0622358,-0.104311,0.0576527,-0.10039,-0.100699,0.327431,0.0229967,-0.182843,1.10855e-08,-6.87696e-09,0.3,-0.3,-14.4306,0.610802,1.01118,185.035,1.55564,1.85772,-15.6428,0.214185,0,184.102,3.0186,0.000780106,0.000113596,1.27174e-05,0.86,82.8712,4.25486,867.079
0.303,-0.192351,-0.00765519,0.33035,0.0664017,0.0622358,-0.104311,0.0576527,-0.10039,-0.100699,0.327431,0.0229967,-0.182843,1.10855e-08,-6.87696e-09,0.3,-0.3,-14.434,0.609416,1.04246,185.039,1.56995,1.90362,-15.6428,0.214185,0,184.102,3.0186,0.000780106,0.000113596,1.27174e-05,0.86,82.8087,4.3844,867.117
0.304,-0.192351,-0.00765519,0.33035,0.0664017,0.0622358,-0.104311,0.0576527,-0.10039,-0.100699,0.327431,0.0229967,-0.182843,1.10855e-08,-6.87696e-09,0.3,-0.3,-14.4381,0.608484,1.07508,185.039,1.58613,1.94966,-15.6428,0.214185,0,184.102,3.0186,0.000780106,0.000113596,1.27174e-05,0.86,82.748,4.5124,867.156
0.305,-0.192351,-0.00765519,0.33035,0.0664017,0.0622358,-0.104311,0.0576527,-0.10039,-0.100699,0.327431,0.0229967,-0.182843,1.10855e-08,-6.87696e-09,0.3,-0.3,-14.4414,0.607298,1.10323,185.04,1.60256,1.99362,-15.6428,0.214185,0,184.102,3.0186,0.000780106,0.000113596,1.27174e-05,0.86,82.6884,4.63925,867.192
0.306,-0.192351,-0.00765519,0.33035,0.0664017,0.0622358,-0.104311,0.0576527,-0.10039,-0.100699,0.327431,0.0229967,-0.182843,1.10855e-08,-6.87696e-09,0.3,-0.3,-14.4435,0.605706,1.12566,185.045,1.61761,2.03338,-15.6428,0.214185,0,184.102,3.0186,0.000780106,0.000113596,1.27174e-05,0.86,82.6296,4.76537,867.224
0.307,-0.192351,-0.00765519,0.33035,0.0664017,0.0622358,-0.104311,0.0576527,-0.10039,-0.100699,0.327431,0.0229967,-0.182843,1.10855e-08,-6.87696e-09,0.3,-0.3,-14.4446,0.603915,1.14346,185.052,1.63061,2.06883,-15.6428,0.214185,0,184.102,3.0186,0.000780106,0.000113596,1.27174e-05,0.86,82.5715,4.89096,867.251
0.308,-0.192351,-0.00765519,0.33035,0.0664017,0.0622358,-0.104311,0.0576527,-0.10039,-0.100699,0.327431,0.0229967,-0.182843,1.10855e-08,-6.87696e-09,0.3,-0.3,-14.445,0.602286,1.15806,185.062,1.64154,2.10064,-15.6428,0.214185,0,184.102,3.0186,0.000780106,0.000113596,1.27174e-05,0.86,82.5142,5.0161,867.275
0.309,-0.192351,-0.00765519,0.33035,0.0664017,0.0622358,-0.104311,0.0576527,-0.10039,-0.100699,0.327431,0.0229967,-0.182843,1.10855e-08,-6.87696e-09,0.3,-0.3,-14.445,0.601134,1.17072,185.073,1.6508,2.12979,-15.6428,0.214185,0,184.102,3.0186,0.000780106,0.000113596,1.27174e-05,0.86,82.4577,5.14074,867.295
0.31,-0.192351,-0.00765519,0.33035,0.0664017,0.0622358,-0.104311,0.0576527,-0.10039,-0.100699,0.327431,0.0229967,-0.182843,1.10855e-08,-6.87696e-09,0.3,-0.3,-14.4449,0.600659,1.18256,185.083,1.65898,2.15733,-15.6428,0.214185,0,184.102,3.0186,0.000780106,0.000113596,1.27174e-05,0.86,82.4021,5.26474,867.314
0.311,-0.192351,-0.00765519,0.33035,0.0664017,0.0622358,-0.104311,0.0576527,-0.10039,-0.100699,0.327431,0.0229967,-0.182843,1.10855e-08,-6.87696e-09,0.3,-0.3,-14.4451,0.600951,1.1946,185.155,1.67359,2.15629,-15.6428,0.214185,0,184.102,3.0186,0.000780106,0.000113596,1.27174e-05,0.86,82.4365,5.02835,867.32
0.312,-0.192351,-0.00765519,0.33035,0.0664017,0.0622358,-0.104311,0.0576527,-0.10039,-0.100699,0.327431,0.0229967,-0.182843,1.10855e-08,-6.87696e-09,0.3,-0.3,-14.4456,0.602002,1.20793,185.097,1.67483,2.21162,-15.6428,0.214185,0,184.102,3.0186,0.000780106,0.000113596,1.27174e-05,0.86,82.2943,5.50974,867.351
0.313,-0.192351,-0.00765519,0.33035,0.0664017,0.0622358,-0.104311,0.0576527,-0.10039,-0.100699,0.327431,0.0229967,-0.182843,1.10855e-08,-6.87696e-09,0.3,-0.3,-14.4468,0.603733,1.2237,185.097,1.68374,2.24037,-15.6428,0.214185,0,184.102,3.0186,0.000780106,0.000113596,1.27174e-05,0.86,82.2426,5.63002,867.373
0.314,-0.192351,-0.00765519,0.33035,0.0664017,0.0622358,-0.104311,0.0576527,-0.10039,-0.100699,0.327431,0.0229967,-0.182843,1.10855e-08,-6.87696e-09,0.3,-0.3,-14.4487,0.60601,1.24313,185.09,1.69392,2.27151,-15.6428,0.214185,0,184.102,3.0186,0.000780106,0.000113596,1.27174e-05,0.86,82.1929,5.74819,867.397
0.315,-0.192351,-0.00765519,0.33035,0.0664017,0.0622358,-0.104311,0.0576527,-0.10039,-0.100699,0.327431,0.0229967,-0.182843,1.10855e-08,-6.87696e-09,0.3,-0.3,-14.4504,0.607717,1.25996,185.081,1.70643,2.3014,-15.6428,0.214185,0,184.102,3.0186,0.000780106,0.000113596,1.27174e-05,0.86,82.1445,5.86455,867.421
0.316,-0.192351,-0.00765519,0.33035,0.0664017,0.0622358,-0.104311,0.0576527,-0.10039,-0.100699,0.327431,0.0229967,-0.182843,1.10855e-08,-6.87696e-09,0.3,-0.3,-14.4515,0.608285,1.27204,185.075,1.71895,2.3276,-15.6428,0.214185,0,184.102,3.0186,0.000780106,0.000113596,1.27174e-05,0.86,82.0971,5.97937,867.441
0.317,-0.192351,-0.00765519,0.33035,0.0664017,0.0622358,-0.104311,0.0576527,-0.10039,-0.100699,0.327431,0.0229967,-0.182843,1.10855e-08,-6.87696e-09,0.3,-0.3,-14.4522,0.607795,1.28016,185.071,1.72987,2.34973,-15.6428,0.214185,0,184.102,3.0186,0.000780106,0.000113596,1.27174e-05,0.86,82.0507,6.09281,867.457
0.318,-0.192351,-0.00765519,0.33035,0.0664017,0.0622358,-0.104311,0.0576527,-0.10039,-0.100699,0.327431,0.0229967,-0.182843,1.10855e-08,-6.87696e-09,0.3,-0.3,-14.453,0.60661,1.2857,185.07,1.73813,2.36844,-15.6428,0.214185,0,184.102,3.0186,0.000780106,0.000113596,1.27174e-05,0.86,82.0054,6.20499,867.468
0.319,-0.192351,-0.00765519,0.33035,0.0664017,0.0622358,-0.104311,0.0576527,-0.10039,-0.100699,0.327431,0.0229967,-0.182843,1.10855e-08,-6.87696e-09,0.3,-0.3,-14.4542,0.605113,1.28987,185.071,1.74314,2.38478,-15.6428,0.214185,0,184.102,3.0186,0.000780106,0.000113596,1.27174e-05,0.86,81.9611,6.31594,867.477
0.32,-0.192351,-0.00765519,0.33035,0.0664017,0.0622358,-0.104311,0.0576527,-0.10039,-0.100699,0.327431,0.0229967,-0.182843,1.10855e-08,-6.87696e-09,0.3,-0.3,-14.4561,0.60363,1.2937,185.073,1.74462,2.39987,-15.6428,0.214185,0,184.102,3.0186,0.000780106,0.000113596,1.27174e-05,0.86,81.9179,6.42562,867.485
0.321,-0.192351,-0.00765519,0.33035,0.0664017,0.0622358,-0.104311,0.0576527,-0.10039,-0.100699,0.327431,0.0229967,-0.182843,1.10855e-08,-6.87696e-09,0.3,-0.3,-14.4588,0.602418,1.2982,185.184,1.7156,2.32469,-15.6428,0.214185,0,184.102,3.0186,0.000780106,0.000113596,1.27174e-05,0.86,82.199,6.08912,867.446
