TheMarex/ba-thesis/notebook/unstabilized_logs/2014-10-10-00:20:09_trajectory.csv
"Timestamp","Trajectory_LeftLeg_Joint6","Trajectory_LeftLeg_Joint5","Trajectory_LeftLeg_Joint4","Trajectory_LeftLeg_Joint3","Trajectory_LeftLeg_Joint2","Trajectory_LeftLeg_Joint1","Trajectory_RightLeg_Joint1","Trajectory_RightLeg_Joint2","Trajectory_RightLeg_Joint3","Trajectory_RightLeg_Joint4","Trajectory_RightLeg_Joint5","Trajectory_RightLeg_Joint6","Trajectory_Torso_Joint1","Trajectory_Torso_Joint2","Trajectory_LeftArm_Joint3","Trajectory_RightArm_Joint3","Actual_LeftFootX","Actual_LeftFootY","Actual_LeftFootZ","Actual_RightFootX","Actual_RightFootY","Actual_RightFootZ","Actual_CoMX","Actual_CoMY","Actual_CoMZ"
0.001,-0.192371,-0.00767229,0.330358,0.0663297,0.0622159,-0.104335,0.05763,-0.100371,-0.100712,0.327427,0.0230001,-0.182807,2.59108e-08,-3.06183e-09,0.3,-0.3,0,0,0,172.018,-2.98923,-0.0121975,94.498,-21.111,892.433
0.002,-0.192371,-0.00767229,0.330358,0.0663297,0.0622159,-0.104335,0.05763,-0.100371,-0.100712,0.327427,0.0230001,-0.182807,2.59108e-08,-3.06183e-09,0.3,-0.3,0,0,0,172.018,-2.98923,-0.0121918,94.498,-21.111,892.433
0.003,-0.192371,-0.00767229,0.330358,0.0663297,0.0622159,-0.104335,0.05763,-0.100371,-0.100712,0.327427,0.0230001,-0.182807,2.59108e-08,-3.06183e-09,0.3,-0.3,0,0,-0.00981,172.01,-2.98587,0.030508,94.496,-21.1215,892.442
0.004,-0.192371,-0.00767229,0.330358,0.0663297,0.0622159,-0.104335,0.05763,-0.100371,-0.100712,0.327427,0.0230001,-0.182807,2.59108e-08,-3.06183e-09,0.3,-0.3,0.00649277,-0.0101578,-0.00160462,172.01,-2.98597,0.0923576,94.4911,-21.1312,892.477
0.005,-0.192371,-0.00767229,0.330358,0.0663297,0.0622159,-0.104335,0.05763,-0.100371,-0.100712,0.327427,0.0230001,-0.182807,2.59108e-08,-3.06183e-09,0.3,-0.3,0.0303597,-0.0442568,0.0501232,172.01,-2.98602,0.15333,94.4853,-21.1405,892.514
0.006,-0.192371,-0.00767229,0.330358,0.0663297,0.0622159,-0.104335,0.05763,-0.100371,-0.100712,0.327427,0.0230001,-0.182807,2.59108e-08,-3.06183e-09,0.3,-0.3,0.0528512,-0.0989593,0.111819,172.015,-2.9885,0.222406,94.4782,-21.1483,892.552
0.007,-0.192371,-0.00767229,0.330358,0.0663297,0.0622159,-0.104335,0.05763,-0.100371,-0.100712,0.327427,0.0230001,-0.182807,2.59108e-08,-3.06183e-09,0.3,-0.3,0.073089,-0.170135,0.186394,172.025,-2.9934,0.300892,94.4699,-21.1543,892.593
0.008,-0.192371,-0.00767229,0.330358,0.0663297,0.0622159,-0.104335,0.05763,-0.100371,-0.100712,0.327427,0.0230001,-0.182807,2.59108e-08,-3.06183e-09,0.3,-0.3,0.0885805,-0.253569,0.272869,172.043,-3.02241,0.374233,94.4614,-21.1604,892.624
0.009,-0.192371,-0.00767229,0.330358,0.0663297,0.0622159,-0.104335,0.05763,-0.100371,-0.100712,0.327427,0.0230001,-0.182807,2.59108e-08,-3.06183e-09,0.3,-0.3,0.0919651,-0.346697,0.356769,172.068,-3.07132,0.450069,94.4528,-21.1663,892.644
0.01,-0.192371,-0.00767229,0.330358,0.0663297,0.0622159,-0.104335,0.05763,-0.100371,-0.100712,0.327427,0.0230001,-0.182807,2.59108e-08,-3.06183e-09,0.3,-0.3,0.0837858,-0.450223,0.44099,172.101,-3.13773,0.527493,94.4441,-21.1722,892.655
0.011,-0.192371,-0.00767229,0.330358,0.0663297,0.0622159,-0.104335,0.05763,-0.100371,-0.100712,0.327427,0.0230001,-0.182807,2.59108e-08,-3.06183e-09,0.3,-0.3,0.0646208,-0.564566,0.525718,172.14,-3.21972,0.60614,94.4353,-21.1778,892.656
0.012,-0.192371,-0.00767229,0.330358,0.0663297,0.0622159,-0.104335,0.05763,-0.100371,-0.100712,0.327427,0.0230001,-0.182807,2.59108e-08,-3.06183e-09,0.3,-0.3,0.0353273,-0.690385,0.611108,172.186,-3.31565,0.685799,94.4266,-21.1833,892.646
0.013,-0.192371,-0.00767229,0.330358,0.0663297,0.0622159,-0.104335,0.05763,-0.100371,-0.100712,0.327427,0.0230001,-0.182807,2.59108e-08,-3.06183e-09,0.3,-0.3,-0.00316764,-0.828337,0.697258,172.239,-3.42418,0.766256,94.4178,-21.1887,892.627
0.014,-0.192371,-0.00767229,0.330358,0.0663297,0.0622159,-0.104335,0.05763,-0.100371,-0.100712,0.327427,0.0230001,-0.182807,2.59108e-08,-3.06183e-09,0.3,-0.3,-0.049968,-0.978987,0.784172,172.298,-3.54415,0.847328,94.409,-21.1938,892.598
0.015,-0.192371,-0.00767229,0.330358,0.0663297,0.0622159,-0.104335,0.05763,-0.100371,-0.100712,0.327427,0.0230001,-0.182807,2.59108e-08,-3.06183e-09,0.3,-0.3,-0.104255,-1.14274,0.871784,172.362,-3.67462,0.928833,94.4002,-21.1988,892.559
0.016,-0.192371,-0.00767229,0.330358,0.0663297,0.0622159,-0.104335,0.05763,-0.100371,-0.100712,0.327427,0.0230001,-0.182807,2.59108e-08,-3.06183e-09,0.3,-0.3,-0.165313,-1.31985,0.959977,172.432,-3.81481,1.0106,94.3914,-21.2035,892.51
0.017,-0.192371,-0.00767229,0.330358,0.0663297,0.0622159,-0.104335,0.05763,-0.100371,-0.100712,0.327427,0.0230001,-0.182807,2.59108e-08,-3.06183e-09,0.3,-0.3,-0.232541,-1.51037,1.04861,172.507,-3.9641,1.09249,94.3826,-21.2081,892.451
0.018,-0.192371,-0.00767229,0.330358,0.0663297,0.0622159,-0.104335,0.05763,-0.100371,-0.100712,0.327427,0.0230001,-0.182807,2.59108e-08,-3.06183e-09,0.3,-0.3,-0.305451,-1.71422,1.1375,172.586,-4.12196,1.17433,94.3739,-21.2125,892.382
0.019,-0.192371,-0.00767229,0.330358,0.0663297,0.0622159,-0.104335,0.05763,-0.100371,-0.100712,0.327427,0.0230001,-0.182807,2.59108e-08,-3.06183e-09,0.3,-0.3,-0.383662,-1.93116,1.22649,172.67,-4.288,1.25598,94.3651,-21.2167,892.303
0.02,-0.192371,-0.00767229,0.330358,0.0663297,0.0622159,-0.104335,0.05763,-0.100371,-0.100712,0.327427,0.0230001,-0.182807,2.59108e-08,-3.06183e-09,0.3,-0.3,-0.466884,-2.16088,1.3154,172.758,-4.46188,1.33729,94.3564,-21.2208,892.214
0.021,-0.192371,-0.00767229,0.330358,0.0663297,0.0622159,-0.104335,0.05763,-0.100371,-0.100712,0.327427,0.0230001,-0.182807,2.59108e-08,-3.06183e-09,0.3,-0.3,-0.55491,-2.40296,1.40405,172.851,-4.64331,1.41812,94.3477,-21.2246,892.116
0.022,-0.192371,-0.00767229,0.330358,0.0663297,0.0622159,-0.104335,0.05763,-0.100371,-0.100712,0.327427,0.0230001,-0.182807,2.59108e-08,-3.06183e-09,0.3,-0.3,-0.647593,-2.65694,1.49227,172.948,-4.83205,1.49832,94.3391,-21.2283,892.007
0.023,-0.192371,-0.00767229,0.330358,0.0663297,0.0622159,-0.104335,0.05763,-0.100371,-0.100712,0.327427,0.0230001,-0.182807,2.59108e-08,-3.06183e-09,0.3,-0.3,-0.744837,-2.92233,1.57992,173.049,-5.02789,1.57776,94.3305,-21.2319,891.889
0.024,-0.192371,-0.00767229,0.330358,0.0663297,0.0622159,-0.104335,0.05763,-0.100371,-0.100712,0.327427,0.0230001,-0.182807,2.59108e-08,-3.06183e-09,0.3,-0.3,-0.846579,-3.19863,1.66685,173.154,-5.23065,1.6563,94.3219,-21.2353,891.76
0.025,-0.192371,-0.00767229,0.330358,0.0663297,0.0622159,-0.104335,0.05763,-0.100371,-0.100712,0.327427,0.0230001,-0.182807,2.59108e-08,-3.06183e-09,0.3,-0.3,-0.952779,-3.48532,1.75291,173.264,-5.44014,1.73378,94.3134,-21.2385,891.622
0.026,-0.192371,-0.00767229,0.330358,0.0663297,0.0622159,-0.104335,0.05763,-0.100371,-0.100712,0.327427,0.0230001,-0.182807,2.59108e-08,-3.06183e-09,0.3,-0.3,-1.06341,-3.78191,1.83798,173.378,-5.65617,1.81007,94.3049,-21.2416,891.474
0.027,-0.192371,-0.00767229,0.330358,0.0663297,0.0622159,-0.104335,0.05763,-0.100371,-0.100712,0.327427,0.0230001,-0.182807,2.59108e-08,-3.06183e-09,0.3,-0.3,-1.17845,-4.08794,1.92194,173.496,-5.87858,1.88504,94.2965,-21.2446,891.316
0.028,-0.192371,-0.00767229,0.330358,0.0663297,0.0622159,-0.104335,0.05763,-0.100371,-0.100712,0.327427,0.0230001,-0.182807,2.59108e-08,-3.06183e-09,0.3,-0.3,-1.29785,-4.40294,2.00466,173.619,-6.10718,1.95854,94.2881,-21.2475,891.148
0.029,-0.192371,-0.00767229,0.330358,0.0663297,0.0622159,-0.104335,0.05763,-0.100371,-0.100712,0.327427,0.0230001,-0.182807,2.59108e-08,-3.06183e-09,0.3,-0.3,-1.42159,-4.7265,2.08602,173.746,-6.34176,2.03042,94.2798,-21.2502,890.971
0.03,-0.192371,-0.00767229,0.330358,0.0663297,0.0622159,-0.104335,0.05763,-0.100371,-0.100712,0.327427,0.0230001,-0.182807,2.59108e-08,-3.06183e-09,0.3,-0.3,-1.5496,-5.05819,2.16591,173.878,-6.58215,2.10055,94.2716,-21.2529,890.783
0.031,-0.192371,-0.00767229,0.330358,0.0663297,0.0622159,-0.104335,0.05763,-0.100371,-0.100712,0.327427,0.0230001,-0.182807,2.59108e-08,-3.06183e-09,0.3,-0.3,-1.68185,-5.39763,2.24422,174.014,-6.82811,2.16877,94.2634,-21.2554,890.586
0.032,-0.192371,-0.00767229,0.330358,0.0663297,0.0622159,-0.104335,0.05763,-0.100371,-0.100712,0.327427,0.0230001,-0.182807,2.59108e-08,-3.06183e-09,0.3,-0.3,-1.81826,-5.74443,2.32082,174.155,-7.07946,2.23493,94.2553,-21.2578,890.378
0.033,-0.192371,-0.00767229,0.330358,0.0663297,0.0622159,-0.104335,0.05763,-0.100371,-0.100712,0.327427,0.0230001,-0.182807,2.59108e-08,-3.06183e-09,0.3,-0.3,-1.95879,-6.09824,2.3956,174.3,-7.33598,2.29888,94.2472,-21.2602,890.161
0.034,-0.192371,-0.00767229,0.330358,0.0663297,0.0622159,-0.104335,0.05763,-0.100371,-0.100712,0.327427,0.0230001,-0.182807,2.59108e-08,-3.06183e-09,0.3,-0.3,-2.10335,-6.45868,2.46842,174.45,-7.59744,2.36046,94.2392,-21.2624,889.934
0.035,-0.192371,-0.00767229,0.330358,0.0663297,0.0622159,-0.104335,0.05763,-0.100371,-0.100712,0.327427,0.0230001,-0.182807,2.59108e-08,-3.06183e-09,0.3,-0.3,-2.25187,-6.82541,2.53914,174.604,-7.86363,2.41951,94.2313,-21.2645,889.698
0.036,-0.192371,-0.00767229,0.330358,0.0663297,0.0622159,-0.104335,0.05763,-0.100371,-0.100712,0.327427,0.0230001,-0.182807,2.59108e-08,-3.06183e-09,0.3,-0.3,-2.40427,-7.19808,2.60764,174.763,-8.13433,2.47587,94.2234,-21.2666,889.451
0.037,-0.192371,-0.00767229,0.330358,0.0663297,0.0622159,-0.104335,0.05763,-0.100371,-0.100712,0.327427,0.0230001,-0.182807,2.59108e-08,-3.06183e-09,0.3,-0.3,-2.56045,-7.57634,2.67374,174.926,-8.40929,2.52936,94.2155,-21.2686,889.195
0.038,-0.192371,-0.00767229,0.330358,0.0663297,0.0622159,-0.104335,0.05763,-0.100371,-0.100712,0.327427,0.0230001,-0.182807,2.59108e-08,-3.06183e-09,0.3,-0.3,-2.72032,-7.95985,2.73731,175.093,-8.68831,2.57981,94.2078,-21.2705,888.928
0.039,-0.192371,-0.00767229,0.330358,0.0663297,0.0622159,-0.104335,0.05763,-0.100371,-0.100712,0.327427,0.0230001,-0.182807,2.59108e-08,-3.06183e-09,0.3,-0.3,-2.88378,-8.34826,2.79816,175.265,-8.97113,2.62703,94.2,-21.2724,888.652
0.04,-0.192371,-0.00767229,0.330358,0.0663297,0.0622159,-0.104335,0.05763,-0.100371,-0.100712,0.327427,0.0230001,-0.182807,2.59108e-08,-3.06183e-09,0.3,-0.3,-3.05072,-8.7412,2.85613,175.441,-9.25754,2.67085,94.1923,-21.2742,888.366
0.041,-0.192371,-0.00767229,0.330358,0.0663297,0.0622159,-0.104335,0.05763,-0.100371,-0.100712,0.327427,0.0230001,-0.182807,2.59108e-08,-3.06183e-09,0.3,-0.3,-3.22103,-9.13834,2.91102,175.621,-9.54728,2.71105,94.1847,-21.2759,888.071
0.042,-0.192371,-0.00767229,0.330358,0.0663297,0.0622159,-0.104335,0.05763,-0.100371,-0.100712,0.327427,0.0230001,-0.182807,2.59108e-08,-3.06183e-09,0.3,-0.3,-3.3946,-9.5393,2.96264,175.805,-9.84014,2.74743,94.1771,-21.2776,887.765
0.043,-0.192371,-0.00767229,0.330358,0.0663297,0.0622159,-0.104335,0.05763,-0.100371,-0.100712,0.327427,0.0230001,-0.182807,2.59108e-08,-3.06183e-09,0.3,-0.3,-3.57132,-9.94373,3.01078,175.993,-10.1359,2.7798,94.1696,-21.2792,887.45
0.044,-0.192371,-0.00767229,0.330358,0.0663297,0.0622159,-0.104335,0.05763,-0.100371,-0.100712,0.327427,0.0230001,-0.182807,2.59108e-08,-3.06183e-09,0.3,-0.3,-3.75106,-10.3513,3.05523,176.185,-10.4342,2.80794,94.1621,-21.2808,887.125
0.045,-0.192371,-0.00767229,0.330358,0.0663297,0.0622159,-0.104335,0.05763,-0.100371,-0.100712,0.327427,0.0230001,-0.182807,2.59108e-08,-3.06183e-09,0.3,-0.3,-3.93371,-10.7615,3.09574,176.381,-10.7349,2.83161,94.1546,-21.2823,886.79
0.046,-0.192371,-0.00767229,0.330358,0.0663297,0.0622159,-0.104335,0.05763,-0.100371,-0.100712,0.327427,0.0230001,-0.182807,2.59108e-08,-3.06183e-09,0.3,-0.3,-4.11913,-11.1742,3.1321,176.58,-11.0378,2.85059,94.1472,-21.2838,886.446
0.047,-0.192371,-0.00767229,0.330358,0.0663297,0.0622159,-0.104335,0.05763,-0.100371,-0.100712,0.327427,0.0230001,-0.182807,2.59108e-08,-3.06183e-09,0.3,-0.3,-4.30719,-11.5889,3.16404,176.784,-11.3426,2.86463,94.1399,-21.2853,886.092
0.048,-0.192371,-0.00767229,0.330358,0.0663297,0.0622159,-0.104335,0.05763,-0.100371,-0.100712,0.327427,0.0230001,-0.182807,2.59108e-08,-3.06183e-09,0.3,-0.3,-4.49777,-12.0051,3.19131,176.99,-11.649,2.87349,94.1325,-21.2868,885.728
0.049,-0.192371,-0.00767229,0.330358,0.0663297,0.0622159,-0.104335,0.05763,-0.100371,-0.100712,0.327427,0.0230001,-0.182807,2.59108e-08,-3.06183e-09,0.3,-0.3,-4.69072,-12.4227,3.21363,177.2,-11.9569,2.87691,94.1252,-21.2882,885.354
0.05,-0.192371,-0.00767229,0.330358,0.0663297,0.0622159,-0.104335,0.05763,-0.100371,-0.100712,0.327427,0.0230001,-0.182807,2.59108e-08,-3.06183e-09,0.3,-0.3,-4.8859,-12.8412,3.23073,177.413,-12.2658,2.87463,94.118,-21.2896,884.97
0.051,-0.192371,-0.00767229,0.330358,0.0663297,0.0622159,-0.104335,0.05763,-0.100371,-0.100712,0.327427,0.0230001,-0.182807,2.59108e-08,-3.06183e-09,0.3,-0.3,-5.08317,-13.2602,3.24232,177.629,-12.5757,2.86637,94.1107,-21.291,884.577
0.052,-0.192371,-0.00767229,0.330358,0.0663297,0.0622159,-0.104335,0.05763,-0.100371,-0.100712,0.327427,0.0230001,-0.182807,2.59108e-08,-3.06183e-09,0.3,-0.3,-5.28236,-13.6793,3.24809,177.848,-12.8863,2.85184,94.1035,-21.2924,884.174
0.053,-0.192371,-0.00767229,0.330358,0.0663297,0.0622159,-0.104335,0.05763,-0.100371,-0.100712,0.327427,0.0230001,-0.182807,2.59108e-08,-3.06183e-09,0.3,-0.3,-5.48334,-14.0983,3.24772,178.07,-13.1972,2.83077,94.0963,-21.2939,883.761
0.054,-0.192371,-0.00767229,0.330358,0.0663297,0.0622159,-0.104335,0.05763,-0.100371,-0.100712,0.327427,0.0230001,-0.182807,2.59108e-08,-3.06183e-09,0.3,-0.3,-5.68592,-14.5168,3.24091,178.294,-13.5083,2.80284,94.0892,-21.2953,883.339
0.055,-0.192371,-0.00767229,0.330358,0.0663297,0.0622159,-0.104335,0.05763,-0.100371,-0.100712,0.327427,0.0230001,-0.182807,2.59108e-08,-3.06183e-09,0.3,-0.3,-5.88996,-14.9343,3.22731,178.521,-13.8192,2.76775,94.082,-21.2967,882.907
0.056,-0.192371,-0.00767229,0.330358,0.0663297,0.0622159,-0.104335,0.05763,-0.100371,-0.100712,0.327427,0.0230001,-0.182807,2.59108e-08,-3.06183e-09,0.3,-0.3,-6.09527,-15.3506,3.20659,178.75,-14.1298,2.72517,94.0749,-21.2981,882.465
0.057,-0.192371,-0.00767229,0.330358,0.0663297,0.0622159,-0.104335,0.05763,-0.100371,-0.100712,0.327427,0.0230001,-0.182807,2.59108e-08,-3.06183e-09,0.3,-0.3,-6.30168,-15.7653,3.17838,178.981,-14.4397,2.67479,94.0678,-21.2996,882.013
0.058,-0.192371,-0.00767229,0.330358,0.0663297,0.0622159,-0.104335,0.05763,-0.100371,-0.100712,0.327427,0.0230001,-0.182807,2.59108e-08,-3.06183e-09,0.3,-0.3,-6.50901,-16.1781,3.14233,179.214,-14.7488,2.61627,94.0608,-21.3011,881.552
0.059,-0.192371,-0.00767229,0.330358,0.0663297,0.0622159,-0.104335,0.05763,-0.100371,-0.100712,0.327427,0.0230001,-0.182807,2.59108e-08,-3.06183e-09,0.3,-0.3,-6.71707,-16.5886,3.09807,179.448,-15.0567,2.54926,94.0537,-21.3026,881.081
0.06,-0.192371,-0.00767229,0.330358,0.0663297,0.0622159,-0.104335,0.05763,-0.100371,-0.100712,0.327427,0.0230001,-0.182807,2.59108e-08,-3.06183e-09,0.3,-0.3,-6.92566,-16.9966,3.0452,179.683,-15.3631,2.47342,94.0466,-21.3041,880.601
0.061,-0.192371,-0.00767229,0.330358,0.0663297,0.0622159,-0.104335,0.05763,-0.100371,-0.100712,0.327427,0.0230001,-0.182807,2.59108e-08,-3.06183e-09,0.3,-0.3,-7.1346,-17.4015,2.98335,179.92,-15.6679,2.38837,94.0396,-21.3057,880.111
0.062,-0.192371,-0.00767229,0.330358,0.0663297,0.0622159,-0.104335,0.05763,-0.100371,-0.100712,0.327427,0.0230001,-0.182807,2.59108e-08,-3.06183e-09,0.3,-0.3,-7.34367,-17.8032,2.9121,180.158,-15.9708,2.29376,94.0326,-21.3073,879.611
0.063,-0.192371,-0.00767229,0.330358,0.0663297,0.0622159,-0.104335,0.05763,-0.100371,-0.100712,0.327427,0.0230001,-0.182807,2.59108e-08,-3.06183e-09,0.3,-0.3,-7.55268,-18.2013,2.83104,180.396,-16.2715,2.18919,94.0255,-21.309,879.102
0.064,-0.192371,-0.00767229,0.330358,0.0663297,0.0622159,-0.104335,0.05763,-0.100371,-0.100712,0.327427,0.0230001,-0.182807,2.59108e-08,-3.06183e-09,0.3,-0.3,-7.7614,-18.5955,2.73977,180.635,-16.5697,2.0743,94.0185,-21.3107,878.582
0.065,-0.192371,-0.00767229,0.330358,0.0663297,0.0622159,-0.104335,0.05763,-0.100371,-0.100712,0.327427,0.0230001,-0.182807,2.59108e-08,-3.06183e-09,0.3,-0.3,-7.96963,-18.9854,2.63784,180.874,-16.8652,1.94867,94.0114,-21.3124,878.054
0.066,-0.192371,-0.00767229,0.330358,0.0663297,0.0622159,-0.104335,0.05763,-0.100371,-0.100712,0.327427,0.0230001,-0.182807,2.59108e-08,-3.06183e-09,0.3,-0.3,-8.17713,-19.3708,2.52482,181.113,-17.1577,1.81191,94.0044,-21.3143,877.516
0.067,-0.192371,-0.00767229,0.330358,0.0663297,0.0622159,-0.104335,0.05763,-0.100371,-0.100712,0.327427,0.0230001,-0.182807,2.59108e-08,-3.06183e-09,0.3,-0.3,-8.3837,-19.7513,2.40027,181.352,-17.4469,1.66361,93.9973,-21.3161,876.968
0.068,-0.192371,-0.00767229,0.330358,0.0663297,0.0622159,-0.104335,0.05763,-0.100371,-0.100712,0.327427,0.0230001,-0.182807,2.59108e-08,-3.06183e-09,0.3,-0.3,-8.5891,-20.1266,2.26373,181.59,-17.7326,1.50335,93.9903,-21.3181,876.41
0.069,-0.192371,-0.00767229,0.330358,0.0663297,0.0622159,-0.104335,0.05763,-0.100371,-0.100712,0.327427,0.0230001,-0.182807,2.59108e-08,-3.06183e-09,0.3,-0.3,-8.79309,-20.4963,2.11474,181.827,-18.0146,1.33071,93.9832,-21.3201,875.843
0.07,-0.192371,-0.00767229,0.330358,0.0663297,0.0622159,-0.104335,0.05763,-0.100371,-0.100712,0.327427,0.0230001,-0.182807,2.59108e-08,-3.06183e-09,0.3,-0.3,-8.99545,-20.8603,1.95282,182.063,-18.2925,1.14525,93.9761,-21.3222,875.267
0.071,-0.192371,-0.00767229,0.330358,0.0663297,0.0622159,-0.104335,0.05763,-0.100371,-0.100712,0.327427,0.0230001,-0.182807,2.59108e-08,-3.06183e-09,0.3,-0.3,-9.19592,-21.2182,1.77751,182.297,-18.5661,0.946539,93.969,-21.3244,874.681
0.072,-0.192371,-0.00767229,0.330358,0.0663297,0.0622159,-0.104335,0.05763,-0.100371,-0.100712,0.327427,0.0230001,-0.182807,2.59108e-08,-3.06183e-09,0.3,-0.3,-9.39562,-21.5682,1.58836,182.421,-18.6637,0.787468,93.95,-21.3209,874.097
0.073,-0.192371,-0.00767229,0.330358,0.0663297,0.0622159,-0.104335,0.05763,-0.100371,-0.100712,0.327427,0.0230001,-0.182807,2.59108e-08,-3.06183e-09,0.3,-0.3,-9.59285,-21.9103,1.40069,182.505,-18.7017,0.623951,93.9249,-21.3128,873.514
0.074,-0.192371,-0.00767229,0.330358,0.0663297,0.0622159,-0.104335,0.05763,-0.100371,-0.100712,0.327427,0.0230001,-0.182807,2.59108e-08,-3.06183e-09,0.3,-0.3,-9.79743,-22.2418,1.20995,182.581,-18.7363,0.458849,93.8965,-21.3061,872.934
0.075,-0.192371,-0.00767229,0.330358,0.0663297,0.0622159,-0.104335,0.05763,-0.100371,-0.100712,0.327427,0.0230001,-0.182807,2.59108e-08,-3.06183e-09,0.3,-0.3,-10.0137,-22.5608,1.02286,182.581,-18.7363,0.439701,93.8493,-21.277,872.419
0.076,-0.192371,-0.00767229,0.330358,0.0663297,0.0622159,-0.104335,0.05763,-0.100371,-0.100712,0.327427,0.0230001,-0.182807,2.59108e-08,-3.06183e-09,0.3,-0.3,-10.2153,-22.869,0.889841,182.581,-18.7363,0.440531,93.8008,-21.2467,871.931
0.077,-0.192371,-0.00767229,0.330358,0.0663297,0.0622159,-0.104335,0.05763,-0.100371,-0.100712,0.327427,0.0230001,-0.182807,2.59108e-08,-3.06183e-09,0.3,-0.3,-10.4042,-23.1467,0.770934,182.581,-18.7362,0.460188,93.7509,-21.2159,871.468
0.078,-0.192371,-0.00767229,0.330358,0.0663297,0.0622159,-0.104335,0.05763,-0.100371,-0.100712,0.327427,0.0230001,-0.182807,2.59108e-08,-3.06183e-09,0.3,-0.3,-10.5786,-23.3907,0.669299,182.581,-18.7362,0.477745,93.6973,-21.1857,871.026
0.079,-0.192371,-0.00767229,0.330358,0.0663297,0.0622159,-0.104335,0.05763,-0.100371,-0.100712,0.327427,0.0230001,-0.182807,2.59108e-08,-3.06183e-09,0.3,-0.3,-10.7455,-23.6031,0.582746,182.581,-18.7362,0.493357,93.6398,-21.1562,870.605
0.08,-0.192371,-0.00767229,0.330358,0.0663297,0.0622159,-0.104335,0.05763,-0.100371,-0.100712,0.327427,0.0230001,-0.182807,2.59108e-08,-3.06183e-09,0.3,-0.3,-10.7853,-23.6793,0.569007,182.582,-18.7362,0.506887,93.5893,-21.1188,870.219
0.081,-0.192371,-0.00767229,0.330358,0.0663297,0.0622159,-0.104335,0.05763,-0.100371,-0.100712,0.327427,0.0230001,-0.182807,2.59108e-08,-3.06183e-09,0.3,-0.3,-10.7258,-23.6584,0.566794,182.582,-18.7362,0.519674,93.537,-21.0827,869.862
0.082,-0.192371,-0.00767229,0.330358,0.0663297,0.0622159,-0.104335,0.05763,-0.100371,-0.100712,0.327427,0.0230001,-0.182807,2.59108e-08,-3.06183e-09,0.3,-0.3,-10.677,-23.6407,0.560151,182.582,-18.7362,0.531948,93.4828,-21.0487,869.524
0.083,-0.192371,-0.00767229,0.330358,0.0663297,0.0622159,-0.104335,0.05763,-0.100371,-0.100712,0.327427,0.0230001,-0.182807,2.59108e-08,-3.06183e-09,0.3,-0.3,-10.6548,-23.6033,0.547734,182.582,-18.7362,0.543762,93.4245,-21.0161,869.205
0.084,-0.192371,-0.00767229,0.330358,0.0663297,0.0622159,-0.104335,0.05763,-0.100371,-0.100712,0.327427,0.0230001,-0.182807,2.59108e-08,-3.06183e-09,0.3,-0.3,-10.6995,-23.5369,0.535803,182.582,-18.7362,0.554443,93.3624,-20.9849,868.904
0.085,-0.192371,-0.00767229,0.330358,0.0663297,0.0622159,-0.104335,0.05763,-0.100371,-0.100712,0.327427,0.0230001,-0.182807,2.59108e-08,-3.06183e-09,0.3,-0.3,-10.7702,-23.4466,0.531445,182.582,-18.7362,0.563869,93.2959,-20.9548,868.621
0.086,-0.192371,-0.00767229,0.330358,0.0663297,0.0622159,-0.104335,0.05763,-0.100371,-0.100712,0.327427,0.0230001,-0.182807,2.59108e-08,-3.06183e-09,0.3,-0.3,-10.8586,-23.3314,0.534873,182.582,-18.7362,0.57201,93.2248,-20.926,868.356
0.087,-0.192371,-0.00767229,0.330358,0.0663297,0.0622159,-0.104335,0.05763,-0.100371,-0.100712,0.327427,0.0230001,-0.182807,2.59108e-08,-3.06183e-09,0.3,-0.3,-10.9603,-23.1911,0.545882,182.582,-18.7362,0.57888,93.1491,-20.8983,868.108
0.088,-0.192371,-0.00767229,0.330358,0.0663297,0.0622159,-0.104335,0.05763,-0.100371,-0.100712,0.327427,0.0230001,-0.182807,2.59108e-08,-3.06183e-09,0.3,-0.3,-11.0721,-23.0255,0.56396,182.582,-18.7362,0.584518,93.0688,-20.8718,867.879
0.089,-0.192371,-0.00767229,0.330358,0.0663297,0.0622159,-0.104335,0.05763,-0.100371,-0.100712,0.327427,0.0230001,-0.182807,2.59108e-08,-3.06183e-09,0.3,-0.3,-11.192,-22.8355,0.588036,182.582,-18.7362,0.588837,92.9838,-20.847,867.666
0.09,-0.192371,-0.00767229,0.330358,0.0663297,0.0622159,-0.104335,0.05763,-0.100371,-0.100712,0.327427,0.0230001,-0.182807,2.59108e-08,-3.06183e-09,0.3,-0.3,-11.3185,-22.6271,0.615837,182.582,-18.7362,0.592075,92.8944,-20.8242,867.468
0.091,-0.192371,-0.00767229,0.330358,0.0663297,0.0622159,-0.104335,0.05763,-0.100371,-0.100712,0.327427,0.0230001,-0.182807,2.59108e-08,-3.06183e-09,0.3,-0.3,-11.4502,-22.4032,0.645842,182.583,-18.7362,0.594229,92.8007,-20.8033,867.284
0.092,-0.192371,-0.00767229,0.330358,0.0663297,0.0622159,-0.104335,0.05763,-0.100371,-0.100712,0.327427,0.0230001,-0.182807,2.59108e-08,-3.06183e-09,0.3,-0.3,-11.5874,-22.1667,0.675451,182.583,-18.7362,0.595257,92.7028,-20.7844,867.112
0.093,-0.192371,-0.00767229,0.330358,0.0663297,0.0622159,-0.104335,0.05763,-0.100371,-0.100712,0.327427,0.0230001,-0.182807,2.59108e-08,-3.06183e-09,0.3,-0.3,-11.7304,-21.9202,0.702559,182.583,-18.7361,0.595125,92.6008,-20.768,866.951
0.094,-0.192371,-0.00767229,0.330358,0.0663297,0.0622159,-0.104335,0.05763,-0.100371,-0.100712,0.327427,0.0230001,-0.182807,2.59108e-08,-3.06183e-09,0.3,-0.3,-11.8789,-21.6664,0.726241,182.583,-18.7362,0.594036,92.4947,-20.755,866.801
0.095,-0.192371,-0.00767229,0.330358,0.0663297,0.0622159,-0.104335,0.05763,-0.100371,-0.100712,0.327427,0.0230001,-0.182807,2.59108e-08,-3.06183e-09,0.3,-0.3,-12.0321,-21.4087,0.746598,182.582,-18.7362,0.591917,92.3846,-20.7454,866.662
0.096,-0.192371,-0.00767229,0.330358,0.0663297,0.0622159,-0.104335,0.05763,-0.100371,-0.100712,0.327427,0.0230001,-0.182807,2.59108e-08,-3.06183e-09,0.3,-0.3,-12.1889,-21.1491,0.761784,182.581,-18.7356,0.588766,92.2705,-20.7396,866.533
0.097,-0.192371,-0.00767229,0.330358,0.0663297,0.0622159,-0.104335,0.05763,-0.100371,-0.100712,0.327427,0.0230001,-0.182807,2.59108e-08,-3.06183e-09,0.3,-0.3,-12.3505,-20.8897,0.770572,182.575,-18.733,0.584831,92.1521,-20.7374,866.414
0.098,-0.192371,-0.00767229,0.330358,0.0663297,0.0622159,-0.104335,0.05763,-0.100371,-0.100712,0.327427,0.0230001,-0.182807,2.59108e-08,-3.06183e-09,0.3,-0.3,-12.5173,-20.6307,0.771885,182.565,-18.7287,0.580114,92.0295,-20.7388,866.305
0.099,-0.192371,-0.00767229,0.330358,0.0663297,0.0622159,-0.104335,0.05763,-0.100371,-0.100712,0.327427,0.0230001,-0.182807,2.59108e-08,-3.06183e-09,0.3,-0.3,-12.6898,-20.3704,0.764544,182.552,-18.7229,0.574547,91.9026,-20.7438,866.205
0.1,-0.192371,-0.00767229,0.330358,0.0663297,0.0622159,-0.104335,0.05763,-0.100371,-0.100712,0.327427,0.0230001,-0.182807,2.59108e-08,-3.06183e-09,0.3,-0.3,-12.869,-20.1076,0.748256,182.537,-18.7164,0.567991,91.7718,-20.7526,866.116
0.101,-0.192371,-0.00767229,0.330358,0.0663297,0.0622159,-0.104335,0.05763,-0.100371,-0.100712,0.327427,0.0230001,-0.182807,2.59108e-08,-3.06183e-09,0.3,-0.3,-13.0553,-19.8407,0.722542,182.522,-18.7094,0.560377,91.6369,-20.7651,866.036
0.102,-0.192371,-0.00767229,0.330358,0.0663297,0.0622159,-0.104335,0.05763,-0.100371,-0.100712,0.327427,0.0230001,-0.182807,2.59108e-08,-3.06183e-09,0.3,-0.3,-13.2488,-19.5683,0.686905,182.506,-18.7024,0.551651,91.4981,-20.7814,865.967
0.103,-0.192371,-0.00767229,0.330358,0.0663297,0.0622159,-0.104335,0.05763,-0.100371,-0.100712,0.327427,0.0230001,-0.182807,2.59108e-08,-3.06183e-09,0.3,-0.3,-13.4496,-19.2895,0.640899,182.49,-18.6956,0.541756,91.3555,-20.8015,865.907
0.104,-0.192371,-0.00767229,0.330358,0.0663297,0.0622159,-0.104335,0.05763,-0.100371,-0.100712,0.327427,0.0230001,-0.182807,2.59108e-08,-3.06183e-09,0.3,-0.3,-13.658,-19.0062,0.586066,182.454,-18.6798,0.533693,91.2129,-20.8257,865.853
0.105,-0.192371,-0.00767229,0.330358,0.0663297,0.0622159,-0.104335,0.05763,-0.100371,-0.100712,0.327427,0.0230001,-0.182807,2.59108e-08,-3.06183e-09,0.3,-0.3,-13.735,-18.8888,0.594882,182.421,-18.6655,0.533571,91.0807,-20.864,865.82
0.106,-0.192371,-0.00767229,0.330358,0.0663297,0.0622159,-0.104335,0.05763,-0.100371,-0.100712,0.327427,0.0230001,-0.182807,2.59108e-08,-3.06183e-09,0.3,-0.3,-13.7038,-18.8939,0.609446,182.387,-18.6507,0.524817,90.9513,-20.9094,865.799
0.107,-0.192371,-0.00767229,0.330358,0.0663297,0.0622159,-0.104335,0.05763,-0.100371,-0.100712,0.327427,0.0230001,-0.182807,2.59108e-08,-3.06183e-09,0.3,-0.3,-13.6704,-18.894,0.609656,182.38,-18.6371,0.51388,90.8255,-20.9574,865.787
0.108,-0.192371,-0.00767229,0.330358,0.0663297,0.0622159,-0.104335,0.05763,-0.100371,-0.100712,0.327427,0.0230001,-0.182807,2.59108e-08,-3.06183e-09,0.3,-0.3,-13.6365,-18.8924,0.605046,182.401,-18.6268,0.5151,90.7036,-21.0063,865.785
0.109,-0.192371,-0.00767229,0.330358,0.0663297,0.0622159,-0.104335,0.05763,-0.100371,-0.100712,0.327427,0.0230001,-0.182807,2.59108e-08,-3.06183e-09,0.3,-0.3,-13.6019,-18.8891,0.598191,182.425,-18.6153,0.52055,90.5834,-21.0558,865.793
0.11,-0.192371,-0.00767229,0.330358,0.0663297,0.0622159,-0.104335,0.05763,-0.100371,-0.100712,0.327427,0.0230001,-0.182807,2.59108e-08,-3.06183e-09,0.3,-0.3,-13.5671,-18.8845,0.590057,182.439,-18.5924,0.529188,90.4641,-21.1041,865.805
0.111,-0.192371,-0.00767229,0.330358,0.0663297,0.0622159,-0.104335,0.05763,-0.100371,-0.100712,0.327427,0.0230001,-0.182807,2.59108e-08,-3.06183e-09,0.3,-0.3,-13.5326,-18.8784,0.579736,182.439,-18.5562,0.542618,90.3453,-21.1505,865.819
0.112,-0.192371,-0.00767229,0.330358,0.0663297,0.0622159,-0.104335,0.05763,-0.100371,-0.100712,0.327427,0.0230001,-0.182807,2.59108e-08,-3.06183e-09,0.3,-0.3,-13.498,-18.8708,0.568468,182.432,-18.5112,0.55895,90.2268,-21.1952,865.835
0.113,-0.192371,-0.00767229,0.330358,0.0663297,0.0622159,-0.104335,0.05763,-0.100371,-0.100712,0.327427,0.0230001,-0.182807,2.59108e-08,-3.06183e-09,0.3,-0.3,-13.464,-18.8621,0.556798,182.42,-18.4612,0.577036,90.1088,-21.2382,865.853
0.114,-0.192371,-0.00767229,0.330358,0.0663297,0.0622159,-0.104335,0.05763,-0.100371,-0.100712,0.327427,0.0230001,-0.182807,2.59108e-08,-3.06183e-09,0.3,-0.3,-13.4308,-18.8527,0.545423,182.405,-18.409,0.596106,89.9915,-21.2797,865.87
0.115,-0.192371,-0.00767229,0.330358,0.0663297,0.0622159,-0.104335,0.05763,-0.100371,-0.100712,0.327427,0.0230001,-0.182807,2.59108e-08,-3.06183e-09,0.3,-0.3,-13.3986,-18.8426,0.534806,182.391,-18.3572,0.615673,89.8747,-21.3198,865.887
0.116,-0.192371,-0.00767229,0.330358,0.0663297,0.0622159,-0.104335,0.05763,-0.100371,-0.100712,0.327427,0.0230001,-0.182807,2.59108e-08,-3.06183e-09,0.3,-0.3,-13.3673,-18.832,0.525192,182.379,-18.3074,0.635412,89.7588,-21.3587,865.904
0.117,-0.192371,-0.00767229,0.330358,0.0663297,0.0622159,-0.104335,0.05763,-0.100371,-0.100712,0.327427,0.0230001,-0.182807,2.59108e-08,-3.06183e-09,0.3,-0.3,-13.3368,-18.821,0.516689,182.371,-18.2612,0.655113,89.6437,-21.3963,865.921
0.118,-0.192371,-0.00767229,0.330358,0.0663297,0.0622159,-0.104335,0.05763,-0.100371,-0.100712,0.327427,0.0230001,-0.182807,2.59108e-08,-3.06183e-09,0.3,-0.3,-13.3072,-18.8096,0.509311,182.368,-18.2195,0.674646,89.5295,-21.4329,865.937
0.119,-0.192371,-0.00767229,0.330358,0.0663297,0.0622159,-0.104335,0.05763,-0.100371,-0.100712,0.327427,0.0230001,-0.182807,2.59108e-08,-3.06183e-09,0.3,-0.3,-13.2785,-18.7978,0.502999,182.371,-18.183,0.693972,89.4162,-21.4684,865.952
0.12,-0.192371,-0.00767229,0.330358,0.0663297,0.0622159,-0.104335,0.05763,-0.100371,-0.100712,0.327427,0.0230001,-0.182807,2.59108e-08,-3.06183e-09,0.3,-0.3,-13.2507,-18.7862,0.497576,182.381,-18.1522,0.713083,89.3039,-21.5031,865.966
0.121,-0.192371,-0.00767229,0.330358,0.0663297,0.0622159,-0.104335,0.05763,-0.100371,-0.100712,0.327427,0.0230001,-0.182807,2.59108e-08,-3.06183e-09,0.3,-0.3,-13.2235,-18.7744,0.493003,182.397,-18.1273,0.732044,89.1926,-21.5369,865.981
0.122,-0.192371,-0.00767229,0.330358,0.0663297,0.0622159,-0.104335,0.05763,-0.100371,-0.100712,0.327427,0.0230001,-0.182807,2.59108e-08,-3.06183e-09,0.3,-0.3,-13.1975,-18.7631,0.48917,182.42,-18.1081,0.750927,89.0822,-21.5698,865.995
0.123,-0.192371,-0.00767229,0.330358,0.0663297,0.0622159,-0.104335,0.05763,-0.100371,-0.100712,0.327427,0.0230001,-0.182807,2.59108e-08,-3.06183e-09,0.3,-0.3,-13.1717,-18.7517,0.48596,182.45,-18.0945,0.769829,88.9729,-21.6019,866.008
0.124,-0.192371,-0.00767229,0.330358,0.0663297,0.0622159,-0.104335,0.05763,-0.100371,-0.100712,0.327427,0.0230001,-0.182807,2.59108e-08,-3.06183e-09,0.3,-0.3,-13.1462,-18.7402,0.483212,182.487,-18.0863,0.788832,88.8645,-21.6332,866.022
0.125,-0.192371,-0.00767229,0.330358,0.0663297,0.0622159,-0.104335,0.05763,-0.100371,-0.100712,0.327427,0.0230001,-0.182807,2.59108e-08,-3.06183e-09,0.3,-0.3,-13.1211,-18.7287,0.48083,182.531,-18.0831,0.808018,88.757,-21.6638,866.036
0.126,-0.192371,-0.00767229,0.330358,0.0663297,0.0622159,-0.104335,0.05763,-0.100371,-0.100712,0.327427,0.0230001,-0.182807,2.59108e-08,-3.06183e-09,0.3,-0.3,-13.0963,-18.7173,0.478735,182.581,-18.0844,0.827463,88.6505,-21.6935,866.05
0.127,-0.192371,-0.00767229,0.330358,0.0663297,0.0622159,-0.104335,0.05763,-0.100371,-0.100712,0.327427,0.0230001,-0.182807,2.59108e-08,-3.06183e-09,0.3,-0.3,-13.072,-18.706,0.476871,182.636,-18.0898,0.847225,88.5447,-21.7223,866.064
0.128,-0.192371,-0.00767229,0.330358,0.0663297,0.0622159,-0.104335,0.05763,-0.100371,-0.100712,0.327427,0.0230001,-0.182807,2.59108e-08,-3.06183e-09,0.3,-0.3,-13.0479,-18.6947,0.475199,182.697,-18.0988,0.867331,88.4398,-21.7504,866.078
0.129,-0.192371,-0.00767229,0.330358,0.0663297,0.0622159,-0.104335,0.05763,-0.100371,-0.100712,0.327427,0.0230001,-0.182807,2.59108e-08,-3.06183e-09,0.3,-0.3,-13.0243,-18.6837,0.473693,182.762,-18.1108,0.887758,88.3357,-21.7776,866.093
0.13,-0.192371,-0.00767229,0.330358,0.0663297,0.0622159,-0.104335,0.05763,-0.100371,-0.100712,0.327427,0.0230001,-0.182807,2.59108e-08,-3.06183e-09,0.3,-0.3,-13.0011,-18.6727,0.472327,182.833,-18.1254,0.908346,88.2322,-21.8039,866.109
0.131,-0.192371,-0.00767229,0.330358,0.0663297,0.0622159,-0.104335,0.05763,-0.100371,-0.100712,0.327427,0.0230001,-0.182807,2.59108e-08,-3.06183e-09,0.3,-0.3,-12.9784,-18.662,0.470957,182.907,-18.142,0.929098,88.1294,-21.8293,866.124
0.132,-0.192371,-0.00767229,0.330358,0.0663297,0.0622159,-0.104335,0.05763,-0.100371,-0.100712,0.327427,0.0230001,-0.182807,2.59108e-08,-3.06183e-09,0.3,-0.3,-12.9562,-18.6513,0.469266,182.985,-18.1603,0.949793,88.0273,-21.8536,866.139
0.133,-0.192371,-0.00767229,0.330358,0.0663297,0.0622159,-0.104335,0.05763,-0.100371,-0.100712,0.327427,0.0230001,-0.182807,2.59108e-08,-3.06183e-09,0.3,-0.3,-12.9345,-18.6408,0.4673,183.066,-18.1797,0.970203,87.9258,-21.877,866.154
0.134,-0.192371,-0.00767229,0.330358,0.0663297,0.0622159,-0.104335,0.05763,-0.100371,-0.100712,0.327427,0.0230001,-0.182807,2.59108e-08,-3.06183e-09,0.3,-0.3,-12.913,-18.6505,0.474802,183.149,-18.2001,0.994545,87.8266,-21.8994,866.172
0.135,-0.192371,-0.00767229,0.330358,0.0663297,0.0622159,-0.104335,0.05763,-0.100371,-0.100712,0.327427,0.0230001,-0.182807,2.59108e-08,-3.06183e-09,0.3,-0.3,-12.8951,-18.6681,0.492157,183.234,-18.2209,1.02042,87.7287,-21.9209,866.192
0.136,-0.192371,-0.00767229,0.330358,0.0663297,0.0622159,-0.104335,0.05763,-0.100371,-0.100712,0.327427,0.0230001,-0.182807,2.59108e-08,-3.06183e-09,0.3,-0.3,-12.8778,-18.6842,0.505666,183.321,-18.2418,1.04787,87.632,-21.9416,866.214
0.137,-0.192371,-0.00767229,0.330358,0.0663297,0.0622159,-0.104335,0.05763,-0.100371,-0.100712,0.327427,0.0230001,-0.182807,2.59108e-08,-3.06183e-09,0.3,-0.3,-12.8613,-18.6993,0.51625,183.409,-18.263,1.07656,87.5368,-21.9613,866.237
0.138,-0.192371,-0.00767229,0.330358,0.0663297,0.0622159,-0.104335,0.05763,-0.100371,-0.100712,0.327427,0.0230001,-0.182807,2.59108e-08,-3.06183e-09,0.3,-0.3,-12.8454,-18.7135,0.524763,183.498,-18.2845,1.10611,87.4431,-21.9801,866.261
0.139,-0.192371,-0.00767229,0.330358,0.0663297,0.0622159,-0.104335,0.05763,-0.100371,-0.100712,0.327427,0.0230001,-0.182807,2.59108e-08,-3.06183e-09,0.3,-0.3,-12.8299,-18.7268,0.531888,183.589,-18.3065,1.13613,87.3509,-21.9979,866.287
0.14,-0.192371,-0.00767229,0.330358,0.0663297,0.0622159,-0.104335,0.05763,-0.100371,-0.100712,0.327427,0.0230001,-0.182807,2.59108e-08,-3.06183e-09,0.3,-0.3,-12.8149,-18.7393,0.5382,183.681,-18.329,1.16621,87.2602,-22.0146,866.312
0.141,-0.192371,-0.00767229,0.330358,0.0663297,0.0622159,-0.104335,0.05763,-0.100371,-0.100712,0.327427,0.0230001,-0.182807,2.59108e-08,-3.06183e-09,0.3,-0.3,-12.8003,-18.7511,0.544136,183.774,-18.352,1.19584,87.171,-22.0303,866.337
0.142,-0.192371,-0.00767229,0.330358,0.0663297,0.0622159,-0.104335,0.05763,-0.100371,-0.100712,0.327427,0.0230001,-0.182807,2.59108e-08,-3.06183e-09,0.3,-0.3,-12.7858,-18.7621,0.549519,183.869,-18.3757,1.22489,87.0833,-22.0449,866.362
0.143,-0.192371,-0.00767229,0.330358,0.0663297,0.0622159,-0.104335,0.05763,-0.100371,-0.100712,0.327427,0.0230001,-0.182807,2.59108e-08,-3.06183e-09,0.3,-0.3,-12.7716,-18.7723,0.554721,183.964,-18.3999,1.25321,86.9972,-22.0584,866.386
0.144,-0.192371,-0.00767229,0.330358,0.0663297,0.0622159,-0.104335,0.05763,-0.100371,-0.100712,0.327427,0.0230001,-0.182807,2.59108e-08,-3.06183e-09,0.3,-0.3,-12.7576,-18.7819,0.559951,184.061,-18.4246,1.2807,86.9126,-22.0708,866.41
0.145,-0.192371,-0.00767229,0.330358,0.0663297,0.0622159,-0.104335,0.05763,-0.100371,-0.100712,0.327427,0.0230001,-0.182807,2.59108e-08,-3.06183e-09,0.3,-0.3,-12.7438,-18.7908,0.565311,184.158,-18.4497,1.30732,86.8295,-22.0821,866.432
0.146,-0.192371,-0.00767229,0.330358,0.0663297,0.0622159,-0.104335,0.05763,-0.100371,-0.100712,0.327427,0.0230001,-0.182807,2.59108e-08,-3.06183e-09,0.3,-0.3,-12.7303,-18.7992,0.570836,184.257,-18.4753,1.33301,86.748,-22.0923,866.454
0.147,-0.192371,-0.00767229,0.330358,0.0663297,0.0622159,-0.104335,0.05763,-0.100371,-0.100712,0.327427,0.0230001,-0.182807,2.59108e-08,-3.06183e-09,0.3,-0.3,-12.7168,-18.8071,0.576518,184.355,-18.501,1.35777,86.6679,-22.1013,866.475
0.148,-0.192371,-0.00767229,0.330358,0.0663297,0.0622159,-0.104335,0.05763,-0.100371,-0.100712,0.327427,0.0230001,-0.182807,2.59108e-08,-3.06183e-09,0.3,-0.3,-12.7034,-18.8145,0.582321,184.454,-18.5269,1.38156,86.5894,-22.1092,866.495
0.149,-0.192371,-0.00767229,0.330358,0.0663297,0.0622159,-0.104335,0.05763,-0.100371,-0.100712,0.327427,0.0230001,-0.182807,2.59108e-08,-3.06183e-09,0.3,-0.3,-12.6901,-18.8215,0.588189,184.552,-18.5527,1.4044,86.5122,-22.116,866.514
0.15,-0.192371,-0.00767229,0.330358,0.0663297,0.0622159,-0.104335,0.05763,-0.100371,-0.100712,0.327427,0.0230001,-0.182807,2.59108e-08,-3.06183e-09,0.3,-0.3,-12.6769,-18.8283,0.59406,184.65,-18.5784,1.42628,86.4366,-22.1217,866.533
0.151,-0.192371,-0.00767229,0.330358,0.0663297,0.0622159,-0.104335,0.05763,-0.100371,-0.100712,0.327427,0.0230001,-0.182807,2.59108e-08,-3.06183e-09,0.3,-0.3,-12.6628,-18.8357,0.599907,184.748,-18.6039,1.44722,86.3623,-22.1263,866.551
0.152,-0.192371,-0.00767229,0.330358,0.0663297,0.0622159,-0.104335,0.05763,-0.100371,-0.100712,0.327427,0.0230001,-0.182807,2.59108e-08,-3.06183e-09,0.3,-0.3,-12.6482,-18.843,0.605559,184.845,-18.6289,1.46724,86.2894,-22.1297,866.568
0.153,-0.192371,-0.00767229,0.330358,0.0663297,0.0622159,-0.104335,0.05763,-0.100371,-0.100712,0.327427,0.0230001,-0.182807,2.59108e-08,-3.06183e-09,0.3,-0.3,-12.6332,-18.8501,0.610996,184.941,-18.6535,1.48638,86.2178,-22.132,866.584
0.154,-0.192371,-0.00767229,0.330358,0.0663297,0.0622159,-0.104335,0.05763,-0.100371,-0.100712,0.327427,0.0230001,-0.182807,2.59108e-08,-3.06183e-09,0.3,-0.3,-12.6179,-18.8571,0.616175,185.035,-18.6775,1.50465,86.1476,-22.1331,866.6
0.155,-0.192371,-0.00767229,0.330358,0.0663297,0.0622159,-0.104335,0.05763,-0.100371,-0.100712,0.327427,0.0230001,-0.182807,2.59108e-08,-3.06183e-09,0.3,-0.3,-12.6022,-18.8643,0.621045,185.129,-18.7009,1.52208,86.0787,-22.1331,866.615
0.156,-0.192371,-0.00767229,0.330358,0.0663297,0.0622159,-0.104335,0.05763,-0.100371,-0.100712,0.327427,0.0230001,-0.182807,2.59108e-08,-3.06183e-09,0.3,-0.3,-12.5856,-18.8718,0.625596,185.221,-18.7235,1.53869,86.0111,-22.1319,866.629
0.157,-0.192371,-0.00767229,0.330358,0.0663297,0.0622159,-0.104335,0.05763,-0.100371,-0.100712,0.327427,0.0230001,-0.182807,2.59108e-08,-3.06183e-09,0.3,-0.3,-12.5685,-18.8795,0.629719,185.312,-18.7453,1.55451,85.9447,-22.1296,866.643
0.158,-0.192371,-0.00767229,0.330358,0.0663297,0.0622159,-0.104335,0.05763,-0.100371,-0.100712,0.327427,0.0230001,-0.182807,2.59108e-08,-3.06183e-09,0.3,-0.3,-12.5504,-18.8876,0.633448,185.401,-18.7662,1.5696,85.8796,-22.126,866.656
0.159,-0.192371,-0.00767229,0.330358,0.0663297,0.0622159,-0.104335,0.05763,-0.100371,-0.100712,0.327427,0.0230001,-0.182807,2.59108e-08,-3.06183e-09,0.3,-0.3,-12.5307,-18.8963,0.636707,185.489,-18.7864,1.58399,85.8158,-22.1213,866.669
0.16,-0.192371,-0.00767229,0.330358,0.0663297,0.0622159,-0.104335,0.05763,-0.100371,-0.100712,0.327427,0.0230001,-0.182807,2.59108e-08,-3.06183e-09,0.3,-0.3,-12.5108,-18.905,0.639532,185.575,-18.8057,1.59769,85.7532,-22.1154,866.681
0.161,-0.192371,-0.00767229,0.330358,0.0663297,0.0622159,-0.104335,0.05763,-0.100371,-0.100712,0.327427,0.0230001,-0.182807,2.59108e-08,-3.06183e-09,0.3,-0.3,-12.4897,-18.9149,0.641921,185.66,-18.8242,1.61075,85.6918,-22.1084,866.692
0.162,-0.192371,-0.00767229,0.330358,0.0663297,0.0622159,-0.104335,0.05763,-0.100371,-0.100712,0.327427,0.0230001,-0.182807,2.59108e-08,-3.06183e-09,0.3,-0.3,-12.4677,-18.9249,0.643799,185.743,-18.842,1.6232,85.6317,-22.1001,866.703
0.163,-0.192371,-0.00767229,0.330358,0.0663297,0.0622159,-0.104335,0.05763,-0.100371,-0.100712,0.327427,0.0230001,-0.182807,2.59108e-08,-3.06183e-09,0.3,-0.3,-12.4452,-18.9349,0.645235,185.824,-18.8591,1.63507,85.5728,-22.0907,866.714
0.164,-0.192371,-0.00767229,0.330358,0.0663297,0.0622159,-0.104335,0.05763,-0.100371,-0.100712,0.327427,0.0230001,-0.182807,2.59108e-08,-3.06183e-09,0.3,-0.3,-12.4221,-18.9451,0.646258,185.904,-18.8756,1.6464,85.5151,-22.0801,866.724
0.165,-0.192371,-0.00767229,0.330358,0.0663297,0.0622159,-0.104335,0.05763,-0.100371,-0.100712,0.327427,0.0230001,-0.182807,2.59108e-08,-3.06183e-09,0.3,-0.3,-12.3984,-18.9555,0.646878,185.983,-18.8915,1.6572,85.4587,-22.0684,866.733
0.166,-0.192371,-0.00767229,0.330358,0.0663297,0.0622159,-0.104335,0.05763,-0.100371,-0.100712,0.327427,0.0230001,-0.182807,2.59108e-08,-3.06183e-09,0.3,-0.3,-12.3743,-18.9661,0.647112,186.061,-18.907,1.6675,85.4035,-22.0554,866.743
0.167,-0.192371,-0.00767229,0.330358,0.0663297,0.0622159,-0.104335,0.05763,-0.100371,-0.100712,0.327427,0.0230001,-0.182807,2.59108e-08,-3.06183e-09,0.3,-0.3,-12.3497,-18.9767,0.646977,186.137,-18.9221,1.67732,85.3496,-22.0413,866.752
0.168,-0.192371,-0.00767229,0.330358,0.0663297,0.0622159,-0.104335,0.05763,-0.100371,-0.100712,0.327427,0.0230001,-0.182807,2.59108e-08,-3.06183e-09,0.3,-0.3,-12.3248,-18.9875,0.646493,186.211,-18.9369,1.68668,85.2969,-22.0261,866.76
0.169,-0.192371,-0.00767229,0.330358,0.0663297,0.0622159,-0.104335,0.05763,-0.100371,-0.100712,0.327427,0.0230001,-0.182807,2.59108e-08,-3.06183e-09,0.3,-0.3,-12.2997,-18.9984,0.645674,186.285,-18.9516,1.6956,85.2454,-22.0097,866.768
0.17,-0.192371,-0.00767229,0.330358,0.0663297,0.0622159,-0.104335,0.05763,-0.100371,-0.100712,0.327427,0.0230001,-0.182807,2.59108e-08,-3.06183e-09,0.3,-0.3,-12.2746,-19.0094,0.644541,186.358,-18.9662,1.7041,85.1951,-21.9922,866.776
0.171,-0.192371,-0.00767229,0.330358,0.0663297,0.0622159,-0.104335,0.05763,-0.100371,-0.100712,0.327427,0.0230001,-0.182807,2.59108e-08,-3.06183e-09,0.3,-0.3,-12.2492,-19.0205,0.643136,186.429,-18.9809,1.71218,85.1461,-21.9735,866.783
0.172,-0.192371,-0.00767229,0.330358,0.0663297,0.0622159,-0.104335,0.05763,-0.100371,-0.100712,0.327427,0.0230001,-0.182807,2.59108e-08,-3.06183e-09,0.3,-0.3,-12.2233,-19.0319,0.64137,186.5,-18.9958,1.71988,85.0984,-21.9537,866.79
0.173,-0.192371,-0.00767229,0.330358,0.0663297,0.0622159,-0.104335,0.05763,-0.100371,-0.100712,0.327427,0.0230001,-0.182807,2.59108e-08,-3.06183e-09,0.3,-0.3,-12.1975,-19.0432,0.639354,186.57,-19.011,1.72721,85.0519,-21.9329,866.796
0.174,-0.192371,-0.00767229,0.330358,0.0663297,0.0622159,-0.104335,0.05763,-0.100371,-0.100712,0.327427,0.0230001,-0.182807,2.59108e-08,-3.06183e-09,0.3,-0.3,-12.1717,-19.0546,0.637075,186.639,-19.0266,1.73416,85.0067,-21.9109,866.802
0.175,-0.192371,-0.00767229,0.330358,0.0663297,0.0622159,-0.104335,0.05763,-0.100371,-0.100712,0.327427,0.0230001,-0.182807,2.59108e-08,-3.06183e-09,0.3,-0.3,-12.1461,-19.066,0.634539,186.707,-19.0428,1.74076,84.9627,-21.8879,866.808
0.176,-0.192371,-0.00767229,0.330358,0.0663297,0.0622159,-0.104335,0.05763,-0.100371,-0.100712,0.327427,0.0230001,-0.182807,2.59108e-08,-3.06183e-09,0.3,-0.3,-12.1208,-19.0773,0.63177,186.774,-19.0596,1.74699,84.92,-21.8638,866.813
0.177,-0.192371,-0.00767229,0.330358,0.0663297,0.0622159,-0.104335,0.05763,-0.100371,-0.100712,0.327427,0.0230001,-0.182807,2.59108e-08,-3.06183e-09,0.3,-0.3,-12.0955,-19.0886,0.628731,186.841,-19.0771,1.75289,84.8786,-21.8387,866.818
0.178,-0.192371,-0.00767229,0.330358,0.0663297,0.0622159,-0.104335,0.05763,-0.100371,-0.100712,0.327427,0.0230001,-0.182807,2.59108e-08,-3.06183e-09,0.3,-0.3,-12.0704,-19.0998,0.625455,186.906,-19.0954,1.75846,84.8384,-21.8125,866.822
0.179,-0.192371,-0.00767229,0.330358,0.0663297,0.0622159,-0.104335,0.05763,-0.100371,-0.100712,0.327427,0.0230001,-0.182807,2.59108e-08,-3.06183e-09,0.3,-0.3,-12.0457,-19.111,0.621942,186.971,-19.1145,1.76369,84.7995,-21.7853,866.827
0.18,-0.192371,-0.00767229,0.330358,0.0663297,0.0622159,-0.104335,0.05763,-0.100371,-0.100712,0.327427,0.0230001,-0.182807,2.59108e-08,-3.06183e-09,0.3,-0.3,-12.0213,-19.122,0.618194,187.036,-19.1347,1.76858,84.7618,-21.7571,866.83
0.181,-0.192371,-0.00767229,0.330358,0.0663297,0.0622159,-0.104335,0.05763,-0.100371,-0.100712,0.327427,0.0230001,-0.182807,2.59108e-08,-3.06183e-09,0.3,-0.3,-11.9972,-19.1329,0.614213,187.099,-19.1558,1.77316,84.7254,-21.7278,866.834
0.182,-0.192371,-0.00767229,0.330358,0.0663297,0.0622159,-0.104335,0.05763,-0.100371,-0.100712,0.327427,0.0230001,-0.182807,2.59108e-08,-3.06183e-09,0.3,-0.3,-11.9735,-19.1437,0.609998,187.162,-19.178,1.7774,84.6903,-21.6976,866.837
0.183,-0.192371,-0.00767229,0.330358,0.0663297,0.0622159,-0.104335,0.05763,-0.100371,-0.100712,0.327427,0.0230001,-0.182807,2.59108e-08,-3.06183e-09,0.3,-0.3,-11.9501,-19.1544,0.605551,187.224,-19.2013,1.78132,84.6564,-21.6663,866.839
0.184,-0.192371,-0.00767229,0.330358,0.0663297,0.0622159,-0.104335,0.05763,-0.100371,-0.100712,0.327427,0.0230001,-0.182807,2.59108e-08,-3.06183e-09,0.3,-0.3,-11.9271,-19.1649,0.600867,187.285,-19.2257,1.78492,84.6238,-21.6341,866.841
0.185,-0.192371,-0.00767229,0.330358,0.0663297,0.0622159,-0.104335,0.05763,-0.100371,-0.100712,0.327427,0.0230001,-0.182807,2.59108e-08,-3.06183e-09,0.3,-0.3,-11.9044,-19.1753,0.595947,187.345,-19.2512,1.7882,84.5924,-21.6008,866.843
0.186,-0.192371,-0.00767229,0.330358,0.0663297,0.0622159,-0.104335,0.05763,-0.100371,-0.100712,0.327427,0.0230001,-0.182807,2.59108e-08,-3.06183e-09,0.3,-0.3,-11.8821,-19.1856,0.590788,187.404,-19.2779,1.79116,84.5622,-21.5665,866.845
0.187,-0.192371,-0.00767229,0.330358,0.0663297,0.0622159,-0.104335,0.05763,-0.100371,-0.100712,0.327427,0.0230001,-0.182807,2.59108e-08,-3.06183e-09,0.3,-0.3,-11.8601,-19.1958,0.585388,187.462,-19.3057,1.79381,84.5333,-21.5313,866.845
0.188,-0.192371,-0.00767229,0.330358,0.0663297,0.0622159,-0.104335,0.05763,-0.100371,-0.100712,0.327427,0.0230001,-0.182807,2.59108e-08,-3.06183e-09,0.3,-0.3,-11.8383,-19.2059,0.579744,187.518,-19.3347,1.79614,84.5056,-21.495,866.846
0.189,-0.192371,-0.00767229,0.330358,0.0663297,0.0622159,-0.104335,0.05763,-0.100371,-0.100712,0.327427,0.0230001,-0.182807,2.59108e-08,-3.06183e-09,0.3,-0.3,-11.8168,-19.2158,0.573855,187.574,-19.3648,1.79816,84.4791,-21.4577,866.846
0.19,-0.192371,-0.00767229,0.330358,0.0663297,0.0622159,-0.104335,0.05763,-0.100371,-0.100712,0.327427,0.0230001,-0.182807,2.59108e-08,-3.06183e-09,0.3,-0.3,-11.7956,-19.2257,0.567718,187.628,-19.396,1.79987,84.4537,-21.4195,866.846
0.191,-0.192371,-0.00767229,0.330358,0.0663297,0.0622159,-0.104335,0.05763,-0.100371,-0.100712,0.327427,0.0230001,-0.182807,2.59108e-08,-3.06183e-09,0.3,-0.3,-11.7745,-19.2356,0.56133,187.681,-19.4284,1.80127,84.4296,-21.3802,866.845
0.192,-0.192371,-0.00767229,0.330358,0.0663297,0.0622159,-0.104335,0.05763,-0.100371,-0.100712,0.327427,0.0230001,-0.182807,2.59108e-08,-3.06183e-09,0.3,-0.3,-11.7536,-19.2454,0.55469,187.732,-19.4618,1.80237,84.4066,-21.3399,866.844
0.193,-0.192371,-0.00767229,0.330358,0.0663297,0.0622159,-0.104335,0.05763,-0.100371,-0.100712,0.327427,0.0230001,-0.182807,2.59108e-08,-3.06183e-09,0.3,-0.3,-11.7328,-19.2551,0.547796,187.781,-19.4963,1.80318,84.3849,-21.2987,866.842
0.194,-0.192371,-0.00767229,0.330358,0.0663297,0.0622159,-0.104335,0.05763,-0.100371,-0.100712,0.327427,0.0230001,-0.182807,2.59108e-08,-3.06183e-09,0.3,-0.3,-11.712,-19.2648,0.540645,187.829,-19.5319,1.80369,84.3643,-21.2564,866.84
0.195,-0.192371,-0.00767229,0.330358,0.0663297,0.0622159,-0.104335,0.05763,-0.100371,-0.100712,0.327427,0.0230001,-0.182807,2.59108e-08,-3.06183e-09,0.3,-0.3,-11.6914,-19.2744,0.533237,187.874,-19.5685,1.80392,84.3448,-21.2131,866.838
0.196,-0.192371,-0.00767229,0.330358,0.0663297,0.0622159,-0.104335,0.05763,-0.100371,-0.100712,0.327427,0.0230001,-0.182807,2.59108e-08,-3.06183e-09,0.3,-0.3,-11.6707,-19.2841,0.52557,187.918,-19.6061,1.80387,84.3265,-21.1688,866.835
0.197,-0.192371,-0.00767229,0.330358,0.0663297,0.0622159,-0.104335,0.05763,-0.100371,-0.100712,0.327427,0.0230001,-0.182807,2.59108e-08,-3.06183e-09,0.3,-0.3,-11.6501,-19.2937,0.517643,187.96,-19.6446,1.80354,84.3093,-21.1234,866.832
0.198,-0.192371,-0.00767229,0.330358,0.0663297,0.0622159,-0.104335,0.05763,-0.100371,-0.100712,0.327427,0.0230001,-0.182807,2.59108e-08,-3.06183e-09,0.3,-0.3,-11.6294,-19.3033,0.509455,188,-19.6842,1.80294,84.2933,-21.0771,866.828
0.199,-0.192371,-0.00767229,0.330358,0.0663297,0.0622159,-0.104335,0.05763,-0.100371,-0.100712,0.327427,0.0230001,-0.182807,2.59108e-08,-3.06183e-09,0.3,-0.3,-11.6087,-19.3129,0.501006,188.038,-19.7247,1.80208,84.2784,-21.0297,866.824
0.2,-0.192371,-0.00767229,0.330358,0.0663297,0.0622159,-0.104335,0.05763,-0.100371,-0.100712,0.327427,0.0230001,-0.182807,2.59108e-08,-3.06183e-09,0.3,-0.3,-11.5878,-19.3225,0.492295,188.073,-19.7662,1.80097,84.2646,-20.9813,866.82
0.201,-0.192371,-0.00767229,0.330358,0.0663297,0.0622159,-0.104335,0.05763,-0.100371,-0.100712,0.327427,0.0230001,-0.182807,2.59108e-08,-3.06183e-09,0.3,-0.3,-11.5669,-19.3321,0.483322,188.106,-19.8087,1.79961,84.2519,-20.9319,866.815
0.202,-0.192371,-0.00767229,0.330358,0.0663297,0.0622159,-0.104335,0.05763,-0.100371,-0.100712,0.327427,0.0230001,-0.182807,2.59108e-08,-3.06183e-09,0.3,-0.3,-11.5459,-19.3416,0.474087,188.136,-19.852,1.79801,84.2403,-20.8814,866.81
0.203,-0.192371,-0.00767229,0.330358,0.0663297,0.0622159,-0.104335,0.05763,-0.100371,-0.100712,0.327427,0.0230001,-0.182807,2.59108e-08,-3.06183e-09,0.3,-0.3,-11.5249,-19.3511,0.46459,188.164,-19.8964,1.79618,84.2299,-20.8299,866.804
0.204,-0.192371,-0.00767229,0.330358,0.0663297,0.0622159,-0.104335,0.05763,-0.100371,-0.100712,0.327427,0.0230001,-0.182807,2.59108e-08,-3.06183e-09,0.3,-0.3,-11.5038,-19.3606,0.454727,188.19,-19.9417,1.79363,84.2205,-20.7774,866.798
0.205,-0.192371,-0.00767229,0.330358,0.0663297,0.0622159,-0.104335,0.05763,-0.100371,-0.100712,0.327427,0.0230001,-0.182807,2.59108e-08,-3.06183e-09,0.3,-0.3,-11.4825,-19.37,0.44451,188.213,-19.9879,1.79019,84.2121,-20.724,866.791
0.206,-0.192371,-0.00767229,0.330358,0.0663297,0.0622159,-0.104335,0.05763,-0.100371,-0.100712,0.327427,0.0230001,-0.182807,2.59108e-08,-3.06183e-09,0.3,-0.3,-11.4608,-19.3797,0.434034,188.234,-20.0347,1.78601,84.2048,-20.6695,866.783
0.207,-0.192371,-0.00767229,0.330358,0.0663297,0.0622159,-0.104335,0.05763,-0.100371,-0.100712,0.327427,0.0230001,-0.182807,2.59108e-08,-3.06183e-09,0.3,-0.3,-11.4389,-19.3896,0.42334,188.254,-20.0821,1.78114,84.1986,-20.614,866.775
0.208,-0.192371,-0.00767229,0.330358,0.0663297,0.0622159,-0.104335,0.05763,-0.100371,-0.100712,0.327427,0.0230001,-0.182807,2.59108e-08,-3.06183e-09,0.3,-0.3,-11.4169,-19.3996,0.412422,188.272,-20.13,1.77566,84.1935,-20.5575,866.767
0.209,-0.192371,-0.00767229,0.330358,0.0663297,0.0622159,-0.104335,0.05763,-0.100371,-0.100712,0.327427,0.0230001,-0.182807,2.59108e-08,-3.06183e-09,0.3,-0.3,-11.3947,-19.4098,0.40127,188.288,-20.1782,1.76961,84.1897,-20.4999,866.758
0.21,-0.192371,-0.00767229,0.330358,0.0663297,0.0622159,-0.104335,0.05763,-0.100371,-0.100712,0.327427,0.0230001,-0.182807,2.59108e-08,-3.06183e-09,0.3,-0.3,-11.3725,-19.4204,0.389886,188.304,-20.2267,1.763,84.187,-20.4412,866.749
0.211,-0.192371,-0.00767229,0.330358,0.0663297,0.0622159,-0.104335,0.05763,-0.100371,-0.100712,0.327427,0.0230001,-0.182807,2.59108e-08,-3.06183e-09,0.3,-0.3,-11.3502,-19.431,0.37826,188.318,-20.2753,1.75586,84.1855,-20.3815,866.74
0.212,-0.192371,-0.00767229,0.330358,0.0663297,0.0622159,-0.104335,0.05763,-0.100371,-0.100712,0.327427,0.0230001,-0.182807,2.59108e-08,-3.06183e-09,0.3,-0.3,-11.3276,-19.4417,0.366378,188.333,-20.3241,1.74822,84.1853,-20.3207,866.73
0.213,-0.192371,-0.00767229,0.330358,0.0663297,0.0622159,-0.104335,0.05763,-0.100371,-0.100712,0.327427,0.0230001,-0.182807,2.59108e-08,-3.06183e-09,0.3,-0.3,-11.3049,-19.4524,0.354271,188.346,-20.3729,1.74008,84.1864,-20.2587,866.719
0.214,-0.192371,-0.00767229,0.330358,0.0663297,0.0622159,-0.104335,0.05763,-0.100371,-0.100712,0.327427,0.0230001,-0.182807,2.59108e-08,-3.06183e-09,0.3,-0.3,-11.2821,-19.4631,0.34194,188.36,-20.4217,1.73145,84.1887,-20.1957,866.709
0.215,-0.192371,-0.00767229,0.330358,0.0663297,0.0622159,-0.104335,0.05763,-0.100371,-0.100712,0.327427,0.0230001,-0.182807,2.59108e-08,-3.06183e-09,0.3,-0.3,-11.2593,-19.4739,0.329385,188.373,-20.4704,1.72235,84.1925,-20.1315,866.698
0.216,-0.192371,-0.00767229,0.330358,0.0663297,0.0622159,-0.104335,0.05763,-0.100371,-0.100712,0.327427,0.0230001,-0.182807,2.59108e-08,-3.06183e-09,0.3,-0.3,-11.2597,-19.4808,0.337514,188.38,-20.5212,1.71911,84.1946,-20.07,866.695
0.217,-0.192371,-0.00767229,0.330358,0.0663297,0.0622159,-0.104335,0.05763,-0.100371,-0.100712,0.327427,0.0230001,-0.182807,2.59108e-08,-3.06183e-09,0.3,-0.3,-11.2757,-19.489,0.357634,188.381,-20.5743,1.72178,84.1979,-20.0092,866.699
0.218,-0.192371,-0.00767229,0.330358,0.0663297,0.0622159,-0.104335,0.05763,-0.100371,-0.100712,0.327427,0.0230001,-0.182807,2.59108e-08,-3.06183e-09,0.3,-0.3,-11.2947,-19.4965,0.373396,188.377,-20.6284,1.72578,84.2021,-19.9493,866.705
0.219,-0.192371,-0.00767229,0.330358,0.0663297,0.0622159,-0.104335,0.05763,-0.100371,-0.100712,0.327427,0.0230001,-0.182807,2.59108e-08,-3.06183e-09,0.3,-0.3,-11.3143,-19.5038,0.384594,188.369,-20.6829,1.729,84.2072,-19.8905,866.711
0.22,-0.192371,-0.00767229,0.330358,0.0663297,0.0622159,-0.104335,0.05763,-0.100371,-0.100712,0.327427,0.0230001,-0.182807,2.59108e-08,-3.06183e-09,0.3,-0.3,-11.3352,-19.5116,0.392781,188.358,-20.7377,1.73077,84.2132,-19.833,866.716
0.221,-0.192371,-0.00767229,0.330358,0.0663297,0.0622159,-0.104335,0.05763,-0.100371,-0.100712,0.327427,0.0230001,-0.182807,2.59108e-08,-3.06183e-09,0.3,-0.3,-11.3555,-19.5192,0.399378,188.344,-20.7926,1.73114,84.2201,-19.7767,866.72
0.222,-0.192371,-0.00767229,0.330358,0.0663297,0.0622159,-0.104335,0.05763,-0.100371,-0.100712,0.327427,0.0230001,-0.182807,2.59108e-08,-3.06183e-09,0.3,-0.3,-11.3761,-19.5274,0.405348,188.327,-20.8475,1.73038,84.228,-19.7219,866.723
0.223,-0.192371,-0.00767229,0.330358,0.0663297,0.0622159,-0.104335,0.05763,-0.100371,-0.100712,0.327427,0.0230001,-0.182807,2.59108e-08,-3.06183e-09,0.3,-0.3,-11.3971,-19.5356,0.411164,188.307,-20.9021,1.72876,84.2368,-19.6684,866.726
0.224,-0.192371,-0.00767229,0.330358,0.0663297,0.0622159,-0.104335,0.05763,-0.100371,-0.100712,0.327427,0.0230001,-0.182807,2.59108e-08,-3.06183e-09,0.3,-0.3,-11.4175,-19.5442,0.417306,188.284,-20.9563,1.72653,84.2466,-19.6163,866.727
0.225,-0.192371,-0.00767229,0.330358,0.0663297,0.0622159,-0.104335,0.05763,-0.100371,-0.100712,0.327427,0.0230001,-0.182807,2.59108e-08,-3.06183e-09,0.3,-0.3,-11.4375,-19.5528,0.423898,188.259,-21.0098,1.72386,84.2574,-19.5655,866.729
0.226,-0.192371,-0.00767229,0.330358,0.0663297,0.0622159,-0.104335,0.05763,-0.100371,-0.100712,0.327427,0.0230001,-0.182807,2.59108e-08,-3.06183e-09,0.3,-0.3,-11.4571,-19.5614,0.430946,188.231,-21.0626,1.72085,84.2693,-19.516,866.731
0.227,-0.192371,-0.00767229,0.330358,0.0663297,0.0622159,-0.104335,0.05763,-0.100371,-0.100712,0.327427,0.0230001,-0.182807,2.59108e-08,-3.06183e-09,0.3,-0.3,-11.4761,-19.5701,0.438364,188.201,-21.1143,1.71759,84.2822,-19.4679,866.732
0.228,-0.192371,-0.00767229,0.330358,0.0663297,0.0622159,-0.104335,0.05763,-0.100371,-0.100712,0.327427,0.0230001,-0.182807,2.59108e-08,-3.06183e-09,0.3,-0.3,-11.495,-19.5788,0.446171,188.169,-21.1649,1.71412,84.2962,-19.4209,866.734
0.229,-0.192371,-0.00767229,0.330358,0.0663297,0.0622159,-0.104335,0.05763,-0.100371,-0.100712,0.327427,0.0230001,-0.182807,2.59108e-08,-3.06183e-09,0.3,-0.3,-11.5136,-19.5876,0.454285,188.136,-21.2143,1.71045,84.3115,-19.3751,866.735
0.23,-0.192371,-0.00767229,0.330358,0.0663297,0.0622159,-0.104335,0.05763,-0.100371,-0.100712,0.327427,0.0230001,-0.182807,2.59108e-08,-3.06183e-09,0.3,-0.3,-11.5322,-19.5965,0.462614,188.102,-21.2623,1.70659,84.3278,-19.3304,866.737
0.231,-0.192371,-0.00767229,0.330358,0.0663297,0.0622159,-0.104335,0.05763,-0.100371,-0.100712,0.327427,0.0230001,-0.182807,2.59108e-08,-3.06183e-09,0.3,-0.3,-11.5507,-19.6054,0.471054,188.067,-21.309,1.70254,84.3454,-19.2869,866.738
0.232,-0.192371,-0.00767229,0.330358,0.0663297,0.0622159,-0.104335,0.05763,-0.100371,-0.100712,0.327427,0.0230001,-0.182807,2.59108e-08,-3.06183e-09,0.3,-0.3,-11.5696,-19.6143,0.479564,188.031,-21.3545,1.69828,84.3642,-19.2444,866.74
0.233,-0.192371,-0.00767229,0.330358,0.0663297,0.0622159,-0.104335,0.05763,-0.100371,-0.100712,0.327427,0.0230001,-0.182807,2.59108e-08,-3.06183e-09,0.3,-0.3,-11.588,-19.6232,0.48796,187.995,-21.3986,1.69382,84.3843,-19.2031,866.741
0.234,-0.192371,-0.00767229,0.330358,0.0663297,0.0622159,-0.104335,0.05763,-0.100371,-0.100712,0.327427,0.0230001,-0.182807,2.59108e-08,-3.06183e-09,0.3,-0.3,-11.6067,-19.6322,0.496225,187.959,-21.4415,1.68913,84.4057,-19.1627,866.742
0.235,-0.192371,-0.00767229,0.330358,0.0663297,0.0622159,-0.104335,0.05763,-0.100371,-0.100712,0.327427,0.0230001,-0.182807,2.59108e-08,-3.06183e-09,0.3,-0.3,-11.6254,-19.6413,0.504282,187.923,-21.4834,1.68419,84.4284,-19.1234,866.743
0.236,-0.192371,-0.00767229,0.330358,0.0663297,0.0622159,-0.104335,0.05763,-0.100371,-0.100712,0.327427,0.0230001,-0.182807,2.59108e-08,-3.06183e-09,0.3,-0.3,-11.6444,-19.6504,0.512072,187.887,-21.5242,1.67898,84.4525,-19.0852,866.744
0.237,-0.192371,-0.00767229,0.330358,0.0663297,0.0622159,-0.104335,0.05763,-0.100371,-0.100712,0.327427,0.0230001,-0.182807,2.59108e-08,-3.06183e-09,0.3,-0.3,-11.6637,-19.6595,0.519547,187.852,-21.5642,1.67348,84.4779,-19.048,866.744
0.238,-0.192371,-0.00767229,0.330358,0.0663297,0.0622159,-0.104335,0.05763,-0.100371,-0.100712,0.327427,0.0230001,-0.182807,2.59108e-08,-3.06183e-09,0.3,-0.3,-11.6832,-19.6687,0.526669,187.818,-21.6034,1.66767,84.5048,-19.0118,866.745
0.239,-0.192371,-0.00767229,0.330358,0.0663297,0.0622159,-0.104335,0.05763,-0.100371,-0.100712,0.327427,0.0230001,-0.182807,2.59108e-08,-3.06183e-09,0.3,-0.3,-11.7029,-19.6779,0.533415,187.784,-21.642,1.66152,84.5331,-18.9767,866.745
0.24,-0.192371,-0.00767229,0.330358,0.0663297,0.0622159,-0.104335,0.05763,-0.100371,-0.100712,0.327427,0.0230001,-0.182807,2.59108e-08,-3.06183e-09,0.3,-0.3,-11.7229,-19.6872,0.539766,187.752,-21.6802,1.655,84.5628,-18.9427,866.744
0.241,-0.192371,-0.00767229,0.330358,0.0663297,0.0622159,-0.104335,0.05763,-0.100371,-0.100712,0.327427,0.0230001,-0.182807,2.59108e-08,-3.06183e-09,0.3,-0.3,-11.7431,-19.6966,0.545713,187.721,-21.718,1.6481,84.594,-18.9098,866.744
0.242,-0.192371,-0.00767229,0.330358,0.0663297,0.0622159,-0.104335,0.05763,-0.100371,-0.100712,0.327427,0.0230001,-0.182807,2.59108e-08,-3.06183e-09,0.3,-0.3,-11.7636,-19.706,0.551253,187.691,-21.7556,1.64079,84.6266,-18.878,866.743
0.243,-0.192371,-0.00767229,0.330358,0.0663297,0.0622159,-0.104335,0.05763,-0.100371,-0.100712,0.327427,0.0230001,-0.182807,2.59108e-08,-3.06183e-09,0.3,-0.3,-11.7844,-19.7154,0.556388,187.662,-21.7931,1.63305,84.6607,-18.8474,866.742
0.244,-0.192371,-0.00767229,0.330358,0.0663297,0.0622159,-0.104335,0.05763,-0.100371,-0.100712,0.327427,0.0230001,-0.182807,2.59108e-08,-3.06183e-09,0.3,-0.3,-11.8053,-19.7249,0.561125,187.635,-21.8306,1.62485,84.6963,-18.8178,866.74
0.245,-0.192371,-0.00767229,0.330358,0.0663297,0.0622159,-0.104335,0.05763,-0.100371,-0.100712,0.327427,0.0230001,-0.182807,2.59108e-08,-3.06183e-09,0.3,-0.3,-11.8264,-19.7344,0.565473,187.609,-21.8681,1.61618,84.7334,-18.7894,866.739
0.246,-0.192371,-0.00767229,0.330358,0.0663297,0.0622159,-0.104335,0.05763,-0.100371,-0.100712,0.327427,0.0230001,-0.182807,2.59108e-08,-3.06183e-09,0.3,-0.3,-11.8477,-19.7439,0.569442,187.584,-21.9058,1.60702,84.7719,-18.7622,866.736
0.247,-0.192371,-0.00767229,0.330358,0.0663297,0.0622159,-0.104335,0.05763,-0.100371,-0.100712,0.327427,0.0230001,-0.182807,2.59108e-08,-3.06183e-09,0.3,-0.3,-11.8691,-19.7535,0.573045,187.56,-21.9438,1.59734,84.8119,-18.7361,866.734
0.248,-0.192371,-0.00767229,0.330358,0.0663297,0.0622159,-0.104335,0.05763,-0.100371,-0.100712,0.327427,0.0230001,-0.182807,2.59108e-08,-3.06183e-09,0.3,-0.3,-11.8907,-19.763,0.576295,187.537,-21.9819,1.58713,84.8533,-18.7112,866.73
0.249,-0.192371,-0.00767229,0.330358,0.0663297,0.0622159,-0.104335,0.05763,-0.100371,-0.100712,0.327427,0.0230001,-0.182807,2.59108e-08,-3.06183e-09,0.3,-0.3,-11.9123,-19.7726,0.579203,187.516,-22.0204,1.57637,84.8962,-18.6875,866.727
0.25,-0.192371,-0.00767229,0.330358,0.0663297,0.0622159,-0.104335,0.05763,-0.100371,-0.100712,0.327427,0.0230001,-0.182807,2.59108e-08,-3.06183e-09,0.3,-0.3,-11.934,-19.7822,0.581784,187.496,-22.0592,1.56506,84.9405,-18.6649,866.723
0.251,-0.192371,-0.00767229,0.330358,0.0663297,0.0622159,-0.104335,0.05763,-0.100371,-0.100712,0.327427,0.0230001,-0.182807,2.59108e-08,-3.06183e-09,0.3,-0.3,-11.9557,-19.7918,0.584048,187.476,-22.0983,1.55317,84.9863,-18.6436,866.718
0.252,-0.192371,-0.00767229,0.330358,0.0663297,0.0622159,-0.104335,0.05763,-0.100371,-0.100712,0.327427,0.0230001,-0.182807,2.59108e-08,-3.06183e-09,0.3,-0.3,-11.9774,-19.8014,0.586007,187.457,-22.1377,1.54069,85.0335,-18.6234,866.713
0.253,-0.192371,-0.00767229,0.330358,0.0663297,0.0622159,-0.104335,0.05763,-0.100371,-0.100712,0.327427,0.0230001,-0.182807,2.59108e-08,-3.06183e-09,0.3,-0.3,-11.9992,-19.811,0.58767,187.439,-22.1774,1.52762,85.082,-18.6043,866.708
0.254,-0.192371,-0.00767229,0.330358,0.0663297,0.0622159,-0.104335,0.05763,-0.100371,-0.100712,0.327427,0.0230001,-0.182807,2.59108e-08,-3.06183e-09,0.3,-0.3,-12.0209,-19.8205,0.589046,187.422,-22.2173,1.51394,85.132,-18.5865,866.702
0.255,-0.192371,-0.00767229,0.330358,0.0663297,0.0622159,-0.104335,0.05763,-0.100371,-0.100712,0.327427,0.0230001,-0.182807,2.59108e-08,-3.06183e-09,0.3,-0.3,-12.0426,-19.8301,0.590146,187.405,-22.2576,1.49966,85.1833,-18.5698,866.696
0.256,-0.192371,-0.00767229,0.330358,0.0663297,0.0622159,-0.104335,0.05763,-0.100371,-0.100712,0.327427,0.0230001,-0.182807,2.59108e-08,-3.06183e-09,0.3,-0.3,-12.0642,-19.8396,0.590974,187.388,-22.2981,1.48476,85.236,-18.5543,866.689
0.257,-0.192371,-0.00767229,0.330358,0.0663297,0.0622159,-0.104335,0.05763,-0.100371,-0.100712,0.327427,0.0230001,-0.182807,2.59108e-08,-3.06183e-09,0.3,-0.3,-12.0858,-19.8491,0.591539,187.372,-22.3388,1.46924,85.2901,-18.54,866.682
0.258,-0.192371,-0.00767229,0.330358,0.0663297,0.0622159,-0.104335,0.05763,-0.100371,-0.100712,0.327427,0.0230001,-0.182807,2.59108e-08,-3.06183e-09,0.3,-0.3,-12.1074,-19.8585,0.591846,187.356,-22.3796,1.4531,85.3454,-18.5268,866.674
0.259,-0.192371,-0.00767229,0.330358,0.0663297,0.0622159,-0.104335,0.05763,-0.100371,-0.100712,0.327427,0.0230001,-0.182807,2.59108e-08,-3.06183e-09,0.3,-0.3,-12.1288,-19.8679,0.5919,187.34,-22.4207,1.43635,85.4021,-18.5147,866.666
0.26,-0.192371,-0.00767229,0.330358,0.0663297,0.0622159,-0.104335,0.05763,-0.100371,-0.100712,0.327427,0.0230001,-0.182807,2.59108e-08,-3.06183e-09,0.3,-0.3,-12.1502,-19.8774,0.591707,187.324,-22.4618,1.41897,85.4602,-18.5039,866.657
0.261,-0.192371,-0.00767229,0.330358,0.0663297,0.0622159,-0.104335,0.05763,-0.100371,-0.100712,0.327427,0.0230001,-0.182807,2.59108e-08,-3.06183e-09,0.3,-0.3,-12.1715,-19.8867,0.591269,187.308,-22.5031,1.40097,85.5195,-18.4941,866.648
0.262,-0.192371,-0.00767229,0.330358,0.0663297,0.0622159,-0.104335,0.05763,-0.100371,-0.100712,0.327427,0.0230001,-0.182807,2.59108e-08,-3.06183e-09,0.3,-0.3,-12.1927,-19.8961,0.590591,187.292,-22.5444,1.38236,85.5801,-18.4855,866.639
0.263,-0.192371,-0.00767229,0.330358,0.0663297,0.0622159,-0.104335,0.05763,-0.100371,-0.100712,0.327427,0.0230001,-0.182807,2.59108e-08,-3.06183e-09,0.3,-0.3,-12.2138,-19.9054,0.589675,187.275,-22.5858,1.36313,85.642,-18.478,866.629
0.264,-0.192371,-0.00767229,0.330358,0.0663297,0.0622159,-0.104335,0.05763,-0.100371,-0.100712,0.327427,0.0230001,-0.182807,2.59108e-08,-3.06183e-09,0.3,-0.3,-12.2348,-19.9147,0.588525,187.259,-22.6272,1.3433,85.7051,-18.4717,866.618
0.265,-0.192371,-0.00767229,0.330358,0.0663297,0.0622159,-0.104335,0.05763,-0.100371,-0.100712,0.327427,0.0230001,-0.182807,2.59108e-08,-3.06183e-09,0.3,-0.3,-12.2558,-19.924,0.587142,187.242,-22.6686,1.32286,85.7696,-18.4665,866.608
0.266,-0.192371,-0.00767229,0.330358,0.0663297,0.0622159,-0.104335,0.05763,-0.100371,-0.100712,0.327427,0.0230001,-0.182807,2.59108e-08,-3.06183e-09,0.3,-0.3,-12.2767,-19.9333,0.585528,187.224,-22.7099,1.30182,85.8353,-18.4624,866.596
0.267,-0.192371,-0.00767229,0.330358,0.0663297,0.0622159,-0.104335,0.05763,-0.100371,-0.100712,0.327427,0.0230001,-0.182807,2.59108e-08,-3.06183e-09,0.3,-0.3,-12.2975,-19.9426,0.583683,187.207,-22.7513,1.28019,85.9023,-18.4595,866.585
0.268,-0.192371,-0.00767229,0.330358,0.0663297,0.0622159,-0.104335,0.05763,-0.100371,-0.100712,0.327427,0.0230001,-0.182807,2.59108e-08,-3.06183e-09,0.3,-0.3,-12.3182,-19.9519,0.58161,187.189,-22.7926,1.25796,85.9705,-18.4577,866.572
0.269,-0.192371,-0.00767229,0.330358,0.0663297,0.0622159,-0.104335,0.05763,-0.100371,-0.100712,0.327427,0.0230001,-0.182807,2.59108e-08,-3.06183e-09,0.3,-0.3,-12.3389,-19.9612,0.579309,187.17,-22.8339,1.23515,86.04,-18.4569,866.56
0.27,-0.192371,-0.00767229,0.330358,0.0663297,0.0622159,-0.104335,0.05763,-0.100371,-0.100712,0.327427,0.0230001,-0.182807,2.59108e-08,-3.06183e-09,0.3,-0.3,-12.3596,-19.9705,0.576779,187.151,-22.8752,1.21176,86.1108,-18.4574,866.547
0.271,-0.192371,-0.00767229,0.330358,0.0663297,0.0622159,-0.104335,0.05763,-0.100371,-0.100712,0.327427,0.0230001,-0.182807,2.59108e-08,-3.06183e-09,0.3,-0.3,-12.3802,-19.9798,0.574021,187.132,-22.9164,1.18779,86.1828,-18.4589,866.533
0.272,-0.192371,-0.00767229,0.330358,0.0663297,0.0622159,-0.104335,0.05763,-0.100371,-0.100712,0.327427,0.0230001,-0.182807,2.59108e-08,-3.06183e-09,0.3,-0.3,-12.4008,-19.9892,0.571034,187.112,-22.9576,1.16325,86.2561,-18.4616,866.52
0.273,-0.192371,-0.00767229,0.330358,0.0663297,0.0622159,-0.104335,0.05763,-0.100371,-0.100712,0.327427,0.0230001,-0.182807,2.59108e-08,-3.06183e-09,0.3,-0.3,-12.4213,-19.9985,0.567817,187.092,-22.9988,1.13814,86.3307,-18.4654,866.505
0.274,-0.192371,-0.00767229,0.330358,0.0663297,0.0622159,-0.104335,0.05763,-0.100371,-0.100712,0.327427,0.0230001,-0.182807,2.59108e-08,-3.06183e-09,0.3,-0.3,-12.4419,-20.008,0.56437,187.071,-23.0399,1.11247,86.4066,-18.4703,866.491
0.275,-0.192371,-0.00767229,0.330358,0.0663297,0.0622159,-0.104335,0.05763,-0.100371,-0.100712,0.327427,0.0230001,-0.182807,2.59108e-08,-3.06183e-09,0.3,-0.3,-12.4624,-20.0174,0.560691,187.051,-23.0811,1.08624,86.4837,-18.4763,866.476
0.276,-0.192371,-0.00767229,0.330358,0.0663297,0.0622159,-0.104335,0.05763,-0.100371,-0.100712,0.327427,0.0230001,-0.182807,2.59108e-08,-3.06183e-09,0.3,-0.3,-12.483,-20.0269,0.556778,187.029,-23.1222,1.05944,86.5621,-18.4835,866.46
0.277,-0.192371,-0.00767229,0.330358,0.0663297,0.0622159,-0.104335,0.05763,-0.100371,-0.100712,0.327427,0.0230001,-0.182807,2.59108e-08,-3.06183e-09,0.3,-0.3,-12.5037,-20.0365,0.552629,187.008,-23.1633,1.03209,86.6418,-18.4918,866.445
0.278,-0.192371,-0.00767229,0.330358,0.0663297,0.0622159,-0.104335,0.05763,-0.100371,-0.100712,0.327427,0.0230001,-0.182807,2.59108e-08,-3.06183e-09,0.3,-0.3,-12.5245,-20.0461,0.548238,186.986,-23.2044,1.00418,86.7227,-18.5012,866.428
0.279,-0.192371,-0.00767229,0.330358,0.0663297,0.0622159,-0.104335,0.05763,-0.100371,-0.100712,0.327427,0.0230001,-0.182807,2.59108e-08,-3.06183e-09,0.3,-0.3,-12.5459,-20.0557,0.543556,186.964,-23.2456,0.975718,86.805,-18.5118,866.412
0.28,-0.192371,-0.00767229,0.330358,0.0663297,0.0622159,-0.104335,0.05763,-0.100371,-0.100712,0.327427,0.0230001,-0.182807,2.59108e-08,-3.06183e-09,0.3,-0.3,-12.5674,-20.0654,0.538699,186.942,-23.2868,0.946684,86.8885,-18.5235,866.395
0.281,-0.192371,-0.00767229,0.330358,0.0663297,0.0622159,-0.104335,0.05763,-0.100371,-0.100712,0.327427,0.0230001,-0.182807,2.59108e-08,-3.06183e-09,0.3,-0.3,-12.5878,-20.0748,0.533578,186.92,-23.328,0.91712,86.9733,-18.5363,866.377
0.282,-0.192371,-0.00767229,0.330358,0.0663297,0.0622159,-0.104335,0.05763,-0.100371,-0.100712,0.327427,0.0230001,-0.182807,2.59108e-08,-3.06183e-09,0.3,-0.3,-12.6078,-20.0838,0.528203,186.898,-23.3693,0.88702,87.0594,-18.5502,866.359
0.283,-0.192371,-0.00767229,0.330358,0.0663297,0.0622159,-0.104335,0.05763,-0.100371,-0.100712,0.327427,0.0230001,-0.182807,2.59108e-08,-3.06183e-09,0.3,-0.3,-12.6282,-20.093,0.522596,186.875,-23.4105,0.85635,87.1468,-18.5653,866.341
0.284,-0.192371,-0.00767229,0.330358,0.0663297,0.0622159,-0.104335,0.05763,-0.100371,-0.100712,0.327427,0.0230001,-0.182807,2.59108e-08,-3.06183e-09,0.3,-0.3,-12.6487,-20.1024,0.516662,186.853,-23.4518,0.82513,87.2355,-18.5815,866.323
0.285,-0.192371,-0.00767229,0.330358,0.0663297,0.0622159,-0.104335,0.05763,-0.100371,-0.100712,0.327427,0.0230001,-0.182807,2.59108e-08,-3.06183e-09,0.3,-0.3,-12.6696,-20.1119,0.510478,186.83,-23.4932,0.793354,87.3255,-18.5989,866.304
0.286,-0.192371,-0.00767229,0.330358,0.0663297,0.0622159,-0.104335,0.05763,-0.100371,-0.100712,0.327427,0.0230001,-0.182807,2.59108e-08,-3.06183e-09,0.3,-0.3,-12.6902,-20.1209,0.504072,186.808,-23.5345,0.761024,87.4169,-18.6173,866.284
0.287,-0.192371,-0.00767229,0.330358,0.0663297,0.0622159,-0.104335,0.05763,-0.100371,-0.100712,0.327427,0.0230001,-0.182807,2.59108e-08,-3.06183e-09,0.3,-0.3,-12.7107,-20.13,0.497408,186.785,-23.5759,0.728142,87.5096,-18.6369,866.264
0.288,-0.192371,-0.00767229,0.330358,0.0663297,0.0622159,-0.104335,0.05763,-0.100371,-0.100712,0.327427,0.0230001,-0.182807,2.59108e-08,-3.06183e-09,0.3,-0.3,-12.7313,-20.1392,0.490407,186.763,-23.6173,0.694704,87.6035,-18.6576,866.244
0.289,-0.192371,-0.00767229,0.330358,0.0663297,0.0622159,-0.104335,0.05763,-0.100371,-0.100712,0.327427,0.0230001,-0.182807,2.59108e-08,-3.06183e-09,0.3,-0.3,-12.752,-20.1486,0.483171,186.74,-23.6588,0.660719,87.6988,-18.6795,866.223
0.29,-0.192371,-0.00767229,0.330358,0.0663297,0.0622159,-0.104335,0.05763,-0.100371,-0.100712,0.327427,0.0230001,-0.182807,2.59108e-08,-3.06183e-09,0.3,-0.3,-12.7729,-20.1581,0.475692,186.718,-23.7003,0.626179,87.7954,-18.7024,866.202
0.291,-0.192371,-0.00767229,0.330358,0.0663297,0.0622159,-0.104335,0.05763,-0.100371,-0.100712,0.327427,0.0230001,-0.182807,2.59108e-08,-3.06183e-09,0.3,-0.3,-12.7942,-20.1678,0.467954,186.696,-23.7418,0.59108,87.8933,-18.7266,866.181
0.292,-0.192371,-0.00767229,0.330358,0.0663297,0.0622159,-0.104335,0.05763,-0.100371,-0.100712,0.327427,0.0230001,-0.182807,2.59108e-08,-3.06183e-09,0.3,-0.3,-12.8155,-20.1773,0.460004,186.673,-23.7834,0.555414,87.9926,-18.7518,866.159
0.293,-0.192371,-0.00767229,0.330358,0.0663297,0.0622159,-0.104335,0.05763,-0.100371,-0.100712,0.327427,0.0230001,-0.182807,2.59108e-08,-3.06183e-09,0.3,-0.3,-12.8369,-20.187,0.451789,186.651,-23.8251,0.519186,88.0931,-18.7782,866.136
0.294,-0.192371,-0.00767229,0.330358,0.0663297,0.0622159,-0.104335,0.05763,-0.100371,-0.100712,0.327427,0.0230001,-0.182807,2.59108e-08,-3.06183e-09,0.3,-0.3,-12.858,-20.1964,0.44345,186.628,-23.8354,0.497028,88.1941,-18.8039,866.121
0.295,-0.192371,-0.00767229,0.330358,0.0663297,0.0622159,-0.104335,0.05763,-0.100371,-0.100712,0.327427,0.0230001,-0.182807,2.59108e-08,-3.06183e-09,0.3,-0.3,-12.8871,-20.1939,0.436179,186.608,-23.8256,0.479145,88.2935,-18.83,866.109
0.296,-0.192371,-0.00767229,0.330358,0.0663297,0.0622159,-0.104335,0.05763,-0.100371,-0.100712,0.327427,0.0230001,-0.182807,2.59108e-08,-3.06183e-09,0.3,-0.3,-12.9164,-20.191,0.43873,186.588,-23.8161,0.463686,88.3913,-18.8573,866.1
0.297,-0.192371,-0.00767229,0.330358,0.0663297,0.0622159,-0.104335,0.05763,-0.100371,-0.100712,0.327427,0.0230001,-0.182807,2.59108e-08,-3.06183e-09,0.3,-0.3,-12.9444,-20.1878,0.44396,186.568,-23.8067,0.450811,88.4871,-18.8857,866.095
0.298,-0.192371,-0.00767229,0.330358,0.0663297,0.0622159,-0.104335,0.05763,-0.100371,-0.100712,0.327427,0.0230001,-0.182807,2.59108e-08,-3.06183e-09,0.3,-0.3,-12.9709,-20.1839,0.451892,186.548,-23.7974,0.440626,88.5812,-18.9152,866.094
0.299,-0.192371,-0.00767229,0.330358,0.0663297,0.0622159,-0.104335,0.05763,-0.100371,-0.100712,0.327427,0.0230001,-0.182807,2.59108e-08,-3.06183e-09,0.3,-0.3,-12.9954,-20.1789,0.462556,186.529,-23.7881,0.433157,88.6733,-18.9457,866.095
0.3,-0.192371,-0.00767229,0.330358,0.0663297,0.0622159,-0.104335,0.05763,-0.100371,-0.100712,0.327427,0.0230001,-0.182807,2.59108e-08,-3.06183e-09,0.3,-0.3,-13.0182,-20.1724,0.476128,186.51,-23.779,0.428488,88.7635,-18.9773,866.101
0.301,-0.192371,-0.00767229,0.330358,0.0663297,0.0622159,-0.104335,0.05763,-0.100371,-0.100712,0.327427,0.0230001,-0.182807,2.59108e-08,-3.06183e-09,0.3,-0.3,-13.039,-20.1639,0.492646,186.491,-23.7699,0.426598,88.8518,-19.0097,866.11
0.302,-0.192371,-0.00767229,0.330358,0.0663297,0.0622159,-0.104335,0.05763,-0.100371,-0.100712,0.327427,0.0230001,-0.182807,2.59108e-08,-3.06183e-09,0.3,-0.3,-13.0583,-20.1532,0.512251,186.472,-23.7609,0.427551,88.9382,-19.0432,866.122
0.303,-0.192371,-0.00767229,0.330358,0.0663297,0.0622159,-0.104335,0.05763,-0.100371,-0.100712,0.327427,0.0230001,-0.182807,2.59108e-08,-3.06183e-09,0.3,-0.3,-13.0761,-20.1398,0.535002,186.454,-23.752,0.431505,89.0226,-19.0775,866.138
0.304,-0.192371,-0.00767229,0.330358,0.0663297,0.0622159,-0.104335,0.05763,-0.100371,-0.100712,0.327427,0.0230001,-0.182807,2.59108e-08,-3.06183e-09,0.3,-0.3,-13.0928,-20.1237,0.56081,186.435,-23.7433,0.429604,89.1061,-19.1122,866.15
0.305,-0.192371,-0.00767229,0.330358,0.0663297,0.0622159,-0.104335,0.05763,-0.100371,-0.100712,0.327427,0.0230001,-0.182807,2.59108e-08,-3.06183e-09,0.3,-0.3,-13.1106,-20.1026,0.579607,186.418,-23.7347,0.427418,89.1884,-19.1473,866.159
0.306,-0.192371,-0.00767229,0.330358,0.0663297,0.0622159,-0.104335,0.05763,-0.100371,-0.100712,0.327427,0.0230001,-0.182807,2.59108e-08,-3.06183e-09,0.3,-0.3,-13.1278,-20.0778,0.596302,186.4,-23.7261,0.425148,89.2694,-19.183,866.167
0.307,-0.192371,-0.00767229,0.330358,0.0663297,0.0622159,-0.104335,0.05763,-0.100371,-0.100712,0.327427,0.0230001,-0.182807,2.59108e-08,-3.06183e-09,0.3,-0.3,-13.1435,-20.0497,0.612667,186.382,-23.7175,0.422823,89.349,-19.2195,866.175
0.308,-0.192371,-0.00767229,0.330358,0.0663297,0.0622159,-0.104335,0.05763,-0.100371,-0.100712,0.327427,0.0230001,-0.182807,2.59108e-08,-3.06183e-09,0.3,-0.3,-13.1579,-20.0188,0.629149,186.364,-23.709,0.420431,89.4272,-19.2567,866.183
0.309,-0.192371,-0.00767229,0.330358,0.0663297,0.0622159,-0.104335,0.05763,-0.100371,-0.100712,0.327427,0.0230001,-0.182807,2.59108e-08,-3.06183e-09,0.3,-0.3,-13.171,-19.9853,0.645802,186.346,-23.7005,0.417961,89.5039,-19.2948,866.19
0.31,-0.192371,-0.00767229,0.330358,0.0663297,0.0622159,-0.104335,0.05763,-0.100371,-0.100712,0.327427,0.0230001,-0.182807,2.59108e-08,-3.06183e-09,0.3,-0.3,-13.1832,-19.9496,0.662585,186.329,-23.692,0.4154,89.5792,-19.3338,866.198
0.311,-0.192371,-0.00767229,0.330358,0.0663297,0.0622159,-0.104335,0.05763,-0.100371,-0.100712,0.327427,0.0230001,-0.182807,2.59108e-08,-3.06183e-09,0.3,-0.3,-13.1947,-19.9121,0.67944,186.311,-23.6836,0.412727,89.6531,-19.3737,866.205
0.312,-0.192371,-0.00767229,0.330358,0.0663297,0.0622159,-0.104335,0.05763,-0.100371,-0.100712,0.327427,0.0230001,-0.182807,2.59108e-08,-3.06183e-09,0.3,-0.3,-13.2057,-19.8728,0.696312,186.294,-23.6752,0.409931,89.7256,-19.4144,866.212
0.313,-0.192371,-0.00767229,0.330358,0.0663297,0.0622159,-0.104335,0.05763,-0.100371,-0.100712,0.327427,0.0230001,-0.182807,2.59108e-08,-3.06183e-09,0.3,-0.3,-13.2165,-19.8321,0.713151,186.277,-23.6669,0.406998,89.7966,-19.4561,866.219
0.314,-0.192371,-0.00767229,0.330358,0.0663297,0.0622159,-0.104335,0.05763,-0.100371,-0.100712,0.327427,0.0230001,-0.182807,2.59108e-08,-3.06183e-09,0.3,-0.3,-13.2271,-19.7901,0.729907,186.26,-23.6586,0.403917,89.8662,-19.4988,866.226
0.315,-0.192371,-0.00767229,0.330358,0.0663297,0.0622159,-0.104335,0.05763,-0.100371,-0.100712,0.327427,0.0230001,-0.182807,2.59108e-08,-3.06183e-09,0.3,-0.3,-13.2379,-19.7469,0.746535,186.243,-23.6504,0.400673,89.9344,-19.5425,866.232
0.316,-0.192371,-0.00767229,0.330358,0.0663297,0.0622159,-0.104335,0.05763,-0.100371,-0.100712,0.327427,0.0230001,-0.182807,2.59108e-08,-3.06183e-09,0.3,-0.3,-13.2488,-19.7028,0.762986,186.226,-23.6421,0.397257,90.0011,-19.5871,866.238
0.317,-0.192371,-0.00767229,0.330358,0.0663297,0.0622159,-0.104335,0.05763,-0.100371,-0.100712,0.327427,0.0230001,-0.182807,2.59108e-08,-3.06183e-09,0.3,-0.3,-13.26,-19.6579,0.779219,186.209,-23.6339,0.39366,90.0664,-19.6328,866.243
0.318,-0.192371,-0.00767229,0.330358,0.0663297,0.0622159,-0.104335,0.05763,-0.100371,-0.100712,0.327427,0.0230001,-0.182807,2.59108e-08,-3.06183e-09,0.3,-0.3,-13.2715,-19.6123,0.795182,186.192,-23.6257,0.389868,90.1303,-19.6795,866.249
0.319,-0.192371,-0.00767229,0.330358,0.0663297,0.0622159,-0.104335,0.05763,-0.100371,-0.100712,0.327427,0.0230001,-0.182807,2.59108e-08,-3.06183e-09,0.3,-0.3,-13.2833,-19.5662,0.810835,186.175,-23.6175,0.38588,90.1927,-19.7272,866.254
0.32,-0.192371,-0.00767229,0.330358,0.0663297,0.0622159,-0.104335,0.05763,-0.100371,-0.100712,0.327427,0.0230001,-0.182807,2.59108e-08,-3.06183e-09,0.3,-0.3,-13.2956,-19.5197,0.826133,186.158,-23.6093,0.381687,90.2537,-19.7761,866.258
0.321,-0.192371,-0.00767229,0.330358,0.0663297,0.0622159,-0.104335,0.05763,-0.100371,-0.100712,0.327427,0.0230001,-0.182807,2.59108e-08,-3.06183e-09,0.3,-0.3,-13.3083,-19.473,0.841036,186.141,-23.6011,0.377281,90.3133,-19.826,866.263
0.322,-0.192371,-0.00767229,0.330358,0.0663297,0.0622159,-0.104335,0.05763,-0.100371,-0.100712,0.327427,0.0230001,-0.182807,2.59108e-08,-3.06183e-09,0.3,-0.3,-13.3213,-19.4262,0.855503,186.124,-23.5929,0.37266,90.3714,-19.877,866.267
0.323,-0.192371,-0.00767229,0.330358,0.0663297,0.0622159,-0.104335,0.05763,-0.100371,-0.100712,0.327427,0.0230001,-0.182807,2.59108e-08,-3.06183e-09,0.3,-0.3,-13.3348,-19.3794,0.869498,186.107,-23.5847,0.367813,90.4282,-19.9291,866.271
0.324,-0.192371,-0.00767229,0.330358,0.0663297,0.0622159,-0.104335,0.05763,-0.100371,-0.100712,0.327427,0.0230001,-0.182807,2.59108e-08,-3.06183e-09,0.3,-0.3,-13.3487,-19.3329,0.882986,186.09,-23.5764,0.36274,90.4834,-19.9823,866.274
0.325,-0.192371,-0.00767229,0.330358,0.0663297,0.0622159,-0.104335,0.05763,-0.100371,-0.100712,0.327427,0.0230001,-0.182807,2.59108e-08,-3.06183e-09,0.3,-0.3,-13.363,-19.2867,0.895936,186.073,-23.5682,0.357439,90.5373,-20.0366,866.277
0.326,-0.192371,-0.00767229,0.330358,0.0663297,0.0622159,-0.104335,0.05763,-0.100371,-0.100712,0.327427,0.0230001,-0.182807,2.59108e-08,-3.06183e-09,0.3,-0.3,-13.3776,-19.241,0.908317,186.055,-23.56,0.3519,90.5897,-20.0921,866.279
0.327,-0.192371,-0.00767229,0.330358,0.0663297,0.0622159,-0.104335,0.05763,-0.100371,-0.100712,0.327427,0.0230001,-0.182807,2.59108e-08,-3.06183e-09,0.3,-0.3,-13.3926,-19.1958,0.920106,186.038,-23.5517,0.346123,90.6407,-20.1487,866.282
0.328,-0.192371,-0.00767229,0.330358,0.0663297,0.0622159,-0.104335,0.05763,-0.100371,-0.100712,0.327427,0.0230001,-0.182807,2.59108e-08,-3.06183e-09,0.3,-0.3,-13.408,-19.1514,0.931279,186.021,-23.5435,0.340109,90.6903,-20.2065,866.283
0.329,-0.192371,-0.00767229,0.330358,0.0663297,0.0622159,-0.104335,0.05763,-0.100371,-0.100712,0.327427,0.0230001,-0.182807,2.59108e-08,-3.06183e-09,0.3,-0.3,-13.4236,-19.1076,0.941816,186.004,-23.5352,0.333849,90.7385,-20.2655,866.285
0.33,-0.192371,-0.00767229,0.330358,0.0663297,0.0622159,-0.104335,0.05763,-0.100371,-0.100712,0.327427,0.0230001,-0.182807,2.59108e-08,-3.06183e-09,0.3,-0.3,-13.4395,-19.0648,0.951764,185.987,-23.527,0.327347,90.7852,-20.3256,866.286
0.331,-0.192371,-0.00767229,0.330358,0.0663297,0.0622159,-0.104335,0.05763,-0.100371,-0.100712,0.327427,0.0230001,-0.182807,2.59108e-08,-3.06183e-09,0.3,-0.3,-13.4557,-19.0228,0.960985,185.97,-23.5188,0.320599,90.8306,-20.3868,866.286
0.332,-0.192371,-0.00767229,0.330358,0.0663297,0.0622159,-0.104335,0.05763,-0.100371,-0.100712,0.327427,0.0230001,-0.182807,2.59108e-08,-3.06183e-09,0.3,-0.3,-13.472,-18.9817,0.969449,185.953,-23.5105,0.313599,90.8745,-20.4492,866.286
0.333,-0.192371,-0.00767229,0.330358,0.0663297,0.0622159,-0.104335,0.05763,-0.100371,-0.100712,0.327427,0.0230001,-0.182807,2.59108e-08,-3.06183e-09,0.3,-0.3,-13.4886,-18.9417,0.977327,185.936,-23.5022,0.306347,90.917,-20.5128,866.286
0.334,-0.192371,-0.00767229,0.330358,0.0663297,0.0622159,-0.104335,0.05763,-0.100371,-0.100712,0.327427,0.0230001,-0.182807,2.59108e-08,-3.06183e-09,0.3,-0.3,-13.5054,-18.9025,0.984519,185.919,-23.4939,0.298841,90.9581,-20.5775,866.286
0.335,-0.192371,-0.00767229,0.330358,0.0663297,0.0622159,-0.104335,0.05763,-0.100371,-0.100712,0.327427,0.0230001,-0.182807,2.59108e-08,-3.06183e-09,0.3,-0.3,-13.5224,-18.8643,0.991077,185.901,-23.4855,0.291086,90.9978,-20.6434,866.285
0.336,-0.192371,-0.00767229,0.330358,0.0663297,0.0622159,-0.104335,0.05763,-0.100371,-0.100712,0.327427,0.0230001,-0.182807,2.59108e-08,-3.06183e-09,0.3,-0.3,-13.5396,-18.827,0.996912,185.884,-23.4772,0.283077,91.0361,-20.7104,866.283
0.337,-0.192371,-0.00767229,0.330358,0.0663297,0.0622159,-0.104335,0.05763,-0.100371,-0.100712,0.327427,0.0230001,-0.182807,2.59108e-08,-3.06183e-09,0.3,-0.3,-13.557,-18.7906,1.00209,185.867,-23.4689,0.274811,91.073,-20.7786,866.281
0.338,-0.192371,-0.00767229,0.330358,0.0663297,0.0622159,-0.104335,0.05763,-0.100371,-0.100712,0.327427,0.0230001,-0.182807,2.59108e-08,-3.06183e-09,0.3,-0.3,-13.5747,-18.7551,1.00662,185.85,-23.4606,0.266289,91.1085,-20.848,866.279
0.339,-0.192371,-0.00767229,0.330358,0.0663297,0.0622159,-0.104335,0.05763,-0.100371,-0.100712,0.327427,0.0230001,-0.182807,2.59108e-08,-3.06183e-09,0.3,-0.3,-13.5925,-18.7204,1.01052,185.833,-23.4522,0.257515,91.1426,-20.9185,866.277
0.34,-0.192371,-0.00767229,0.330358,0.0663297,0.0622159,-0.104335,0.05763,-0.100371,-0.100712,0.327427,0.0230001,-0.182807,2.59108e-08,-3.06183e-09,0.3,-0.3,-13.6105,-18.6864,1.01405,185.843,-23.4476,0.2666,91.1777,-20.9855,866.28
0.341,-0.192371,-0.00767229,0.330358,0.0663297,0.0622159,-0.104335,0.05763,-0.100371,-0.100712,0.327427,0.0230001,-0.182807,2.59108e-08,-3.06183e-09,0.3,-0.3,-13.6216,-18.6498,1.02438,185.855,-23.4426,0.275211,91.2116,-21.0503,866.286
0.342,-0.192371,-0.00767229,0.330358,0.0663297,0.0622159,-0.104335,0.05763,-0.100371,-0.100712,0.327427,0.0230001,-0.182807,2.59108e-08,-3.06183e-09,0.3,-0.3,-13.6295,-18.6083,1.03531,185.867,-23.4373,0.284235,91.2443,-21.1133,866.294
0.343,-0.192371,-0.00767229,0.330358,0.0663297,0.0622159,-0.104335,0.05763,-0.100371,-0.100712,0.327427,0.0230001,-0.182807,2.59108e-08,-3.06183e-09,0.3,-0.3,-13.6337,-18.563,1.04773,185.88,-23.4318,0.293636,91.276,-21.1747,866.303
0.344,-0.192371,-0.00767229,0.330358,0.0663297,0.0622159,-0.104335,0.05763,-0.100371,-0.100712,0.327427,0.0230001,-0.182807,2.59108e-08,-3.06183e-09,0.3,-0.3,-13.6342,-18.5148,1.06136,185.892,-23.4263,0.303345,91.3064,-21.2348,866.314
0.345,-0.192371,-0.00767229,0.330358,0.0663297,0.0622159,-0.104335,0.05763,-0.100371,-0.100712,0.327427,0.0230001,-0.182807,2.59108e-08,-3.06183e-09,0.3,-0.3,-13.6314,-18.4652,1.07593,185.905,-23.4207,0.313324,91.3356,-21.2937,866.326
0.346,-0.192371,-0.00767229,0.330358,0.0663297,0.0622159,-0.104335,0.05763,-0.100371,-0.100712,0.327427,0.0230001,-0.182807,2.59108e-08,-3.06183e-09,0.3,-0.3,-13.6257,-18.4154,1.0912,185.918,-23.415,0.323507,91.3636,-21.3515,866.339
0.347,-0.192371,-0.00767229,0.330358,0.0663297,0.0622159,-0.104335,0.05763,-0.100371,-0.100712,0.327427,0.0230001,-0.182807,2.59108e-08,-3.06183e-09,0.3,-0.3,-13.6175,-18.3665,1.10699,185.931,-23.4092,0.333891,91.3905,-21.4083,866.352
0.348,-0.192371,-0.00767229,0.330358,0.0663297,0.0622159,-0.104335,0.05763,-0.100371,-0.100712,0.327427,0.0230001,-0.182807,2.59108e-08,-3.06183e-09,0.3,-0.3,-13.6072,-18.3192,1.12308,185.945,-23.4034,0.344404,91.4161,-21.4642,866.365
0.349,-0.192371,-0.00767229,0.330358,0.0663297,0.0622159,-0.104335,0.05763,-0.100371,-0.100712,0.327427,0.0230001,-0.182807,2.59108e-08,-3.06183e-09,0.3,-0.3,-13.595,-18.2744,1.13932,185.958,-23.3977,0.354992,91.4406,-21.5191,866.379
0.35,-0.192371,-0.00767229,0.330358,0.0663297,0.0622159,-0.104335,0.05763,-0.100371,-0.100712,0.327427,0.0230001,-0.182807,2.59108e-08,-3.06183e-09,0.3,-0.3,-13.5811,-18.2325,1.15566,185.971,-23.392,0.365662,91.4638,-21.5733,866.393
0.351,-0.192371,-0.00767229,0.330358,0.0663297,0.0622159,-0.104335,0.05763,-0.100371,-0.100712,0.327427,0.0230001,-0.182807,2.59108e-08,-3.06183e-09,0.3,-0.3,-13.5658,-18.1939,1.17201,185.984,-23.3862,0.376425,91.4858,-21.6265,866.406
0.352,-0.192371,-0.00767229,0.330358,0.0663297,0.0622159,-0.104335,0.05763,-0.100371,-0.100712,0.327427,0.0230001,-0.182807,2.59108e-08,-3.06183e-09,0.3,-0.3,-13.5494,-18.1586,1.18826,185.997,-23.3805,0.38726,91.5066,-21.679,866.421
0.353,-0.192371,-0.00767229,0.330358,0.0663297,0.0622159,-0.104335,0.05763,-0.100371,-0.100712,0.327427,0.0230001,-0.182807,2.59108e-08,-3.06183e-09,0.3,-0.3,-13.5319,-18.1265,1.20439,186.011,-23.3747,0.397835,91.5261,-21.7306,866.435
0.354,-0.192371,-0.00767229,0.330358,0.0663297,0.0622159,-0.104335,0.05763,-0.100371,-0.100712,0.327427,0.0230001,-0.182807,2.59108e-08,-3.06183e-09,0.3,-0.3,-13.5136,-18.0977,1.22022,186.024,-23.3689,0.408161,91.5444,-21.7814,866.448
0.355,-0.192371,-0.00767229,0.330358,0.0663297,0.0622159,-0.104335,0.05763,-0.100371,-0.100712,0.327427,0.0230001,-0.182807,2.59108e-08,-3.06183e-09,0.3,-0.3,-13.4949,-18.0719,1.23521,186.038,-23.3631,0.418217,91.5616,-21.8313,866.461
0.356,-0.192371,-0.00767229,0.330358,0.0663297,0.0622159,-0.104335,0.05763,-0.100371,-0.100712,0.327427,0.0230001,-0.182807,2.59108e-08,-3.06183e-09,0.3,-0.3,-13.4756,-18.0487,1.24914,186.051,-23.3573,0.427977,91.5775,-21.8804,866.473
0.357,-0.192371,-0.00767229,0.330358,0.0663297,0.0622159,-0.104335,0.05763,-0.100371,-0.100712,0.327427,0.0230001,-0.182807,2.59108e-08,-3.06183e-09,0.3,-0.3,-13.4558,-18.0277,1.26196,186.065,-23.3514,0.437429,91.5923,-21.9285,866.485
0.358,-0.192371,-0.00767229,0.330358,0.0663297,0.0622159,-0.104335,0.05763,-0.100371,-0.100712,0.327427,0.0230001,-0.182807,2.59108e-08,-3.06183e-09,0.3,-0.3,-13.4356,-18.0085,1.27368,186.078,-23.3456,0.446564,91.6058,-21.9757,866.496
0.359,-0.192371,-0.00767229,0.330358,0.0663297,0.0622159,-0.104335,0.05763,-0.100371,-0.100712,0.327427,0.0230001,-0.182807,2.59108e-08,-3.06183e-09,0.3,-0.3,-13.415,-17.9908,1.28433,186.091,-23.3398,0.455383,91.618,-22.0219,866.506
0.36,-0.192371,-0.00767229,0.330358,0.0663297,0.0622159,-0.104335,0.05763,-0.100371,-0.100712,0.327427,0.0230001,-0.182807,2.59108e-08,-3.06183e-09,0.3,-0.3,-13.3942,-17.9742,1.29395,186.105,-23.3341,0.463877,91.629,-22.067,866.515
0.361,-0.192371,-0.00767229,0.330358,0.0663297,0.0622159,-0.104335,0.05763,-0.100371,-0.100712,0.327427,0.0230001,-0.182807,2.59108e-08,-3.06183e-09,0.3,-0.3,-13.3731,-17.9585,1.30256,186.118,-23.3284,0.47205,91.6387,-22.1111,866.524
0.362,-0.192371,-0.00767229,0.330358,0.0663297,0.0622159,-0.104335,0.05763,-0.100371,-0.100712,0.327427,0.0230001,-0.182807,2.59108e-08,-3.06183e-09,0.3,-0.3,-13.3521,-17.9434,1.31021,186.131,-23.3228,0.4799,91.6471,-22.1541,866.532
0.363,-0.192371,-0.00767229,0.330358,0.0663297,0.0622159,-0.104335,0.05763,-0.100371,-0.100712,0.327427,0.0230001,-0.182807,2.59108e-08,-3.06183e-09,0.3,-0.3,-13.331,-17.9285,1.31694,186.144,-23.3172,0.487429,91.6541,-22.196,866.54
0.364,-0.192371,-0.00767229,0.330358,0.0663297,0.0622159,-0.104335,0.05763,-0.100371,-0.100712,0.327427,0.0230001,-0.182807,2.59108e-08,-3.06183e-09,0.3,-0.3,-13.3101,-17.9138,1.3228,186.157,-23.3116,0.494637,91.6598,-22.2368,866.547
0.365,-0.192371,-0.00767229,0.330358,0.0663297,0.0622159,-0.104335,0.05763,-0.100371,-0.100712,0.327427,0.0230001,-0.182807,2.59108e-08,-3.06183e-09,0.3,-0.3,-13.2895,-17.899,1.32783,186.17,-23.3061,0.501522,91.6642,-22.2763,866.554
0.366,-0.192371,-0.00767229,0.330358,0.0663297,0.0622159,-0.104335,0.05763,-0.100371,-0.100712,0.327427,0.0230001,-0.182807,2.59108e-08,-3.06183e-09,0.3,-0.3,-13.2692,-17.8841,1.33207,186.183,-23.3006,0.508093,91.6672,-22.3148,866.56
0.367,-0.192371,-0.00767229,0.330358,0.0663297,0.0622159,-0.104335,0.05763,-0.100371,-0.100712,0.327427,0.0230001,-0.182807,2.59108e-08,-3.06183e-09,0.3,-0.3,-13.2493,-17.8688,1.33558,186.195,-23.2952,0.514349,91.6688,-22.352,866.565
0.368,-0.192371,-0.00767229,0.330358,0.0663297,0.0622159,-0.104335,0.05763,-0.100371,-0.100712,0.327427,0.0230001,-0.182807,2.59108e-08,-3.06183e-09,0.3,-0.3,-13.23,-17.8532,1.33839,186.208,-23.2898,0.520296,91.6691,-22.388,866.57
0.369,-0.192371,-0.00767229,0.330358,0.0663297,0.0622159,-0.104335,0.05763,-0.100371,-0.100712,0.327427,0.0230001,-0.182807,2.59108e-08,-3.06183e-09,0.3,-0.3,-13.2111,-17.8371,1.34053,186.22,-23.2845,0.525932,91.668,-22.4228,866.575
0.37,-0.192371,-0.00767229,0.330358,0.0663297,0.0622159,-0.104335,0.05763,-0.100371,-0.100712,0.327427,0.0230001,-0.182807,2.59108e-08,-3.06183e-09,0.3,-0.3,-13.1928,-17.8206,1.34205,186.232,-23.2792,0.531265,91.6655,-22.4563,866.579
0.371,-0.192371,-0.00767229,0.330358,0.0663297,0.0622159,-0.104335,0.05763,-0.100371,-0.100712,0.327427,0.0230001,-0.182807,2.59108e-08,-3.06183e-09,0.3,-0.3,-13.1752,-17.8036,1.34298,186.245,-23.274,0.536299,91.6616,-22.4887,866.583
0.372,-0.192371,-0.00767229,0.330358,0.0663297,0.0622159,-0.104335,0.05763,-0.100371,-0.100712,0.327427,0.0230001,-0.182807,2.59108e-08,-3.06183e-09,0.3,-0.3,-13.1581,-17.786,1.34334,186.257,-23.2688,0.541035,91.6563,-22.5198,866.586
0.373,-0.192371,-0.00767229,0.330358,0.0663297,0.0622159,-0.104335,0.05763,-0.100371,-0.100712,0.327427,0.0230001,-0.182807,2.59108e-08,-3.06183e-09,0.3,-0.3,-13.1417,-17.768,1.34315,186.269,-23.2637,0.545479,91.6496,-22.5497,866.589
0.374,-0.192371,-0.00767229,0.330358,0.0663297,0.0622159,-0.104335,0.05763,-0.100371,-0.100712,0.327427,0.0230001,-0.182807,2.59108e-08,-3.06183e-09,0.3,-0.3,-13.1259,-17.7494,1.34243,186.281,-23.2586,0.549637,91.6416,-22.5783,866.591
0.375,-0.192371,-0.00767229,0.330358,0.0663297,0.0622159,-0.104335,0.05763,-0.100371,-0.100712,0.327427,0.0230001,-0.182807,2.59108e-08,-3.06183e-09,0.3,-0.3,-13.1108,-17.7304,1.34121,186.292,-23.2535,0.553511,91.6321,-22.6058,866.593
0.376,-0.192371,-0.00767229,0.330358,0.0663297,0.0622159,-0.104335,0.05763,-0.100371,-0.100712,0.327427,0.0230001,-0.182807,2.59108e-08,-3.06183e-09,0.3,-0.3,-13.0963,-17.7109,1.33949,186.304,-23.2485,0.55711,91.6213,-22.632,866.595
0.377,-0.192371,-0.00767229,0.330358,0.0663297,0.0622159,-0.104335,0.05763,-0.100371,-0.100712,0.327427,0.0230001,-0.182807,2.59108e-08,-3.06183e-09,0.3,-0.3,-13.0824,-17.691,1.33729,186.316,-23.2435,0.560434,91.6091,-22.657,866.596
0.378,-0.192371,-0.00767229,0.330358,0.0663297,0.0622159,-0.104335,0.05763,-0.100371,-0.100712,0.327427,0.0230001,-0.182807,2.59108e-08,-3.06183e-09,0.3,-0.3,-13.0691,-17.6706,1.3346,186.327,-23.2385,0.56349,91.5955,-22.6807,866.596
0.379,-0.192371,-0.00767229,0.330358,0.0663297,0.0622159,-0.104335,0.05763,-0.100371,-0.100712,0.327427,0.0230001,-0.182807,2.59108e-08,-3.06183e-09,0.3,-0.3,-13.0563,-17.6498,1.33144,186.339,-23.2335,0.566282,91.5805,-22.7033,866.597
0.38,-0.192371,-0.00767229,0.330358,0.0663297,0.0622159,-0.104335,0.05763,-0.100371,-0.100712,0.327427,0.0230001,-0.182807,2.59108e-08,-3.06183e-09,0.3,-0.3,-13.0441,-17.6287,1.32781,186.35,-23.2286,0.568815,91.5642,-22.7246,866.597
0.381,-0.192371,-0.00767229,0.330358,0.0663297,0.0622159,-0.104335,0.05763,-0.100371,-0.100712,0.327427,0.0230001,-0.182807,2.59108e-08,-3.06183e-09,0.3,-0.3,-13.0324,-17.6072,1.3237,186.362,-23.2237,0.571091,91.5465,-22.7448,866.596
0.382,-0.192371,-0.00767229,0.330358,0.0663297,0.0622159,-0.104335,0.05763,-0.100371,-0.100712,0.327427,0.0230001,-0.182807,2.59108e-08,-3.06183e-09,0.3,-0.3,-13.0211,-17.5854,1.31912,186.373,-23.2188,0.573114,91.5274,-22.7637,866.595
0.383,-0.192371,-0.00767229,0.330358,0.0663297,0.0622159,-0.104335,0.05763,-0.100371,-0.100712,0.327427,0.0230001,-0.182807,2.59108e-08,-3.06183e-09,0.3,-0.3,-13.0103,-17.5632,1.31406,186.385,-23.2139,0.574894,91.507,-22.7815,866.594
0.384,-0.192371,-0.00767229,0.330358,0.0663297,0.0622159,-0.104335,0.05763,-0.100371,-0.100712,0.327427,0.0230001,-0.182807,2.59108e-08,-3.06183e-09,0.3,-0.3,-12.9998,-17.5409,1.30853,186.396,-23.209,0.576426,91.4852,-22.7981,866.592
0.385,-0.192371,-0.00767229,0.330358,0.0663297,0.0622159,-0.104335,0.05763,-0.100371,-0.100712,0.327427,0.0230001,-0.182807,2.59108e-08,-3.06183e-09,0.3,-0.3,-12.9898,-17.5183,1.3025,186.407,-23.2042,0.577717,91.4621,-22.8135,866.59
0.386,-0.192371,-0.00767229,0.330358,0.0663297,0.0622159,-0.104335,0.05763,-0.100371,-0.100712,0.327427,0.0230001,-0.182807,2.59108e-08,-3.06183e-09,0.3,-0.3,-12.98,-17.4954,1.29599,186.419,-23.1993,0.578772,91.4376,-22.8277,866.588
0.387,-0.192371,-0.00767229,0.330358,0.0663297,0.0622159,-0.104335,0.05763,-0.100371,-0.100712,0.327427,0.0230001,-0.182807,2.59108e-08,-3.06183e-09,0.3,-0.3,-12.9706,-17.4725,1.28899,186.43,-23.1944,0.57959,91.4118,-22.8408,866.585
0.388,-0.192371,-0.00767229,0.330358,0.0663297,0.0622159,-0.104335,0.05763,-0.100371,-0.100712,0.327427,0.0230001,-0.182807,2.59108e-08,-3.06183e-09,0.3,-0.3,-12.9613,-17.4493,1.28148,186.441,-23.1896,0.580177,91.3846,-22.8526,866.582
0.389,-0.192371,-0.00767229,0.330358,0.0663297,0.0622159,-0.104335,0.05763,-0.100371,-0.100712,0.327427,0.0230001,-0.182807,2.59108e-08,-3.06183e-09,0.3,-0.3,-12.9523,-17.4261,1.27347,186.453,-23.1847,0.580532,91.3561,-22.8634,866.578
0.39,-0.192371,-0.00767229,0.330358,0.0663297,0.0622159,-0.104335,0.05763,-0.100371,-0.100712,0.327427,0.0230001,-0.182807,2.59108e-08,-3.06183e-09,0.3,-0.3,-12.9435,-17.4028,1.26494,186.464,-23.1799,0.580662,91.3263,-22.8729,866.574
0.391,-0.192371,-0.00767229,0.330358,0.0663297,0.0622159,-0.104335,0.05763,-0.100371,-0.100712,0.327427,0.0230001,-0.182807,2.59108e-08,-3.06183e-09,0.3,-0.3,-12.9348,-17.3794,1.2559,186.475,-23.175,0.580566,91.2952,-22.8813,866.569
0.392,-0.192371,-0.00767229,0.330358,0.0663297,0.0622159,-0.104335,0.05763,-0.100371,-0.100712,0.327427,0.0230001,-0.182807,2.59108e-08,-3.06183e-09,0.3,-0.3,-12.9263,-17.356,1.24634,186.486,-23.1702,0.580248,91.2627,-22.8886,866.565
0.393,-0.192371,-0.00767229,0.330358,0.0663297,0.0622159,-0.104335,0.05763,-0.100371,-0.100712,0.327427,0.0230001,-0.182807,2.59108e-08,-3.06183e-09,0.3,-0.3,-12.9178,-17.3326,1.23625,186.498,-23.1654,0.579708,91.229,-22.8947,866.559
0.394,-0.192371,-0.00767229,0.330358,0.0663297,0.0622159,-0.104335,0.05763,-0.100371,-0.100712,0.327427,0.0230001,-0.182807,2.59108e-08,-3.06183e-09,0.3,-0.3,-12.9093,-17.3093,1.22562,186.509,-23.1605,0.578947,91.1939,-22.8996,866.554
0.395,-0.192371,-0.00767229,0.330358,0.0663297,0.0622159,-0.104335,0.05763,-0.100371,-0.100712,0.327427,0.0230001,-0.182807,2.59108e-08,-3.06183e-09,0.3,-0.3,-12.9009,-17.286,1.21446,186.52,-23.1557,0.577971,91.1575,-22.9035,866.548
0.396,-0.192371,-0.00767229,0.330358,0.0663297,0.0622159,-0.104335,0.05763,-0.100371,-0.100712,0.327427,0.0230001,-0.182807,2.59108e-08,-3.06183e-09,0.3,-0.3,-12.8924,-17.2628,1.20277,186.531,-23.1509,0.576777,91.1198,-22.9061,866.542
0.397,-0.192371,-0.00767229,0.330358,0.0663297,0.0622159,-0.104335,0.05763,-0.100371,-0.100712,0.327427,0.0230001,-0.182807,2.59108e-08,-3.06183e-09,0.3,-0.3,-12.8839,-17.2397,1.19052,186.543,-23.1461,0.575367,91.0808,-22.9077,866.535
0.398,-0.192371,-0.00767229,0.330358,0.0663297,0.0622159,-0.104335,0.05763,-0.100371,-0.100712,0.327427,0.0230001,-0.182807,2.59108e-08,-3.06183e-09,0.3,-0.3,-12.8753,-17.2167,1.17774,186.554,-23.1413,0.573748,91.0405,-22.908,866.528
0.399,-0.192371,-0.00767229,0.330358,0.0663297,0.0622159,-0.104335,0.05763,-0.100371,-0.100712,0.327427,0.0230001,-0.182807,2.59108e-08,-3.06183e-09,0.3,-0.3,-12.8666,-17.1939,1.1644,186.565,-23.1365,0.571913,90.9988,-22.9073,866.521
0.4,-0.192371,-0.00767229,0.330358,0.0663297,0.0622159,-0.104335,0.05763,-0.100371,-0.100712,0.327427,0.0230001,-0.182807,2.59108e-08,-3.06183e-09,0.3,-0.3,-12.8578,-17.1712,1.15051,186.576,-23.1317,0.569868,90.9559,-22.9054,866.513
0.401,-0.192371,-0.00767229,0.330358,0.0663297,0.0622159,-0.104335,0.05763,-0.100371,-0.100712,0.327427,0.0230001,-0.182807,2.59108e-08,-3.06183e-09,0.3,-0.3,-12.8489,-17.1487,1.13608,186.587,-23.127,0.567614,90.9117,-22.9024,866.504
0.402,-0.192371,-0.00767229,0.330358,0.0663297,0.0622159,-0.104335,0.05763,-0.100371,-0.100712,0.327427,0.0230001,-0.182807,2.59108e-08,-3.06183e-09,0.3,-0.3,-12.8398,-17.1263,1.12109,186.598,-23.1222,0.565149,90.8662,-22.8983,866.496
0.403,-0.192371,-0.00767229,0.330358,0.0663297,0.0622159,-0.104335,0.05763,-0.100371,-0.100712,0.327427,0.0230001,-0.182807,2.59108e-08,-3.06183e-09,0.3,-0.3,-12.8305,-17.1042,1.10554,186.609,-23.1175,0.562477,90.8194,-22.893,866.487
0.404,-0.192371,-0.00767229,0.330358,0.0663297,0.0622159,-0.104335,0.05763,-0.100371,-0.100712,0.327427,0.0230001,-0.182807,2.59108e-08,-3.06183e-09,0.3,-0.3,-12.8211,-17.0822,1.08936,186.62,-23.1129,0.559288,90.7717,-22.8865,866.477
0.405,-0.192371,-0.00767229,0.330358,0.0663297,0.0622159,-0.104335,0.05763,-0.100371,-0.100712,0.327427,0.0230001,-0.182807,2.59108e-08,-3.06183e-09,0.3,-0.3,-12.8087,-17.0584,1.07085,186.63,-23.1085,0.555771,90.7229,-22.8788,866.466
0.406,-0.192371,-0.00767229,0.330358,0.0663297,0.0622159,-0.104335,0.05763,-0.100371,-0.100712,0.327427,0.0230001,-0.182807,2.59108e-08,-3.06183e-09,0.3,-0.3,-12.7935,-17.0336,1.0514,186.64,-23.1042,0.551983,90.673,-22.8699,866.455
0.407,-0.192371,-0.00767229,0.330358,0.0663297,0.0622159,-0.104335,0.05763,-0.100371,-0.100712,0.327427,0.0230001,-0.182807,2.59108e-08,-3.06183e-09,0.3,-0.3,-12.7759,-17.008,1.03134,186.65,-23.0999,0.547949,90.6221,-22.8599,866.443
0.408,-0.192371,-0.00767229,0.330358,0.0663297,0.0622159,-0.104335,0.05763,-0.100371,-0.100712,0.327427,0.0230001,-0.182807,2.59108e-08,-3.06183e-09,0.3,-0.3,-12.7564,-16.982,1.01074,186.66,-23.0956,0.543678,90.5699,-22.8486,866.43
0.409,-0.192371,-0.00767229,0.330358,0.0663297,0.0622159,-0.104335,0.05763,-0.100371,-0.100712,0.327427,0.0230001,-0.182807,2.59108e-08,-3.06183e-09,0.3,-0.3,-12.7354,-16.9558,0.989609,186.67,-23.0912,0.539173,90.5165,-22.8362,866.418
0.41,-0.192371,-0.00767229,0.330358,0.0663297,0.0622159,-0.104335,0.05763,-0.100371,-0.100712,0.327427,0.0230001,-0.182807,2.59108e-08,-3.06183e-09,0.3,-0.3,-12.7135,-16.9295,0.967935,186.68,-23.0869,0.534431,90.462,-22.8226,866.405
0.411,-0.192371,-0.00767229,0.330358,0.0663297,0.0622159,-0.104335,0.05763,-0.100371,-0.100712,0.327427,0.0230001,-0.182807,2.59108e-08,-3.06183e-09,0.3,-0.3,-12.6909,-16.9033,0.945722,186.69,-23.0825,0.529457,90.4062,-22.8078,866.391
0.412,-0.192371,-0.00767229,0.330358,0.0663297,0.0622159,-0.104335,0.05763,-0.100371,-0.100712,0.327427,0.0230001,-0.182807,2.59108e-08,-3.06183e-09,0.3,-0.3,-12.6681,-16.8772,0.922981,186.7,-23.0781,0.524248,90.3492,-22.792,866.378
0.413,-0.192371,-0.00767229,0.330358,0.0663297,0.0622159,-0.104335,0.05763,-0.100371,-0.100712,0.327427,0.0230001,-0.182807,2.59108e-08,-3.06183e-09,0.3,-0.3,-12.6451,-16.8514,0.899711,186.71,-23.0738,0.518803,90.2908,-22.7749,866.364
0.414,-0.192371,-0.00767229,0.330358,0.0663297,0.0622159,-0.104335,0.05763,-0.100371,-0.100712,0.327427,0.0230001,-0.182807,2.59108e-08,-3.06183e-09,0.3,-0.3,-12.6223,-16.8259,0.87593,186.72,-23.0694,0.513121,90.2312,-22.7568,866.349
0.415,-0.192371,-0.00767229,0.330358,0.0663297,0.0622159,-0.104335,0.05763,-0.100371,-0.100712,0.327427,0.0230001,-0.182807,2.59108e-08,-3.06183e-09,0.3,-0.3,-12.5998,-16.8007,0.851655,186.73,-23.065,0.507196,90.1703,-22.7375,866.335
0.416,-0.192371,-0.00767229,0.330358,0.0663297,0.0622159,-0.104335,0.05763,-0.100371,-0.100712,0.327427,0.0230001,-0.182807,2.59108e-08,-3.06183e-09,0.3,-0.3,-12.5777,-16.7759,0.826901,186.741,-23.0607,0.501026,90.108,-22.7171,866.319
0.417,-0.192371,-0.00767229,0.330358,0.0663297,0.0622159,-0.104335,0.05763,-0.100371,-0.100712,0.327427,0.0230001,-0.182807,2.59108e-08,-3.06183e-09,0.3,-0.3,-12.5562,-16.7516,0.801714,186.751,-23.0564,0.494606,90.0443,-22.6956,866.304
0.418,-0.192371,-0.00767229,0.330358,0.0663297,0.0622159,-0.104335,0.05763,-0.100371,-0.100712,0.327427,0.0230001,-0.182807,2.59108e-08,-3.06183e-09,0.3,-0.3,-12.5354,-16.7278,0.776117,186.76,-23.0522,0.487936,89.9793,-22.673,866.288
0.419,-0.192371,-0.00767229,0.330358,0.0663297,0.0622159,-0.104335,0.05763,-0.100371,-0.100712,0.327427,0.0230001,-0.182807,2.59108e-08,-3.06183e-09,0.3,-0.3,-12.5153,-16.7044,0.750094,186.77,-23.0479,0.481018,89.9128,-22.6493,866.272
0.42,-0.192371,-0.00767229,0.330358,0.0663297,0.0622159,-0.104335,0.05763,-0.100371,-0.100712,0.327427,0.0230001,-0.182807,2.59108e-08,-3.06183e-09,0.3,-0.3,-12.496,-16.6815,0.723643,186.78,-23.0437,0.473852,89.845,-22.6245,866.256
0.421,-0.192371,-0.00767229,0.330358,0.0663297,0.0622159,-0.104335,0.05763,-0.100371,-0.100712,0.327427,0.0230001,-0.182807,2.59108e-08,-3.06183e-09,0.3,-0.3,-12.4775,-16.6591,0.696764,186.79,-23.0395,0.466436,89.7758,-22.5985,866.239
0.422,-0.192371,-0.00767229,0.330358,0.0663297,0.0622159,-0.104335,0.05763,-0.100371,-0.100712,0.327427,0.0230001,-0.182807,2.59108e-08,-3.06183e-09,0.3,-0.3,-12.4598,-16.6371,0.669456,186.8,-23.0353,0.458776,89.7052,-22.5715,866.222
0.423,-0.192371,-0.00767229,0.330358,0.0663297,0.0622159,-0.104335,0.05763,-0.100371,-0.100712,0.327427,0.0230001,-0.182807,2.59108e-08,-3.06183e-09,0.3,-0.3,-12.4429,-16.6156,0.641717,186.81,-23.0311,0.450867,89.6331,-22.5434,866.204
0.424,-0.192371,-0.00767229,0.330358,0.0663297,0.0622159,-0.104335,0.05763,-0.100371,-0.100712,0.327427,0.0230001,-0.182807,2.59108e-08,-3.06183e-09,0.3,-0.3,-12.4268,-16.5945,0.613542,186.82,-23.0269,0.442705,89.5597,-22.5141,866.186
