TheMarex/ba-thesis/notebook/unstabilized_logs/2014-10-08-23:11:17_trajectory.csv
"Timestamp","Trajectory_LeftLeg_Joint6","Trajectory_LeftLeg_Joint5","Trajectory_LeftLeg_Joint4","Trajectory_LeftLeg_Joint3","Trajectory_LeftLeg_Joint2","Trajectory_LeftLeg_Joint1","Trajectory_RightLeg_Joint1","Trajectory_RightLeg_Joint2","Trajectory_RightLeg_Joint3","Trajectory_RightLeg_Joint4","Trajectory_RightLeg_Joint5","Trajectory_RightLeg_Joint6","Trajectory_Torso_Joint1","Trajectory_Torso_Joint2","Trajectory_LeftArm_Joint3","Trajectory_RightArm_Joint3","Actual_LeftFootX","Actual_LeftFootY","Actual_LeftFootZ","Actual_RightFootX","Actual_RightFootY","Actual_RightFootZ","Actual_CoMX","Actual_CoMY","Actual_CoMZ"
0.001,-0.192335,-0.00766602,0.330352,0.0664505,0.0622742,-0.10429,0.05778,-0.100347,-0.100647,0.327447,0.023022,-0.182809,1.98691e-08,-4.56731e-09,0.3,-0.3,0,0,0,172.018,-2.98923,-0.0121975,94.498,-21.111,892.433
0.002,-0.192335,-0.00766602,0.330352,0.0664505,0.0622742,-0.10429,0.05778,-0.100347,-0.100647,0.327447,0.023022,-0.182809,1.98691e-08,-4.56731e-09,0.3,-0.3,0,0,-0.00971164,172.01,-2.98578,0.0454712,94.4948,-21.1223,892.456
0.003,-0.192335,-0.00766602,0.330352,0.0664505,0.0622742,-0.10429,0.05778,-0.100347,-0.100647,0.327447,0.023022,-0.182809,1.98691e-08,-4.56731e-09,0.3,-0.3,0.013627,-0.00961826,0.0168435,172.003,-2.98272,0.107338,94.4892,-21.1364,892.495
0.004,-0.192335,-0.00766602,0.330352,0.0664505,0.0622742,-0.10429,0.05778,-0.100347,-0.100647,0.327447,0.023022,-0.182809,1.98691e-08,-4.56731e-09,0.3,-0.3,0.0362023,-0.0432105,0.0724609,172.001,-2.98176,0.187128,94.4812,-21.1503,892.55
0.005,-0.192335,-0.00766602,0.330352,0.0664505,0.0622742,-0.10429,0.05778,-0.100347,-0.100647,0.327447,0.023022,-0.182809,1.98691e-08,-4.56731e-09,0.3,-0.3,0.0645851,-0.097102,0.156325,172.004,-2.98317,0.276423,94.4715,-21.163,892.612
0.006,-0.192335,-0.00766602,0.330352,0.0664505,0.0622742,-0.10429,0.05778,-0.100347,-0.100647,0.327447,0.023022,-0.182809,1.98691e-08,-4.56731e-09,0.3,-0.3,0.0899608,-0.166036,0.254864,172.016,-3.00714,0.359285,94.4618,-21.1756,892.664
0.007,-0.192335,-0.00766602,0.330352,0.0664505,0.0622742,-0.10429,0.05778,-0.100347,-0.100647,0.327447,0.023022,-0.182809,1.98691e-08,-4.56731e-09,0.3,-0.3,0.102896,-0.246492,0.34955,172.039,-3.05129,0.445326,94.4522,-21.1879,892.705
0.008,-0.192335,-0.00766602,0.330352,0.0664505,0.0622742,-0.10429,0.05778,-0.100347,-0.100647,0.327447,0.023022,-0.182809,1.98691e-08,-4.56731e-09,0.3,-0.3,0.104435,-0.338838,0.444475,172.071,-3.11338,0.533382,94.4428,-21.2001,892.737
0.009,-0.192335,-0.00766602,0.330352,0.0664505,0.0622742,-0.10429,0.05778,-0.100347,-0.100647,0.327447,0.023022,-0.182809,1.98691e-08,-4.56731e-09,0.3,-0.3,0.0953516,-0.4431,0.539881,172.112,-3.19147,0.622986,94.4335,-21.2121,892.759
0.01,-0.192335,-0.00766602,0.330352,0.0664505,0.0622742,-0.10429,0.05778,-0.100347,-0.100647,0.327447,0.023022,-0.182809,1.98691e-08,-4.56731e-09,0.3,-0.3,0.0765325,-0.55967,0.635916,172.16,-3.28385,0.713842,94.4243,-21.224,892.771
0.011,-0.192335,-0.00766602,0.330352,0.0664505,0.0622742,-0.10429,0.05778,-0.100347,-0.100647,0.327447,0.023022,-0.182809,1.98691e-08,-4.56731e-09,0.3,-0.3,0.0489258,-0.689061,0.732665,172.216,-3.38909,0.805704,94.4152,-21.2356,892.773
0.012,-0.192335,-0.00766602,0.330352,0.0664505,0.0622742,-0.10429,0.05778,-0.100347,-0.100647,0.327447,0.023022,-0.182809,1.98691e-08,-4.56731e-09,0.3,-0.3,0.0269256,-0.777623,0.793191,172.254,-3.46166,0.863241,94.4097,-21.2428,892.768
0.013,-0.192335,-0.00766602,0.330352,0.0664505,0.0622742,-0.10429,0.05778,-0.100347,-0.100647,0.327447,0.023022,-0.182809,1.98691e-08,-4.56731e-09,0.3,-0.3,-0.0129259,-0.92881,0.891078,172.319,-3.58524,0.956276,94.4008,-21.2541,892.753
0.014,-0.192335,-0.00766602,0.330352,0.0664505,0.0622742,-0.10429,0.05778,-0.100347,-0.100647,0.327447,0.023022,-0.182809,1.98691e-08,-4.56731e-09,0.3,-0.3,-0.0593791,-1.0938,0.989572,172.39,-3.71905,1.04981,94.3919,-21.2653,892.729
0.015,-0.192335,-0.00766602,0.330352,0.0664505,0.0622742,-0.10429,0.05778,-0.100347,-0.100647,0.327447,0.023022,-0.182809,1.98691e-08,-4.56731e-09,0.3,-0.3,-0.111808,-1.27272,1.08855,172.466,-3.8624,1.14366,94.3832,-21.2763,892.695
0.016,-0.192335,-0.00766602,0.330352,0.0664505,0.0622742,-0.10429,0.05778,-0.100347,-0.100647,0.327447,0.023022,-0.182809,1.98691e-08,-4.56731e-09,0.3,-0.3,-0.169717,-1.4655,1.18785,172.547,-4.01474,1.23768,94.3745,-21.2871,892.651
0.017,-0.192335,-0.00766602,0.330352,0.0664505,0.0622742,-0.10429,0.05778,-0.100347,-0.100647,0.327447,0.023022,-0.182809,1.98691e-08,-4.56731e-09,0.3,-0.3,-0.232728,-1.67196,1.28733,172.632,-4.17564,1.3317,94.3659,-21.2977,892.597
0.018,-0.192335,-0.00766602,0.330352,0.0664505,0.0622742,-0.10429,0.05778,-0.100347,-0.100647,0.327447,0.023022,-0.182809,1.98691e-08,-4.56731e-09,0.3,-0.3,-0.300573,-1.89179,1.38681,172.722,-4.34476,1.42557,94.3573,-21.3082,892.533
0.019,-0.192335,-0.00766602,0.330352,0.0664505,0.0622742,-0.10429,0.05778,-0.100347,-0.100647,0.327447,0.023022,-0.182809,1.98691e-08,-4.56731e-09,0.3,-0.3,-0.373069,-2.12458,1.48613,172.815,-4.52182,1.51914,94.3488,-21.3184,892.459
0.02,-0.192335,-0.00766602,0.330352,0.0664505,0.0622742,-0.10429,0.05778,-0.100347,-0.100647,0.327447,0.023022,-0.182809,1.98691e-08,-4.56731e-09,0.3,-0.3,-0.450101,-2.36986,1.58514,172.914,-4.70658,1.61227,94.3404,-21.3285,892.376
0.021,-0.192335,-0.00766602,0.330352,0.0664505,0.0622742,-0.10429,0.05778,-0.100347,-0.100647,0.327447,0.023022,-0.182809,1.98691e-08,-4.56731e-09,0.3,-0.3,-0.531609,-2.62712,1.68367,173.016,-4.89884,1.70481,94.3321,-21.3384,892.282
0.022,-0.192335,-0.00766602,0.330352,0.0664505,0.0622742,-0.10429,0.05778,-0.100347,-0.100647,0.327447,0.023022,-0.182809,1.98691e-08,-4.56731e-09,0.3,-0.3,-0.636327,-2.95429,1.80249,173.146,-5.14172,1.8162,94.322,-21.3502,892.155
0.023,-0.192335,-0.00766602,0.330352,0.0664505,0.0622742,-0.10429,0.05778,-0.100347,-0.100647,0.327447,0.023022,-0.182809,1.98691e-08,-4.56731e-09,0.3,-0.3,-0.727677,-3.23624,1.89949,173.257,-5.34996,1.90693,94.3137,-21.3598,892.04
0.024,-0.192335,-0.00766602,0.330352,0.0664505,0.0622742,-0.10429,0.05778,-0.100347,-0.100647,0.327447,0.023022,-0.182809,1.98691e-08,-4.56731e-09,0.3,-0.3,-0.823476,-3.52849,1.99561,173.374,-5.56513,1.99661,94.3056,-21.3692,891.914
0.025,-0.192335,-0.00766602,0.330352,0.0664505,0.0622742,-0.10429,0.05778,-0.100347,-0.100647,0.327447,0.023022,-0.182809,1.98691e-08,-4.56731e-09,0.3,-0.3,-0.923733,-3.83054,2.09072,173.494,-5.78706,2.0851,94.2975,-21.3785,891.779
0.026,-0.192335,-0.00766602,0.330352,0.0664505,0.0622742,-0.10429,0.05778,-0.100347,-0.100647,0.327447,0.023022,-0.182809,1.98691e-08,-4.56731e-09,0.3,-0.3,-1.02845,-4.14193,2.18471,173.619,-6.01557,2.17226,94.2894,-21.3877,891.634
0.027,-0.192335,-0.00766602,0.330352,0.0664505,0.0622742,-0.10429,0.05778,-0.100347,-0.100647,0.327447,0.023022,-0.182809,1.98691e-08,-4.56731e-09,0.3,-0.3,-1.13761,-4.4622,2.27748,173.749,-6.25048,2.25795,94.2814,-21.3967,891.479
0.028,-0.192335,-0.00766602,0.330352,0.0664505,0.0622742,-0.10429,0.05778,-0.100347,-0.100647,0.327447,0.023022,-0.182809,1.98691e-08,-4.56731e-09,0.3,-0.3,-1.2512,-4.79094,2.36891,173.883,-6.49159,2.34204,94.2735,-21.4056,891.314
0.029,-0.192335,-0.00766602,0.330352,0.0664505,0.0622742,-0.10429,0.05778,-0.100347,-0.100647,0.327447,0.023022,-0.182809,1.98691e-08,-4.56731e-09,0.3,-0.3,-1.36919,-5.12774,2.45891,174.021,-6.73868,2.42436,94.2657,-21.4145,891.139
0.03,-0.192335,-0.00766602,0.330352,0.0664505,0.0622742,-0.10429,0.05778,-0.100347,-0.100647,0.327447,0.023022,-0.182809,1.98691e-08,-4.56731e-09,0.3,-0.3,-1.49152,-5.47222,2.54735,174.164,-6.99155,2.50478,94.2579,-21.4232,890.955
0.031,-0.192335,-0.00766602,0.330352,0.0664505,0.0622742,-0.10429,0.05778,-0.100347,-0.100647,0.327447,0.023022,-0.182809,1.98691e-08,-4.56731e-09,0.3,-0.3,-1.61814,-5.82402,2.63414,174.312,-7.24999,2.58316,94.2501,-21.4318,890.76
0.032,-0.192335,-0.00766602,0.330352,0.0664505,0.0622742,-0.10429,0.05778,-0.100347,-0.100647,0.327447,0.023022,-0.182809,1.98691e-08,-4.56731e-09,0.3,-0.3,-1.74294,-6.16623,2.71523,174.457,-7.50157,2.65585,94.2428,-21.4399,890.565
0.033,-0.192335,-0.00766602,0.330352,0.0664505,0.0622742,-0.10429,0.05778,-0.100347,-0.100647,0.327447,0.023022,-0.182809,1.98691e-08,-4.56731e-09,0.3,-0.3,-1.87774,-6.53131,2.79841,174.614,-7.7702,2.72977,94.2352,-21.4483,890.351
0.034,-0.192335,-0.00766602,0.330352,0.0664505,0.0622742,-0.10429,0.05778,-0.100347,-0.100647,0.327447,0.023022,-0.182809,1.98691e-08,-4.56731e-09,0.3,-0.3,-2.0166,-6.90269,2.87955,174.775,-8.04371,2.8012,94.2276,-21.4566,890.128
0.035,-0.192335,-0.00766602,0.330352,0.0664505,0.0622742,-0.10429,0.05778,-0.100347,-0.100647,0.327447,0.023022,-0.182809,1.98691e-08,-4.56731e-09,0.3,-0.3,-2.15944,-7.28003,2.9585,174.94,-8.32187,2.86995,94.2201,-21.4648,889.894
0.036,-0.192335,-0.00766602,0.330352,0.0664505,0.0622742,-0.10429,0.05778,-0.100347,-0.100647,0.327447,0.023022,-0.182809,1.98691e-08,-4.56731e-09,0.3,-0.3,-2.30614,-7.66298,3.03513,175.11,-8.60443,2.93586,94.2127,-21.473,889.651
0.037,-0.192335,-0.00766602,0.330352,0.0664505,0.0622742,-0.10429,0.05778,-0.100347,-0.100647,0.327447,0.023022,-0.182809,1.98691e-08,-4.56731e-09,0.3,-0.3,-2.45662,-8.05122,3.10927,175.285,-8.89115,2.99876,94.2053,-21.4811,889.398
0.038,-0.192335,-0.00766602,0.330352,0.0664505,0.0622742,-0.10429,0.05778,-0.100347,-0.100647,0.327447,0.023022,-0.182809,1.98691e-08,-4.56731e-09,0.3,-0.3,-2.61076,-8.4444,3.18076,175.463,-9.18179,3.05848,94.1979,-21.4891,889.135
0.039,-0.192335,-0.00766602,0.330352,0.0664505,0.0622742,-0.10429,0.05778,-0.100347,-0.100647,0.327447,0.023022,-0.182809,1.98691e-08,-4.56731e-09,0.3,-0.3,-2.76845,-8.84217,3.24941,175.646,-9.4761,3.11481,94.1906,-21.497,888.862
0.04,-0.192335,-0.00766602,0.330352,0.0664505,0.0622742,-0.10429,0.05778,-0.100347,-0.100647,0.327447,0.023022,-0.182809,1.98691e-08,-4.56731e-09,0.3,-0.3,-2.92959,-9.24418,3.31504,175.834,-9.77386,3.16757,94.1834,-21.5049,888.58
0.041,-0.192335,-0.00766602,0.330352,0.0664505,0.0622742,-0.10429,0.05778,-0.100347,-0.100647,0.327447,0.023022,-0.182809,1.98691e-08,-4.56731e-09,0.3,-0.3,-3.09405,-9.65009,3.37745,176.025,-10.0748,3.21657,94.1762,-21.5128,888.287
0.042,-0.192335,-0.00766602,0.330352,0.0664505,0.0622742,-0.10429,0.05778,-0.100347,-0.100647,0.327447,0.023022,-0.182809,1.98691e-08,-4.56731e-09,0.3,-0.3,-3.27047,-10.0809,3.43945,176.23,-10.3945,3.26388,94.1687,-21.5209,887.97
0.043,-0.192335,-0.00766602,0.330352,0.0664505,0.0622742,-0.10429,0.05778,-0.100347,-0.100647,0.327447,0.023022,-0.182809,1.98691e-08,-4.56731e-09,0.3,-0.3,-3.44139,-10.4936,3.4946,176.43,-10.7012,3.30449,94.1616,-21.5287,887.657
0.044,-0.192335,-0.00766602,0.330352,0.0664505,0.0622742,-0.10429,0.05778,-0.100347,-0.100647,0.327447,0.023022,-0.182809,1.98691e-08,-4.56731e-09,0.3,-0.3,-3.61527,-10.9092,3.54586,176.633,-11.0104,3.34068,94.1545,-21.5363,887.335
0.045,-0.192335,-0.00766602,0.330352,0.0664505,0.0622742,-0.10429,0.05778,-0.100347,-0.100647,0.327447,0.023022,-0.182809,1.98691e-08,-4.56731e-09,0.3,-0.3,-3.79198,-11.3272,3.59299,176.84,-11.3217,3.3722,94.1475,-21.544,887.003
0.046,-0.192335,-0.00766602,0.330352,0.0664505,0.0622742,-0.10429,0.05778,-0.100347,-0.100647,0.327447,0.023022,-0.182809,1.98691e-08,-4.56731e-09,0.3,-0.3,-3.97139,-11.7473,3.63575,177.05,-11.635,3.39884,94.1405,-21.5516,886.661
0.047,-0.192335,-0.00766602,0.330352,0.0664505,0.0622742,-0.10429,0.05778,-0.100347,-0.100647,0.327447,0.023022,-0.182809,1.98691e-08,-4.56731e-09,0.3,-0.3,-4.15338,-12.169,3.67387,177.264,-11.95,3.42034,94.1336,-21.5592,886.31
0.048,-0.192335,-0.00766602,0.330352,0.0664505,0.0622742,-0.10429,0.05778,-0.100347,-0.100647,0.327447,0.023022,-0.182809,1.98691e-08,-4.56731e-09,0.3,-0.3,-4.3378,-12.5921,3.70709,177.482,-12.2664,3.43644,94.1267,-21.5668,885.949
0.049,-0.192335,-0.00766602,0.330352,0.0664505,0.0622742,-0.10429,0.05778,-0.100347,-0.100647,0.327447,0.023022,-0.182809,1.98691e-08,-4.56731e-09,0.3,-0.3,-4.52451,-13.0162,3.73512,177.702,-12.5839,3.44689,94.1198,-21.5743,885.578
0.05,-0.192335,-0.00766602,0.330352,0.0664505,0.0622742,-0.10429,0.05778,-0.100347,-0.100647,0.327447,0.023022,-0.182809,1.98691e-08,-4.56731e-09,0.3,-0.3,-4.71337,-13.4408,3.75767,177.926,-12.9025,3.4514,94.113,-21.5818,885.197
0.051,-0.192335,-0.00766602,0.330352,0.0664505,0.0622742,-0.10429,0.05778,-0.100347,-0.100647,0.327447,0.023022,-0.182809,1.98691e-08,-4.56731e-09,0.3,-0.3,-4.90422,-13.8657,3.77445,178.152,-13.2217,3.44971,94.1062,-21.5894,884.807
0.052,-0.192335,-0.00766602,0.330352,0.0664505,0.0622742,-0.10429,0.05778,-0.100347,-0.100647,0.327447,0.023022,-0.182809,1.98691e-08,-4.56731e-09,0.3,-0.3,-4.99153,-14.0586,3.77987,178.256,-13.3667,3.44659,94.1031,-21.5928,884.626
0.053,-0.192335,-0.00766602,0.330352,0.0664505,0.0622742,-0.10429,0.05778,-0.100347,-0.100647,0.327447,0.023022,-0.182809,1.98691e-08,-4.56731e-09,0.3,-0.3,-5.185,-14.4832,3.78769,178.487,-13.6864,3.43534,94.0963,-21.6003,884.221
0.054,-0.192335,-0.00766602,0.330352,0.0664505,0.0622742,-0.10429,0.05778,-0.100347,-0.100647,0.327447,0.023022,-0.182809,1.98691e-08,-4.56731e-09,0.3,-0.3,-5.38008,-14.9072,3.78894,178.72,-14.0062,3.41714,94.0896,-21.6078,883.807
0.055,-0.192335,-0.00766602,0.330352,0.0664505,0.0622742,-0.10429,0.05778,-0.100347,-0.100647,0.327447,0.023022,-0.182809,1.98691e-08,-4.56731e-09,0.3,-0.3,-5.57659,-15.3302,3.78329,178.955,-14.3258,3.3917,94.0829,-21.6154,883.383
0.056,-0.192335,-0.00766602,0.330352,0.0664505,0.0622742,-0.10429,0.05778,-0.100347,-0.100647,0.327447,0.023022,-0.182809,1.98691e-08,-4.56731e-09,0.3,-0.3,-5.77436,-15.7519,3.77041,179.192,-14.6449,3.35868,94.0762,-21.6229,882.949
0.057,-0.192335,-0.00766602,0.330352,0.0664505,0.0622742,-0.10429,0.05778,-0.100347,-0.100647,0.327447,0.023022,-0.182809,1.98691e-08,-4.56731e-09,0.3,-0.3,-5.97321,-16.1719,3.74993,179.432,-14.9633,3.31777,94.0695,-21.6305,882.506
0.058,-0.192335,-0.00766602,0.330352,0.0664505,0.0622742,-0.10429,0.05778,-0.100347,-0.100647,0.327447,0.023022,-0.182809,1.98691e-08,-4.56731e-09,0.3,-0.3,-6.17296,-16.5899,3.72148,179.673,-15.2807,3.26862,94.0628,-21.6381,882.053
0.059,-0.192335,-0.00766602,0.330352,0.0664505,0.0622742,-0.10429,0.05778,-0.100347,-0.100647,0.327447,0.023022,-0.182809,1.98691e-08,-4.56731e-09,0.3,-0.3,-6.37342,-17.0055,3.6847,179.915,-15.5968,3.21088,94.0562,-21.6457,881.59
0.06,-0.192335,-0.00766602,0.330352,0.0664505,0.0622742,-0.10429,0.05778,-0.100347,-0.100647,0.327447,0.023022,-0.182809,1.98691e-08,-4.56731e-09,0.3,-0.3,-6.57439,-17.4184,3.6392,180.159,-15.9115,3.14421,94.0495,-21.6533,881.118
0.061,-0.192335,-0.00766602,0.330352,0.0664505,0.0622742,-0.10429,0.05778,-0.100347,-0.100647,0.327447,0.023022,-0.182809,1.98691e-08,-4.56731e-09,0.3,-0.3,-6.77567,-17.8284,3.58458,180.404,-16.2243,3.06823,94.0429,-21.661,880.636
0.062,-0.192335,-0.00766602,0.330352,0.0664505,0.0622742,-0.10429,0.05778,-0.100347,-0.100647,0.327447,0.023022,-0.182809,1.98691e-08,-4.56731e-09,0.3,-0.3,-7.05236,-18.386,3.49382,180.742,-16.6509,2.94788,94.0338,-21.6716,879.958
0.063,-0.192335,-0.00766602,0.330352,0.0664505,0.0622742,-0.10429,0.05778,-0.100347,-0.100647,0.327447,0.023022,-0.182809,1.98691e-08,-4.56731e-09,0.3,-0.3,-7.25355,-18.7874,3.41592,180.989,-16.9585,2.84831,94.0271,-21.6794,879.453
0.064,-0.192335,-0.00766602,0.330352,0.0664505,0.0622742,-0.10429,0.05778,-0.100347,-0.100647,0.327447,0.023022,-0.182809,1.98691e-08,-4.56731e-09,0.3,-0.3,-7.45434,-19.1847,3.3275,181.236,-17.2635,2.73815,94.0205,-21.6873,878.939
0.065,-0.192335,-0.00766602,0.330352,0.0664505,0.0622742,-0.10429,0.05778,-0.100347,-0.100647,0.327447,0.023022,-0.182809,1.98691e-08,-4.56731e-09,0.3,-0.3,-7.6545,-19.5776,3.22813,181.483,-17.5656,2.61699,94.0139,-21.6951,878.414
0.066,-0.192335,-0.00766602,0.330352,0.0664505,0.0622742,-0.10429,0.05778,-0.100347,-0.100647,0.327447,0.023022,-0.182809,1.98691e-08,-4.56731e-09,0.3,-0.3,-7.85382,-19.9657,3.11737,181.729,-17.8646,2.48443,94.0072,-21.7031,877.881
0.067,-0.192335,-0.00766602,0.330352,0.0664505,0.0622742,-0.10429,0.05778,-0.100347,-0.100647,0.327447,0.023022,-0.182809,1.98691e-08,-4.56731e-09,0.3,-0.3,-8.05207,-20.3487,2.99476,181.975,-18.1601,2.34006,94.0006,-21.7111,877.337
0.068,-0.192335,-0.00766602,0.330352,0.0664505,0.0622742,-0.10429,0.05778,-0.100347,-0.100647,0.327447,0.023022,-0.182809,1.98691e-08,-4.56731e-09,0.3,-0.3,-8.249,-20.7263,2.85986,182.221,-18.4519,2.18344,93.9939,-21.7192,876.784
0.069,-0.192335,-0.00766602,0.330352,0.0664505,0.0622742,-0.10429,0.05778,-0.100347,-0.100647,0.327447,0.023022,-0.182809,1.98691e-08,-4.56731e-09,0.3,-0.3,-8.4444,-21.0982,2.71218,182.465,-18.7398,2.01417,93.9872,-21.7273,876.222
0.07,-0.192335,-0.00766602,0.330352,0.0664505,0.0622742,-0.10429,0.05778,-0.100347,-0.100647,0.327447,0.023022,-0.182809,1.98691e-08,-4.56731e-09,0.3,-0.3,-8.63801,-21.4641,2.55127,182.707,-19.0234,1.83178,93.9805,-21.7356,875.65
0.071,-0.192335,-0.00766602,0.330352,0.0664505,0.0622742,-0.10429,0.05778,-0.100347,-0.100647,0.327447,0.023022,-0.182809,1.98691e-08,-4.56731e-09,0.3,-0.3,-8.82959,-21.8237,2.37664,182.949,-19.3026,1.63585,93.9738,-21.7439,875.069
0.072,-0.192335,-0.00766602,0.330352,0.0664505,0.0622742,-0.10429,0.05778,-0.100347,-0.100647,0.327447,0.023022,-0.182809,1.98691e-08,-4.56731e-09,0.3,-0.3,-9.03266,-22.2023,2.17365,183.205,-19.597,1.41025,93.9665,-21.7529,874.434
0.073,-0.192335,-0.00766602,0.330352,0.0664505,0.0622742,-0.10429,0.05778,-0.100347,-0.100647,0.327447,0.023022,-0.182809,1.98691e-08,-4.56731e-09,0.3,-0.3,-9.21926,-22.5477,1.96902,183.442,-19.866,1.18481,93.9597,-21.7614,873.833
0.074,-0.192335,-0.00766602,0.330352,0.0664505,0.0622742,-0.10429,0.05778,-0.100347,-0.100647,0.327447,0.023022,-0.182809,1.98691e-08,-4.56731e-09,0.3,-0.3,-9.40307,-22.886,1.74914,183.676,-20.1298,0.94442,93.9529,-21.7699,873.222
0.075,-0.192335,-0.00766602,0.330352,0.0664505,0.0622742,-0.10429,0.05778,-0.100347,-0.100647,0.327447,0.023022,-0.182809,1.98691e-08,-4.56731e-09,0.3,-0.3,-9.58531,-23.2152,1.51368,183.796,-20.2265,0.743879,93.933,-21.7732,872.619
0.076,-0.192335,-0.00766602,0.330352,0.0664505,0.0622742,-0.10429,0.05778,-0.100347,-0.100647,0.327447,0.023022,-0.182809,1.98691e-08,-4.56731e-09,0.3,-0.3,-9.76164,-23.5347,1.28776,183.866,-20.2586,0.563719,93.9042,-21.7763,872.033
0.077,-0.192335,-0.00766602,0.330352,0.0664505,0.0622742,-0.10429,0.05778,-0.100347,-0.100647,0.327447,0.023022,-0.182809,1.98691e-08,-4.56731e-09,0.3,-0.3,-9.94333,-23.8423,1.07636,183.93,-20.2873,0.389696,93.8701,-21.7819,871.463
0.078,-0.192335,-0.00766602,0.330352,0.0664505,0.0622742,-0.10429,0.05778,-0.100347,-0.100647,0.327447,0.023022,-0.182809,1.98691e-08,-4.56731e-09,0.3,-0.3,-10.1377,-24.1354,0.877893,183.946,-20.2948,0.35442,93.8204,-21.7706,870.972
0.079,-0.192335,-0.00766602,0.330352,0.0664505,0.0622742,-0.10429,0.05778,-0.100347,-0.100647,0.327447,0.023022,-0.182809,1.98691e-08,-4.56731e-09,0.3,-0.3,-10.319,-24.3914,0.753321,183.946,-20.2947,0.377584,93.7616,-21.7526,870.547
0.08,-0.192335,-0.00766602,0.330352,0.0664505,0.0622742,-0.10429,0.05778,-0.100347,-0.100647,0.327447,0.023022,-0.182809,1.98691e-08,-4.56731e-09,0.3,-0.3,-10.487,-24.5916,0.68495,183.946,-20.2947,0.400433,93.6956,-21.7359,870.17
0.081,-0.192335,-0.00766602,0.330352,0.0664505,0.0622742,-0.10429,0.05778,-0.100347,-0.100647,0.327447,0.023022,-0.182809,1.98691e-08,-4.56731e-09,0.3,-0.3,-10.6518,-24.7379,0.660513,183.946,-20.2947,0.419146,93.6212,-21.7214,869.841
0.082,-0.192335,-0.00766602,0.330352,0.0664505,0.0622742,-0.10429,0.05778,-0.100347,-0.100647,0.327447,0.023022,-0.182809,1.98691e-08,-4.56731e-09,0.3,-0.3,-10.7191,-24.7853,0.661097,183.946,-20.2947,0.425753,93.589,-21.7162,869.718
0.083,-0.192335,-0.00766602,0.330352,0.0664505,0.0622742,-0.10429,0.05778,-0.100347,-0.100647,0.327447,0.023022,-0.182809,1.98691e-08,-4.56731e-09,0.3,-0.3,-10.8909,-24.8693,0.694908,183.948,-20.2953,0.438938,93.5026,-21.7059,869.446
0.084,-0.192335,-0.00766602,0.330352,0.0664505,0.0622742,-0.10429,0.05778,-0.100347,-0.100647,0.327447,0.023022,-0.182809,1.98691e-08,-4.56731e-09,0.3,-0.3,-11.0741,-24.9232,0.761645,183.964,-20.3016,0.448029,93.41,-21.6976,869.196
0.085,-0.192335,-0.00766602,0.330352,0.0664505,0.0622742,-0.10429,0.05778,-0.100347,-0.100647,0.327447,0.023022,-0.182809,1.98691e-08,-4.56731e-09,0.3,-0.3,-11.2808,-24.9452,0.834615,183.998,-20.3165,0.456381,93.3136,-21.6915,868.957
0.086,-0.192335,-0.00766602,0.330352,0.0664505,0.0622742,-0.10429,0.05778,-0.100347,-0.100647,0.327447,0.023022,-0.182809,1.98691e-08,-4.56731e-09,0.3,-0.3,-11.5104,-24.9421,0.902169,184.037,-20.3337,0.463074,93.2129,-21.6873,868.726
0.087,-0.192335,-0.00766602,0.330352,0.0664505,0.0622742,-0.10429,0.05778,-0.100347,-0.100647,0.327447,0.023022,-0.182809,1.98691e-08,-4.56731e-09,0.3,-0.3,-11.7605,-24.92,0.963901,184.076,-20.3506,0.467583,93.1077,-21.6849,868.502
0.088,-0.192335,-0.00766602,0.330352,0.0664505,0.0622742,-0.10429,0.05778,-0.100347,-0.100647,0.327447,0.023022,-0.182809,1.98691e-08,-4.56731e-09,0.3,-0.3,-12.0282,-24.8818,1.02052,184.112,-20.3658,0.469748,92.9981,-21.6846,868.286
0.089,-0.192335,-0.00766602,0.330352,0.0664505,0.0622742,-0.10429,0.05778,-0.100347,-0.100647,0.327447,0.023022,-0.182809,1.98691e-08,-4.56731e-09,0.3,-0.3,-12.3098,-24.8292,1.07264,184.142,-20.3788,0.469549,92.8842,-21.6868,868.077
0.09,-0.192335,-0.00766602,0.330352,0.0664505,0.0622742,-0.10429,0.05778,-0.100347,-0.100647,0.327447,0.023022,-0.182809,1.98691e-08,-4.56731e-09,0.3,-0.3,-12.6013,-24.7637,1.12067,184.166,-20.3895,0.467102,92.7663,-21.6918,867.878
0.091,-0.192335,-0.00766602,0.330352,0.0664505,0.0622742,-0.10429,0.05778,-0.100347,-0.100647,0.327447,0.023022,-0.182809,1.98691e-08,-4.56731e-09,0.3,-0.3,-12.8986,-24.6868,1.16481,184.186,-20.398,0.462587,92.6447,-21.7001,867.688
0.092,-0.192335,-0.00766602,0.330352,0.0664505,0.0622742,-0.10429,0.05778,-0.100347,-0.100647,0.327447,0.023022,-0.182809,1.98691e-08,-4.56731e-09,0.3,-0.3,-13.4066,-24.5342,1.2311,184.208,-20.4073,0.450489,92.43,-21.7227,867.389
0.093,-0.192335,-0.00766602,0.330352,0.0664505,0.0622742,-0.10429,0.05778,-0.100347,-0.100647,0.327447,0.023022,-0.182809,1.98691e-08,-4.56731e-09,0.3,-0.3,-13.7002,-24.4344,1.26473,184.209,-20.408,0.442797,92.2993,-21.7396,867.231
0.094,-0.192335,-0.00766602,0.330352,0.0664505,0.0622742,-0.10429,0.05778,-0.100347,-0.100647,0.327447,0.023022,-0.182809,1.98691e-08,-4.56731e-09,0.3,-0.3,-13.986,-24.3272,1.29686,184.209,-20.4081,0.437782,92.1657,-21.7562,867.086
0.095,-0.192335,-0.00766602,0.330352,0.0664505,0.0622742,-0.10429,0.05778,-0.100347,-0.100647,0.327447,0.023022,-0.182809,1.98691e-08,-4.56731e-09,0.3,-0.3,-14.2592,-24.2117,1.32848,184.209,-20.4081,0.432156,92.0301,-21.7724,866.954
0.096,-0.192335,-0.00766602,0.330352,0.0664505,0.0622742,-0.10429,0.05778,-0.100347,-0.100647,0.327447,0.023022,-0.182809,1.98691e-08,-4.56731e-09,0.3,-0.3,-14.5199,-24.0873,1.35336,184.209,-20.408,0.425623,91.8926,-21.7891,866.835
0.097,-0.192335,-0.00766602,0.330352,0.0664505,0.0622742,-0.10429,0.05778,-0.100347,-0.100647,0.327447,0.023022,-0.182809,1.98691e-08,-4.56731e-09,0.3,-0.3,-14.7659,-23.955,1.37084,184.209,-20.408,0.418369,91.7537,-21.8074,866.728
0.098,-0.192335,-0.00766602,0.330352,0.0664505,0.0622742,-0.10429,0.05778,-0.100347,-0.100647,0.327447,0.023022,-0.182809,1.98691e-08,-4.56731e-09,0.3,-0.3,-14.9942,-23.8171,1.38175,184.209,-20.408,0.410435,91.6134,-21.8283,866.634
0.099,-0.192335,-0.00766602,0.330352,0.0664505,0.0622742,-0.10429,0.05778,-0.100347,-0.100647,0.327447,0.023022,-0.182809,1.98691e-08,-4.56731e-09,0.3,-0.3,-15.202,-23.6763,1.38649,184.209,-20.408,0.401863,91.4721,-21.8526,866.555
0.1,-0.192335,-0.00766602,0.330352,0.0664505,0.0622742,-0.10429,0.05778,-0.100347,-0.100647,0.327447,0.023022,-0.182809,1.98691e-08,-4.56731e-09,0.3,-0.3,-15.3872,-23.5356,1.3852,184.209,-20.408,0.392672,91.3297,-21.8811,866.492
0.101,-0.192335,-0.00766602,0.330352,0.0664505,0.0622742,-0.10429,0.05778,-0.100347,-0.100647,0.327447,0.023022,-0.182809,1.98691e-08,-4.56731e-09,0.3,-0.3,-15.5479,-23.3977,1.37787,184.209,-20.4079,0.382874,91.1865,-21.9145,866.443
0.102,-0.192335,-0.00766602,0.330352,0.0664505,0.0622742,-0.10429,0.05778,-0.100347,-0.100647,0.327447,0.023022,-0.182809,1.98691e-08,-4.56731e-09,0.3,-0.3,-15.6491,-23.2989,1.36817,184.209,-20.4079,0.375168,91.0795,-21.943,866.419
0.103,-0.192335,-0.00766602,0.330352,0.0664505,0.0622742,-0.10429,0.05778,-0.100347,-0.100647,0.327447,0.023022,-0.182809,1.98691e-08,-4.56731e-09,0.3,-0.3,-15.7635,-23.1732,1.35221,184.208,-20.4079,0.364864,90.9358,-21.9839,866.395
0.104,-0.192335,-0.00766602,0.330352,0.0664505,0.0622742,-0.10429,0.05778,-0.100347,-0.100647,0.327447,0.023022,-0.182809,1.98691e-08,-4.56731e-09,0.3,-0.3,-15.8498,-23.0647,1.33772,184.213,-20.4057,0.3571,90.7933,-22.026,866.377
0.105,-0.192335,-0.00766602,0.330352,0.0664505,0.0622742,-0.10429,0.05778,-0.100347,-0.100647,0.327447,0.023022,-0.182809,1.98691e-08,-4.56731e-09,0.3,-0.3,-15.9106,-22.9782,1.32618,184.222,-20.4011,0.353184,90.6521,-22.0686,866.363
0.106,-0.192335,-0.00766602,0.330352,0.0664505,0.0622742,-0.10429,0.05778,-0.100347,-0.100647,0.327447,0.023022,-0.182809,1.98691e-08,-4.56731e-09,0.3,-0.3,-15.9482,-22.9121,1.31631,184.233,-20.3955,0.351023,90.5119,-22.1118,866.353
0.107,-0.192335,-0.00766602,0.330352,0.0664505,0.0622742,-0.10429,0.05778,-0.100347,-0.100647,0.327447,0.023022,-0.182809,1.98691e-08,-4.56731e-09,0.3,-0.3,-15.9654,-22.8644,1.30496,184.246,-20.3895,0.349318,90.3727,-22.1558,866.343
0.108,-0.192335,-0.00766602,0.330352,0.0664505,0.0622742,-0.10429,0.05778,-0.100347,-0.100647,0.327447,0.023022,-0.182809,1.98691e-08,-4.56731e-09,0.3,-0.3,-15.965,-22.8332,1.28908,184.258,-20.3834,0.347988,90.2343,-22.2004,866.332
0.109,-0.192335,-0.00766602,0.330352,0.0664505,0.0622742,-0.10429,0.05778,-0.100347,-0.100647,0.327447,0.023022,-0.182809,1.98691e-08,-4.56731e-09,0.3,-0.3,-15.9492,-22.8168,1.26803,184.27,-20.3777,0.346838,90.0965,-22.2456,866.319
0.11,-0.192335,-0.00766602,0.330352,0.0664505,0.0622742,-0.10429,0.05778,-0.100347,-0.100647,0.327447,0.023022,-0.182809,1.98691e-08,-4.56731e-09,0.3,-0.3,-15.9201,-22.8136,1.24196,184.281,-20.3723,0.345732,89.9591,-22.2912,866.305
0.111,-0.192335,-0.00766602,0.330352,0.0664505,0.0622742,-0.10429,0.05778,-0.100347,-0.100647,0.327447,0.023022,-0.182809,1.98691e-08,-4.56731e-09,0.3,-0.3,-15.8798,-22.8219,1.21129,184.291,-20.3673,0.344597,89.8218,-22.3369,866.289
0.112,-0.192335,-0.00766602,0.330352,0.0664505,0.0622742,-0.10429,0.05778,-0.100347,-0.100647,0.327447,0.023022,-0.182809,1.98691e-08,-4.56731e-09,0.3,-0.3,-15.812,-22.8474,1.1639,184.304,-20.3608,0.342909,89.6373,-22.3981,866.267
0.113,-0.192335,-0.00766602,0.330352,0.0664505,0.0622742,-0.10429,0.05778,-0.100347,-0.100647,0.327447,0.023022,-0.182809,1.98691e-08,-4.56731e-09,0.3,-0.3,-15.7528,-22.8759,1.12407,184.313,-20.3563,0.34144,89.4995,-22.4433,866.249
0.114,-0.192335,-0.00766602,0.330352,0.0664505,0.0622742,-0.10429,0.05778,-0.100347,-0.100647,0.327447,0.023022,-0.182809,1.98691e-08,-4.56731e-09,0.3,-0.3,-15.6886,-22.9099,1.08108,184.322,-20.3519,0.339764,89.3612,-22.4879,866.229
0.115,-0.192335,-0.00766602,0.330352,0.0664505,0.0622742,-0.10429,0.05778,-0.100347,-0.100647,0.327447,0.023022,-0.182809,1.98691e-08,-4.56731e-09,0.3,-0.3,-15.6208,-22.9478,1.03532,184.331,-20.3477,0.337805,89.2221,-22.5318,866.21
0.116,-0.192335,-0.00766602,0.330352,0.0664505,0.0622742,-0.10429,0.05778,-0.100347,-0.100647,0.327447,0.023022,-0.182809,1.98691e-08,-4.56731e-09,0.3,-0.3,-15.5508,-22.9881,0.987214,184.34,-20.3436,0.335539,89.0821,-22.5749,866.189
0.117,-0.192335,-0.00766602,0.330352,0.0664505,0.0622742,-0.10429,0.05778,-0.100347,-0.100647,0.327447,0.023022,-0.182809,1.98691e-08,-4.56731e-09,0.3,-0.3,-15.4797,-23.0295,0.937173,184.348,-20.3395,0.332945,88.9411,-22.6169,866.168
0.118,-0.192335,-0.00766602,0.330352,0.0664505,0.0622742,-0.10429,0.05778,-0.100347,-0.100647,0.327447,0.023022,-0.182809,1.98691e-08,-4.56731e-09,0.3,-0.3,-15.4085,-23.0707,0.885561,184.356,-20.3355,0.329992,88.7989,-22.6578,866.146
0.119,-0.192335,-0.00766602,0.330352,0.0664505,0.0622742,-0.10429,0.05778,-0.100347,-0.100647,0.327447,0.023022,-0.182809,1.98691e-08,-4.56731e-09,0.3,-0.3,-15.3381,-23.1108,0.832684,184.364,-20.3316,0.326651,88.6553,-22.6973,866.123
0.12,-0.192335,-0.00766602,0.330352,0.0664505,0.0622742,-0.10429,0.05778,-0.100347,-0.100647,0.327447,0.023022,-0.182809,1.98691e-08,-4.56731e-09,0.3,-0.3,-15.2691,-23.1489,0.778887,184.372,-20.3278,0.322897,88.5102,-22.7356,866.101
0.121,-0.192335,-0.00766602,0.330352,0.0664505,0.0622742,-0.10429,0.05778,-0.100347,-0.100647,0.327447,0.023022,-0.182809,1.98691e-08,-4.56731e-09,0.3,-0.3,-15.2022,-23.1844,0.724482,184.38,-20.324,0.318731,88.3636,-22.7724,866.077
0.122,-0.192335,-0.00766602,0.330352,0.0664505,0.0622742,-0.10429,0.05778,-0.100347,-0.100647,0.327447,0.023022,-0.182809,1.98691e-08,-4.56731e-09,0.3,-0.3,-15.1476,-23.2118,0.678043,184.386,-20.3209,0.314846,88.2379,-22.8024,866.057
0.123,-0.192335,-0.00766602,0.330352,0.0664505,0.0622742,-0.10429,0.05778,-0.100347,-0.100647,0.327447,0.023022,-0.182809,1.98691e-08,-4.56731e-09,0.3,-0.3,-15.0858,-23.241,0.623147,184.394,-20.3172,0.309895,88.0882,-22.8364,866.033
0.124,-0.192335,-0.00766602,0.330352,0.0664505,0.0622742,-0.10429,0.05778,-0.100347,-0.100647,0.327447,0.023022,-0.182809,1.98691e-08,-4.56731e-09,0.3,-0.3,-15.0273,-23.2664,0.568267,184.401,-20.3136,0.304522,87.9368,-22.8689,866.008
0.125,-0.192335,-0.00766602,0.330352,0.0664505,0.0622742,-0.10429,0.05778,-0.100347,-0.100647,0.327447,0.023022,-0.182809,1.98691e-08,-4.56731e-09,0.3,-0.3,-14.9723,-23.2876,0.513535,184.408,-20.3101,0.298719,87.7836,-22.8998,865.983
0.126,-0.192335,-0.00766602,0.330352,0.0664505,0.0622742,-0.10429,0.05778,-0.100347,-0.100647,0.327447,0.023022,-0.182809,1.98691e-08,-4.56731e-09,0.3,-0.3,-14.9209,-23.3045,0.459073,184.416,-20.3066,0.292494,87.6286,-22.9292,865.958
0.127,-0.192335,-0.00766602,0.330352,0.0664505,0.0622742,-0.10429,0.05778,-0.100347,-0.100647,0.327447,0.023022,-0.182809,1.98691e-08,-4.56731e-09,0.3,-0.3,-14.8734,-23.3172,0.404978,184.423,-20.3031,0.285849,87.4718,-22.9569,865.933
0.128,-0.192335,-0.00766602,0.330352,0.0664505,0.0622742,-0.10429,0.05778,-0.100347,-0.100647,0.327447,0.023022,-0.182809,1.98691e-08,-4.56731e-09,0.3,-0.3,-14.8296,-23.3255,0.351316,184.43,-20.2997,0.27879,87.3131,-22.9831,865.907
0.129,-0.192335,-0.00766602,0.330352,0.0664505,0.0622742,-0.10429,0.05778,-0.100347,-0.100647,0.327447,0.023022,-0.182809,1.98691e-08,-4.56731e-09,0.3,-0.3,-14.7898,-23.3297,0.298127,184.437,-20.2964,0.271326,87.1527,-23.0077,865.881
0.13,-0.192335,-0.00766602,0.330352,0.0664505,0.0622742,-0.10429,0.05778,-0.100347,-0.100647,0.327447,0.023022,-0.182809,1.98691e-08,-4.56731e-09,0.3,-0.3,-14.7537,-23.3299,0.245425,184.443,-20.2931,0.263462,86.9904,-23.0308,865.855
0.131,-0.192335,-0.00766602,0.330352,0.0664505,0.0622742,-0.10429,0.05778,-0.100347,-0.100647,0.327447,0.023022,-0.182809,1.98691e-08,-4.56731e-09,0.3,-0.3,-14.7214,-23.3262,0.193204,184.45,-20.2898,0.255213,86.8263,-23.0523,865.828
0.132,-0.192335,-0.00766602,0.330352,0.0664505,0.0622742,-0.10429,0.05778,-0.100347,-0.100647,0.327447,0.023022,-0.182809,1.98691e-08,-4.56731e-09,0.3,-0.3,-14.7125,-23.3247,0.178276,184.452,-20.2889,0.252796,86.7789,-23.0584,865.82
0.133,-0.192335,-0.00766602,0.330352,0.0664505,0.0622742,-0.10429,0.05778,-0.100347,-0.100647,0.327447,0.023022,-0.182809,1.98691e-08,-4.56731e-09,0.3,-0.3,-14.686,-23.3161,0.12814,184.458,-20.2857,0.244743,86.6125,-23.0779,865.794
0.134,-0.192335,-0.00766602,0.330352,0.0664505,0.0622742,-0.10429,0.05778,-0.100347,-0.100647,0.327447,0.023022,-0.182809,1.98691e-08,-4.56731e-09,0.3,-0.3,-14.679,-23.3009,0.103431,184.46,-20.2838,0.248272,86.4453,-23.0946,865.782
0.135,-0.192335,-0.00766602,0.330352,0.0664505,0.0622742,-0.10429,0.05778,-0.100347,-0.100647,0.327447,0.023022,-0.182809,1.98691e-08,-4.56731e-09,0.3,-0.3,-14.6681,-23.2957,0.102332,184.459,-20.2815,0.271408,86.2818,-23.1082,865.788
0.136,-0.192335,-0.00766602,0.330352,0.0664505,0.0622742,-0.10429,0.05778,-0.100347,-0.100647,0.327447,0.023022,-0.182809,1.98691e-08,-4.56731e-09,0.3,-0.3,-14.6592,-23.2968,0.111513,184.456,-20.278,0.307047,86.1199,-23.1203,865.807
0.137,-0.192335,-0.00766602,0.330352,0.0664505,0.0622742,-0.10429,0.05778,-0.100347,-0.100647,0.327447,0.023022,-0.182809,1.98691e-08,-4.56731e-09,0.3,-0.3,-14.6512,-23.2995,0.118707,184.452,-20.2747,0.353138,85.9597,-23.131,865.837
0.138,-0.192335,-0.00766602,0.330352,0.0664505,0.0622742,-0.10429,0.05778,-0.100347,-0.100647,0.327447,0.023022,-0.182809,1.98691e-08,-4.56731e-09,0.3,-0.3,-14.6438,-23.3036,0.126041,184.449,-20.272,0.403275,85.8013,-23.1404,865.873
0.139,-0.192335,-0.00766602,0.330352,0.0664505,0.0622742,-0.10429,0.05778,-0.100347,-0.100647,0.327447,0.023022,-0.182809,1.98691e-08,-4.56731e-09,0.3,-0.3,-14.6361,-23.3081,0.132031,184.448,-20.2704,0.454592,85.6446,-23.1485,865.91
0.14,-0.192335,-0.00766602,0.330352,0.0664505,0.0622742,-0.10429,0.05778,-0.100347,-0.100647,0.327447,0.023022,-0.182809,1.98691e-08,-4.56731e-09,0.3,-0.3,-14.6281,-23.3125,0.137729,184.451,-20.2703,0.505695,85.4898,-23.1553,865.947
0.141,-0.192335,-0.00766602,0.330352,0.0664505,0.0622742,-0.10429,0.05778,-0.100347,-0.100647,0.327447,0.023022,-0.182809,1.98691e-08,-4.56731e-09,0.3,-0.3,-14.62,-23.3168,0.144322,184.457,-20.272,0.556114,85.3368,-23.1608,865.982
0.142,-0.192335,-0.00766602,0.330352,0.0664505,0.0622742,-0.10429,0.05778,-0.100347,-0.100647,0.327447,0.023022,-0.182809,1.98691e-08,-4.56731e-09,0.3,-0.3,-14.6108,-23.3214,0.154117,184.468,-20.2768,0.614647,85.1585,-23.1657,866.023
0.143,-0.192335,-0.00766602,0.330352,0.0664505,0.0622742,-0.10429,0.05778,-0.100347,-0.100647,0.327447,0.023022,-0.182809,1.98691e-08,-4.56731e-09,0.3,-0.3,-14.6035,-23.325,0.164003,184.48,-20.2833,0.663343,85.0095,-23.1686,866.056
0.144,-0.192335,-0.00766602,0.330352,0.0664505,0.0622742,-0.10429,0.05778,-0.100347,-0.100647,0.327447,0.023022,-0.182809,1.98691e-08,-4.56731e-09,0.3,-0.3,-14.5969,-23.3281,0.17525,184.496,-20.292,0.711239,84.8624,-23.1704,866.089
0.145,-0.192335,-0.00766602,0.330352,0.0664505,0.0622742,-0.10429,0.05778,-0.100347,-0.100647,0.327447,0.023022,-0.182809,1.98691e-08,-4.56731e-09,0.3,-0.3,-14.5909,-23.3309,0.187586,184.513,-20.3031,0.758312,84.7171,-23.1711,866.12
0.146,-0.192335,-0.00766602,0.330352,0.0664505,0.0622742,-0.10429,0.05778,-0.100347,-0.100647,0.327447,0.023022,-0.182809,1.98691e-08,-4.56731e-09,0.3,-0.3,-14.5859,-23.3332,0.200706,184.533,-20.3163,0.804537,84.5735,-23.1708,866.151
0.147,-0.192335,-0.00766602,0.330352,0.0664505,0.0622742,-0.10429,0.05778,-0.100347,-0.100647,0.327447,0.023022,-0.182809,1.98691e-08,-4.56731e-09,0.3,-0.3,-14.5816,-23.335,0.214315,184.555,-20.3316,0.849884,84.4317,-23.1695,866.181
0.148,-0.192335,-0.00766602,0.330352,0.0664505,0.0622742,-0.10429,0.05778,-0.100347,-0.100647,0.327447,0.023022,-0.182809,1.98691e-08,-4.56731e-09,0.3,-0.3,-14.5782,-23.3364,0.228135,184.579,-20.3488,0.894333,84.2915,-23.1673,866.21
0.149,-0.192335,-0.00766602,0.330352,0.0664505,0.0622742,-0.10429,0.05778,-0.100347,-0.100647,0.327447,0.023022,-0.182809,1.98691e-08,-4.56731e-09,0.3,-0.3,-14.5756,-23.3374,0.241917,184.604,-20.3675,0.93787,84.1529,-23.164,866.238
0.15,-0.192335,-0.00766602,0.330352,0.0664505,0.0622742,-0.10429,0.05778,-0.100347,-0.100647,0.327447,0.023022,-0.182809,1.98691e-08,-4.56731e-09,0.3,-0.3,-14.5737,-23.3381,0.255445,184.63,-20.3876,0.980486,84.0159,-23.1599,866.265
0.151,-0.192335,-0.00766602,0.330352,0.0664505,0.0622742,-0.10429,0.05778,-0.100347,-0.100647,0.327447,0.023022,-0.182809,1.98691e-08,-4.56731e-09,0.3,-0.3,-14.5725,-23.3385,0.268537,184.656,-20.4088,1.02218,83.8804,-23.1547,866.292
0.152,-0.192335,-0.00766602,0.330352,0.0664505,0.0622742,-0.10429,0.05778,-0.100347,-0.100647,0.327447,0.023022,-0.182809,1.98691e-08,-4.56731e-09,0.3,-0.3,-14.5717,-23.3386,0.289844,184.703,-20.4473,1.09234,83.649,-23.1436,866.336
0.153,-0.192335,-0.00766602,0.330352,0.0664505,0.0622742,-0.10429,0.05778,-0.100347,-0.100647,0.327447,0.023022,-0.182809,1.98691e-08,-4.56731e-09,0.3,-0.3,-14.5718,-23.3384,0.301104,184.73,-20.4701,1.13155,83.5175,-23.1358,866.361
0.154,-0.192335,-0.00766602,0.330352,0.0664505,0.0622742,-0.10429,0.05778,-0.100347,-0.100647,0.327447,0.023022,-0.182809,1.98691e-08,-4.56731e-09,0.3,-0.3,-14.5722,-23.3382,0.311551,184.757,-20.4929,1.16987,83.3873,-23.1269,866.384
0.155,-0.192335,-0.00766602,0.330352,0.0664505,0.0622742,-0.10429,0.05778,-0.100347,-0.100647,0.327447,0.023022,-0.182809,1.98691e-08,-4.56731e-09,0.3,-0.3,-14.5727,-23.338,0.321156,184.783,-20.5155,1.20734,83.2585,-23.117,866.407
0.156,-0.192335,-0.00766602,0.330352,0.0664505,0.0622742,-0.10429,0.05778,-0.100347,-0.100647,0.327447,0.023022,-0.182809,1.98691e-08,-4.56731e-09,0.3,-0.3,-14.5731,-23.3378,0.329915,184.809,-20.5377,1.24397,83.1309,-23.106,866.43
0.157,-0.192335,-0.00766602,0.330352,0.0664505,0.0622742,-0.10429,0.05778,-0.100347,-0.100647,0.327447,0.023022,-0.182809,1.98691e-08,-4.56731e-09,0.3,-0.3,-14.5734,-23.3377,0.337842,184.833,-20.5594,1.27978,83.0046,-23.0939,866.452
0.158,-0.192335,-0.00766602,0.330352,0.0664505,0.0622742,-0.10429,0.05778,-0.100347,-0.100647,0.327447,0.023022,-0.182809,1.98691e-08,-4.56731e-09,0.3,-0.3,-14.5734,-23.3378,0.344969,184.857,-20.5802,1.31479,82.8796,-23.0806,866.473
0.159,-0.192335,-0.00766602,0.330352,0.0664505,0.0622742,-0.10429,0.05778,-0.100347,-0.100647,0.327447,0.023022,-0.182809,1.98691e-08,-4.56731e-09,0.3,-0.3,-14.5731,-23.338,0.351338,184.88,-20.6001,1.34905,82.7558,-23.0662,866.493
0.16,-0.192335,-0.00766602,0.330352,0.0664505,0.0622742,-0.10429,0.05778,-0.100347,-0.100647,0.327447,0.023022,-0.182809,1.98691e-08,-4.56731e-09,0.3,-0.3,-14.5723,-23.3385,0.357002,184.901,-20.619,1.38256,82.6332,-23.0506,866.513
0.161,-0.192335,-0.00766602,0.330352,0.0664505,0.0622742,-0.10429,0.05778,-0.100347,-0.100647,0.327447,0.023022,-0.182809,1.98691e-08,-4.56731e-09,0.3,-0.3,-14.571,-23.3393,0.362017,184.921,-20.6367,1.41537,82.5118,-23.0337,866.532
0.162,-0.192335,-0.00766602,0.330352,0.0664505,0.0622742,-0.10429,0.05778,-0.100347,-0.100647,0.327447,0.023022,-0.182809,1.98691e-08,-4.56731e-09,0.3,-0.3,-14.5705,-23.3395,0.363174,184.926,-20.641,1.4237,82.4806,-23.029,866.537
0.163,-0.192335,-0.00766602,0.330352,0.0664505,0.0622742,-0.10429,0.05778,-0.100347,-0.100647,0.327447,0.023022,-0.182809,1.98691e-08,-4.56731e-09,0.3,-0.3,-14.5684,-23.3406,0.367462,184.945,-20.6573,1.45564,82.3607,-23.0106,866.556
0.164,-0.192335,-0.00766602,0.330352,0.0664505,0.0622742,-0.10429,0.05778,-0.100347,-0.100647,0.327447,0.023022,-0.182809,1.98691e-08,-4.56731e-09,0.3,-0.3,-14.5656,-23.342,0.371236,184.962,-20.6724,1.48693,82.2421,-22.991,866.574
0.165,-0.192335,-0.00766602,0.330352,0.0664505,0.0622742,-0.10429,0.05778,-0.100347,-0.100647,0.327447,0.023022,-0.182809,1.98691e-08,-4.56731e-09,0.3,-0.3,-14.5622,-23.3437,0.374552,184.977,-20.6864,1.51758,82.1246,-22.9701,866.592
0.166,-0.192335,-0.00766602,0.330352,0.0664505,0.0622742,-0.10429,0.05778,-0.100347,-0.100647,0.327447,0.023022,-0.182809,1.98691e-08,-4.56731e-09,0.3,-0.3,-14.5581,-23.3456,0.377464,184.992,-20.6992,1.54762,82.0084,-22.9479,866.609
0.167,-0.192335,-0.00766602,0.330352,0.0664505,0.0622742,-0.10429,0.05778,-0.100347,-0.100647,0.327447,0.023022,-0.182809,1.98691e-08,-4.56731e-09,0.3,-0.3,-14.5533,-23.3479,0.38002,185.005,-20.7109,1.57707,81.8933,-22.9244,866.626
0.168,-0.192335,-0.00766602,0.330352,0.0664505,0.0622742,-0.10429,0.05778,-0.100347,-0.100647,0.327447,0.023022,-0.182809,1.98691e-08,-4.56731e-09,0.3,-0.3,-14.5478,-23.3504,0.382262,185.017,-20.7216,1.60595,81.7795,-22.8997,866.643
0.169,-0.192335,-0.00766602,0.330352,0.0664505,0.0622742,-0.10429,0.05778,-0.100347,-0.100647,0.327447,0.023022,-0.182809,1.98691e-08,-4.56731e-09,0.3,-0.3,-14.5417,-23.3532,0.384226,185.028,-20.7314,1.63426,81.6669,-22.8737,866.659
0.17,-0.192335,-0.00766602,0.330352,0.0664505,0.0622742,-0.10429,0.05778,-0.100347,-0.100647,0.327447,0.023022,-0.182809,1.98691e-08,-4.56731e-09,0.3,-0.3,-14.535,-23.3562,0.385944,185.037,-20.7404,1.66203,81.5556,-22.8465,866.675
0.171,-0.192335,-0.00766602,0.330352,0.0664505,0.0622742,-0.10429,0.05778,-0.100347,-0.100647,0.327447,0.023022,-0.182809,1.98691e-08,-4.56731e-09,0.3,-0.3,-14.5277,-23.3594,0.38744,185.046,-20.7486,1.68927,81.4455,-22.8181,866.69
0.172,-0.192335,-0.00766602,0.330352,0.0664505,0.0622742,-0.10429,0.05778,-0.100347,-0.100647,0.327447,0.023022,-0.182809,1.98691e-08,-4.56731e-09,0.3,-0.3,-14.5146,-23.3652,0.389488,185.059,-20.7611,1.73334,81.2657,-22.7682,866.714
0.173,-0.192335,-0.00766602,0.330352,0.0664505,0.0622742,-0.10429,0.05778,-0.100347,-0.100647,0.327447,0.023022,-0.182809,1.98691e-08,-4.56731e-09,0.3,-0.3,-14.5061,-23.3689,0.390473,185.066,-20.7681,1.75921,81.159,-22.7365,866.729
0.174,-0.192335,-0.00766602,0.330352,0.0664505,0.0622742,-0.10429,0.05778,-0.100347,-0.100647,0.327447,0.023022,-0.182809,1.98691e-08,-4.56731e-09,0.3,-0.3,-14.4973,-23.3727,0.391281,185.073,-20.7748,1.78458,81.0537,-22.7036,866.743
0.175,-0.192335,-0.00766602,0.330352,0.0664505,0.0622742,-0.10429,0.05778,-0.100347,-0.100647,0.327447,0.023022,-0.182809,1.98691e-08,-4.56731e-09,0.3,-0.3,-14.4882,-23.3766,0.391915,185.079,-20.7813,1.80946,80.9497,-22.6696,866.756
0.176,-0.192335,-0.00766602,0.330352,0.0664505,0.0622742,-0.10429,0.05778,-0.100347,-0.100647,0.327447,0.023022,-0.182809,1.98691e-08,-4.56731e-09,0.3,-0.3,-14.4789,-23.3806,0.392375,185.084,-20.7877,1.83384,80.8469,-22.6344,866.769
0.177,-0.192335,-0.00766602,0.330352,0.0664505,0.0622742,-0.10429,0.05778,-0.100347,-0.100647,0.327447,0.023022,-0.182809,1.98691e-08,-4.56731e-09,0.3,-0.3,-14.4695,-23.3846,0.392658,185.09,-20.7942,1.85773,80.7456,-22.598,866.782
0.178,-0.192335,-0.00766602,0.330352,0.0664505,0.0622742,-0.10429,0.05778,-0.100347,-0.100647,0.327447,0.023022,-0.182809,1.98691e-08,-4.56731e-09,0.3,-0.3,-14.46,-23.3887,0.392759,185.095,-20.8009,1.88112,80.6455,-22.5605,866.794
0.179,-0.192335,-0.00766602,0.330352,0.0664505,0.0622742,-0.10429,0.05778,-0.100347,-0.100647,0.327447,0.023022,-0.182809,1.98691e-08,-4.56731e-09,0.3,-0.3,-14.4504,-23.3927,0.39267,185.1,-20.8077,1.90403,80.5469,-22.5218,866.806
0.18,-0.192335,-0.00766602,0.330352,0.0664505,0.0622742,-0.10429,0.05778,-0.100347,-0.100647,0.327447,0.023022,-0.182809,1.98691e-08,-4.56731e-09,0.3,-0.3,-14.4409,-23.3967,0.392385,185.106,-20.8148,1.92645,80.4495,-22.4821,866.818
0.181,-0.192335,-0.00766602,0.330352,0.0664505,0.0622742,-0.10429,0.05778,-0.100347,-0.100647,0.327447,0.023022,-0.182809,1.98691e-08,-4.56731e-09,0.3,-0.3,-14.4314,-23.4007,0.391896,185.111,-20.8223,1.94837,80.3535,-22.4412,866.829
0.182,-0.192335,-0.00766602,0.330352,0.0664505,0.0622742,-0.10429,0.05778,-0.100347,-0.100647,0.327447,0.023022,-0.182809,1.98691e-08,-4.56731e-09,0.3,-0.3,-14.4242,-23.4038,0.391357,185.116,-20.8283,1.96502,80.2801,-22.4087,866.837
0.183,-0.192335,-0.00766602,0.330352,0.0664505,0.0622742,-0.10429,0.05778,-0.100347,-0.100647,0.327447,0.023022,-0.182809,1.98691e-08,-4.56731e-09,0.3,-0.3,-14.4149,-23.4077,0.390484,185.121,-20.8365,1.98606,80.1865,-22.3659,866.848
0.184,-0.192335,-0.00766602,0.330352,0.0664505,0.0622742,-0.10429,0.05778,-0.100347,-0.100647,0.327447,0.023022,-0.182809,1.98691e-08,-4.56731e-09,0.3,-0.3,-14.4085,-23.4115,0.401138,185.126,-20.8456,2.00948,80.0933,-22.3243,866.86
0.185,-0.192335,-0.00766602,0.330352,0.0664505,0.0622742,-0.10429,0.05778,-0.100347,-0.100647,0.327447,0.023022,-0.182809,1.98691e-08,-4.56731e-09,0.3,-0.3,-14.4118,-23.4155,0.421112,185.128,-20.8567,2.03558,80.0016,-22.2835,866.876
0.186,-0.192335,-0.00766602,0.330352,0.0664505,0.0622742,-0.10429,0.05778,-0.100347,-0.100647,0.327447,0.023022,-0.182809,1.98691e-08,-4.56731e-09,0.3,-0.3,-14.4201,-23.4185,0.440441,185.128,-20.87,2.06315,79.9116,-22.2434,866.895
0.187,-0.192335,-0.00766602,0.330352,0.0664505,0.0622742,-0.10429,0.05778,-0.100347,-0.100647,0.327447,0.023022,-0.182809,1.98691e-08,-4.56731e-09,0.3,-0.3,-14.4292,-23.4209,0.455602,185.127,-20.8856,2.09088,79.8227,-22.2045,866.914
0.188,-0.192335,-0.00766602,0.330352,0.0664505,0.0622742,-0.10429,0.05778,-0.100347,-0.100647,0.327447,0.023022,-0.182809,1.98691e-08,-4.56731e-09,0.3,-0.3,-14.4386,-23.4231,0.467219,185.124,-20.9033,2.11797,79.735,-22.1669,866.933
0.189,-0.192335,-0.00766602,0.330352,0.0664505,0.0622742,-0.10429,0.05778,-0.100347,-0.100647,0.327447,0.023022,-0.182809,1.98691e-08,-4.56731e-09,0.3,-0.3,-14.4477,-23.4251,0.47658,185.121,-20.9231,2.14423,79.6487,-22.1307,866.951
0.19,-0.192335,-0.00766602,0.330352,0.0664505,0.0622742,-0.10429,0.05778,-0.100347,-0.100647,0.327447,0.023022,-0.182809,1.98691e-08,-4.56731e-09,0.3,-0.3,-14.4561,-23.4271,0.48472,185.117,-20.9448,2.16971,79.5636,-22.0961,866.968
0.191,-0.192335,-0.00766602,0.330352,0.0664505,0.0622742,-0.10429,0.05778,-0.100347,-0.100647,0.327447,0.023022,-0.182809,1.98691e-08,-4.56731e-09,0.3,-0.3,-14.4638,-23.4289,0.492344,185.113,-20.9682,2.19456,79.4799,-22.063,866.985
0.192,-0.192335,-0.00766602,0.330352,0.0664505,0.0622742,-0.10429,0.05778,-0.100347,-0.100647,0.327447,0.023022,-0.182809,1.98691e-08,-4.56731e-09,0.3,-0.3,-14.4673,-23.4298,0.496,185.11,-20.98,2.20646,79.4397,-22.0474,866.993
0.193,-0.192335,-0.00766602,0.330352,0.0664505,0.0622742,-0.10429,0.05778,-0.100347,-0.100647,0.327447,0.023022,-0.182809,1.98691e-08,-4.56731e-09,0.3,-0.3,-14.4738,-23.4316,0.503616,185.105,-21.0053,2.2306,79.358,-22.0166,867.009
0.194,-0.192335,-0.00766602,0.330352,0.0664505,0.0622742,-0.10429,0.05778,-0.100347,-0.100647,0.327447,0.023022,-0.182809,1.98691e-08,-4.56731e-09,0.3,-0.3,-14.4794,-23.4332,0.511512,185.099,-21.0314,2.25439,79.2776,-21.9872,867.025
0.195,-0.192335,-0.00766602,0.330352,0.0664505,0.0622742,-0.10429,0.05778,-0.100347,-0.100647,0.327447,0.023022,-0.182809,1.98691e-08,-4.56731e-09,0.3,-0.3,-14.4842,-23.4348,0.519779,185.092,-21.058,2.27786,79.1985,-21.9593,867.041
0.196,-0.192335,-0.00766602,0.330352,0.0664505,0.0622742,-0.10429,0.05778,-0.100347,-0.100647,0.327447,0.023022,-0.182809,1.98691e-08,-4.56731e-09,0.3,-0.3,-14.4882,-23.4363,0.528437,185.085,-21.0847,2.30106,79.1208,-21.9328,867.057
0.197,-0.192335,-0.00766602,0.330352,0.0664505,0.0622742,-0.10429,0.05778,-0.100347,-0.100647,0.327447,0.023022,-0.182809,1.98691e-08,-4.56731e-09,0.3,-0.3,-14.4922,-23.4379,0.537465,185.077,-21.1112,2.32397,79.0443,-21.9075,867.072
0.198,-0.192335,-0.00766602,0.330352,0.0664505,0.0622742,-0.10429,0.05778,-0.100347,-0.100647,0.327447,0.023022,-0.182809,1.98691e-08,-4.56731e-09,0.3,-0.3,-14.4959,-23.4396,0.546735,185.068,-21.1373,2.34661,78.9692,-21.8835,867.087
0.199,-0.192335,-0.00766602,0.330352,0.0664505,0.0622742,-0.10429,0.05778,-0.100347,-0.100647,0.327447,0.023022,-0.182809,1.98691e-08,-4.56731e-09,0.3,-0.3,-14.4998,-23.4415,0.556227,185.059,-21.1626,2.36897,78.8954,-21.8607,867.102
0.2,-0.192335,-0.00766602,0.330352,0.0664505,0.0622742,-0.10429,0.05778,-0.100347,-0.100647,0.327447,0.023022,-0.182809,1.98691e-08,-4.56731e-09,0.3,-0.3,-14.5036,-23.4436,0.565889,185.05,-21.1871,2.39104,78.8229,-21.839,867.117
0.201,-0.192335,-0.00766602,0.330352,0.0664505,0.0622742,-0.10429,0.05778,-0.100347,-0.100647,0.327447,0.023022,-0.182809,1.98691e-08,-4.56731e-09,0.3,-0.3,-14.5067,-23.4454,0.575575,185.04,-21.2106,2.41284,78.7517,-21.8184,867.132
0.202,-0.192335,-0.00766602,0.330352,0.0664505,0.0622742,-0.10429,0.05778,-0.100347,-0.100647,0.327447,0.023022,-0.182809,1.98691e-08,-4.56731e-09,0.3,-0.3,-14.5129,-23.4486,0.592385,185.022,-21.2488,2.45022,78.6302,-21.7848,867.156
0.203,-0.192335,-0.00766602,0.330352,0.0664505,0.0622742,-0.10429,0.05778,-0.100347,-0.100647,0.327447,0.023022,-0.182809,1.98691e-08,-4.56731e-09,0.3,-0.3,-14.5168,-23.4507,0.601595,185.01,-21.2701,2.47003,78.5622,-21.7671,867.17
0.204,-0.192335,-0.00766602,0.330352,0.0664505,0.0622742,-0.10429,0.05778,-0.100347,-0.100647,0.327447,0.023022,-0.182809,1.98691e-08,-4.56731e-09,0.3,-0.3,-14.521,-23.4531,0.610099,184.997,-21.2912,2.48874,78.4953,-21.7504,867.182
0.205,-0.192335,-0.00766602,0.330352,0.0664505,0.0622742,-0.10429,0.05778,-0.100347,-0.100647,0.327447,0.023022,-0.182809,1.98691e-08,-4.56731e-09,0.3,-0.3,-14.5255,-23.4557,0.618195,184.982,-21.312,2.50665,78.4296,-21.7348,867.194
0.206,-0.192335,-0.00766602,0.330352,0.0664505,0.0622742,-0.10429,0.05778,-0.100347,-0.100647,0.327447,0.023022,-0.182809,1.98691e-08,-4.56731e-09,0.3,-0.3,-14.5304,-23.4584,0.625979,184.966,-21.3325,2.52397,78.3649,-21.7203,867.205
0.207,-0.192335,-0.00766602,0.330352,0.0664505,0.0622742,-0.10429,0.05778,-0.100347,-0.100647,0.327447,0.023022,-0.182809,1.98691e-08,-4.56731e-09,0.3,-0.3,-14.5357,-23.4612,0.633433,184.949,-21.3524,2.54079,78.3014,-21.7068,867.216
0.208,-0.192335,-0.00766602,0.330352,0.0664505,0.0622742,-0.10429,0.05778,-0.100347,-0.100647,0.327447,0.023022,-0.182809,1.98691e-08,-4.56731e-09,0.3,-0.3,-14.5414,-23.4641,0.640527,184.931,-21.3719,2.55718,78.2391,-21.6943,867.226
0.209,-0.192335,-0.00766602,0.330352,0.0664505,0.0622742,-0.10429,0.05778,-0.100347,-0.100647,0.327447,0.023022,-0.182809,1.98691e-08,-4.56731e-09,0.3,-0.3,-14.5474,-23.467,0.647246,184.913,-21.3908,2.57319,78.178,-21.6828,867.237
0.21,-0.192335,-0.00766602,0.330352,0.0664505,0.0622742,-0.10429,0.05778,-0.100347,-0.100647,0.327447,0.023022,-0.182809,1.98691e-08,-4.56731e-09,0.3,-0.3,-14.5538,-23.47,0.653592,184.894,-21.4091,2.58882,78.1182,-21.6724,867.247
0.211,-0.192335,-0.00766602,0.330352,0.0664505,0.0622742,-0.10429,0.05778,-0.100347,-0.100647,0.327447,0.023022,-0.182809,1.98691e-08,-4.56731e-09,0.3,-0.3,-14.5606,-23.4731,0.659579,184.875,-21.4269,2.6041,78.0597,-21.663,867.257
0.212,-0.192335,-0.00766602,0.330352,0.0664505,0.0622742,-0.10429,0.05778,-0.100347,-0.100647,0.327447,0.023022,-0.182809,1.98691e-08,-4.56731e-09,0.3,-0.3,-14.5681,-23.4766,0.665672,184.854,-21.4455,2.62021,77.998,-21.654,867.267
0.213,-0.192335,-0.00766602,0.330352,0.0664505,0.0622742,-0.10429,0.05778,-0.100347,-0.100647,0.327447,0.023022,-0.182809,1.98691e-08,-4.56731e-09,0.3,-0.3,-14.5753,-23.4798,0.670979,184.836,-21.4622,2.63477,77.9423,-21.6468,867.276
0.214,-0.192335,-0.00766602,0.330352,0.0664505,0.0622742,-0.10429,0.05778,-0.100347,-0.100647,0.327447,0.023022,-0.182809,1.98691e-08,-4.56731e-09,0.3,-0.3,-14.5828,-23.4831,0.675995,184.817,-21.4784,2.649,77.888,-21.6407,867.286
0.215,-0.192335,-0.00766602,0.330352,0.0664505,0.0622742,-0.10429,0.05778,-0.100347,-0.100647,0.327447,0.023022,-0.182809,1.98691e-08,-4.56731e-09,0.3,-0.3,-14.5904,-23.4865,0.680737,184.8,-21.4942,2.6629,77.8351,-21.6357,867.295
0.216,-0.192335,-0.00766602,0.330352,0.0664505,0.0622742,-0.10429,0.05778,-0.100347,-0.100647,0.327447,0.023022,-0.182809,1.98691e-08,-4.56731e-09,0.3,-0.3,-14.5981,-23.4899,0.685224,184.782,-21.5096,2.67645,77.7837,-21.6317,867.303
0.217,-0.192335,-0.00766602,0.330352,0.0664505,0.0622742,-0.10429,0.05778,-0.100347,-0.100647,0.327447,0.023022,-0.182809,1.98691e-08,-4.56731e-09,0.3,-0.3,-14.606,-23.4933,0.689469,184.766,-21.5246,2.68965,77.7337,-21.6288,867.312
0.218,-0.192335,-0.00766602,0.330352,0.0664505,0.0622742,-0.10429,0.05778,-0.100347,-0.100647,0.327447,0.023022,-0.182809,1.98691e-08,-4.56731e-09,0.3,-0.3,-14.6139,-23.4968,0.693483,184.751,-21.5393,2.7025,77.6851,-21.6271,867.32
0.219,-0.192335,-0.00766602,0.330352,0.0664505,0.0622742,-0.10429,0.05778,-0.100347,-0.100647,0.327447,0.023022,-0.182809,1.98691e-08,-4.56731e-09,0.3,-0.3,-14.6219,-23.5003,0.697274,184.736,-21.5537,2.71497,77.6381,-21.6264,867.328
0.22,-0.192335,-0.00766602,0.330352,0.0664505,0.0622742,-0.10429,0.05778,-0.100347,-0.100647,0.327447,0.023022,-0.182809,1.98691e-08,-4.56731e-09,0.3,-0.3,-14.6299,-23.5038,0.700846,184.723,-21.5679,2.72707,77.5925,-21.6268,867.336
0.221,-0.192335,-0.00766602,0.330352,0.0664505,0.0622742,-0.10429,0.05778,-0.100347,-0.100647,0.327447,0.023022,-0.182809,1.98691e-08,-4.56731e-09,0.3,-0.3,-14.6379,-23.5074,0.704203,184.71,-21.5819,2.73876,77.5485,-21.6284,867.343
0.222,-0.192335,-0.00766602,0.330352,0.0664505,0.0622742,-0.10429,0.05778,-0.100347,-0.100647,0.327447,0.023022,-0.182809,1.98691e-08,-4.56731e-09,0.3,-0.3,-14.6416,-23.5091,0.705666,184.705,-21.5883,2.74401,77.5287,-21.6296,867.347
0.223,-0.192335,-0.00766602,0.330352,0.0664505,0.0622742,-0.10429,0.05778,-0.100347,-0.100647,0.327447,0.023022,-0.182809,1.98691e-08,-4.56731e-09,0.3,-0.3,-14.6496,-23.5127,0.708707,184.694,-21.6021,2.7551,77.4868,-21.6327,867.353
0.224,-0.192335,-0.00766602,0.330352,0.0664505,0.0622742,-0.10429,0.05778,-0.100347,-0.100647,0.327447,0.023022,-0.182809,1.98691e-08,-4.56731e-09,0.3,-0.3,-14.6576,-23.5163,0.711532,184.684,-21.6158,2.76575,77.4464,-21.637,867.36
0.225,-0.192335,-0.00766602,0.330352,0.0664505,0.0622742,-0.10429,0.05778,-0.100347,-0.100647,0.327447,0.023022,-0.182809,1.98691e-08,-4.56731e-09,0.3,-0.3,-14.6656,-23.5199,0.714138,184.675,-21.6293,2.77595,77.4075,-21.6424,867.366
0.226,-0.192335,-0.00766602,0.330352,0.0664505,0.0622742,-0.10429,0.05778,-0.100347,-0.100647,0.327447,0.023022,-0.182809,1.98691e-08,-4.56731e-09,0.3,-0.3,-14.6735,-23.5235,0.716521,184.667,-21.6429,2.78568,77.3701,-21.6489,867.372
0.227,-0.192335,-0.00766602,0.330352,0.0664505,0.0622742,-0.10429,0.05778,-0.100347,-0.100647,0.327447,0.023022,-0.182809,1.98691e-08,-4.56731e-09,0.3,-0.3,-14.6814,-23.5271,0.718678,184.659,-21.6563,2.79493,77.3341,-21.6565,867.378
0.228,-0.192335,-0.00766602,0.330352,0.0664505,0.0622742,-0.10429,0.05778,-0.100347,-0.100647,0.327447,0.023022,-0.182809,1.98691e-08,-4.56731e-09,0.3,-0.3,-14.6893,-23.5307,0.720606,184.653,-21.6698,2.80369,77.2996,-21.6653,867.383
0.229,-0.192335,-0.00766602,0.330352,0.0664505,0.0622742,-0.10429,0.05778,-0.100347,-0.100647,0.327447,0.023022,-0.182809,1.98691e-08,-4.56731e-09,0.3,-0.3,-14.6971,-23.5343,0.7223,184.647,-21.6833,2.81194,77.2665,-21.6751,867.388
0.23,-0.192335,-0.00766602,0.330352,0.0664505,0.0622742,-0.10429,0.05778,-0.100347,-0.100647,0.327447,0.023022,-0.182809,1.98691e-08,-4.56731e-09,0.3,-0.3,-14.7049,-23.5379,0.723757,184.642,-21.6968,2.81967,77.2349,-21.6861,867.393
0.231,-0.192335,-0.00766602,0.330352,0.0664505,0.0622742,-0.10429,0.05778,-0.100347,-0.100647,0.327447,0.023022,-0.182809,1.98691e-08,-4.56731e-09,0.3,-0.3,-14.7126,-23.5415,0.724973,184.637,-21.7103,2.82686,77.2047,-21.6982,867.397
0.232,-0.192335,-0.00766602,0.330352,0.0664505,0.0622742,-0.10429,0.05778,-0.100347,-0.100647,0.327447,0.023022,-0.182809,1.98691e-08,-4.56731e-09,0.3,-0.3,-14.7243,-23.5469,0.726386,184.631,-21.7309,2.83684,77.1612,-21.7186,867.402
0.233,-0.192335,-0.00766602,0.330352,0.0664505,0.0622742,-0.10429,0.05778,-0.100347,-0.100647,0.327447,0.023022,-0.182809,1.98691e-08,-4.56731e-09,0.3,-0.3,-14.7319,-23.5505,0.726985,184.628,-21.7444,2.84266,77.1345,-21.7335,867.405
0.234,-0.192335,-0.00766602,0.330352,0.0664505,0.0622742,-0.10429,0.05778,-0.100347,-0.100647,0.327447,0.023022,-0.182809,1.98691e-08,-4.56731e-09,0.3,-0.3,-14.7395,-23.5541,0.727336,184.624,-21.7581,2.84792,77.1091,-21.7495,867.408
0.235,-0.192335,-0.00766602,0.330352,0.0664505,0.0622742,-0.10429,0.05778,-0.100347,-0.100647,0.327447,0.023022,-0.182809,1.98691e-08,-4.56731e-09,0.3,-0.3,-14.747,-23.5576,0.727438,184.621,-21.7717,2.85261,77.0852,-21.7667,867.41
0.236,-0.192335,-0.00766602,0.330352,0.0664505,0.0622742,-0.10429,0.05778,-0.100347,-0.100647,0.327447,0.023022,-0.182809,1.98691e-08,-4.56731e-09,0.3,-0.3,-14.7545,-23.5612,0.727289,184.619,-21.7854,2.85673,77.0625,-21.7849,867.412
0.237,-0.192335,-0.00766602,0.330352,0.0664505,0.0622742,-0.10429,0.05778,-0.100347,-0.100647,0.327447,0.023022,-0.182809,1.98691e-08,-4.56731e-09,0.3,-0.3,-14.762,-23.5647,0.726889,184.616,-21.7991,2.86028,77.0412,-21.8042,867.414
0.238,-0.192335,-0.00766602,0.330352,0.0664505,0.0622742,-0.10429,0.05778,-0.100347,-0.100647,0.327447,0.023022,-0.182809,1.98691e-08,-4.56731e-09,0.3,-0.3,-14.7694,-23.5682,0.726238,184.613,-21.8129,2.86326,77.0213,-21.8247,867.415
0.239,-0.192335,-0.00766602,0.330352,0.0664505,0.0622742,-0.10429,0.05778,-0.100347,-0.100647,0.327447,0.023022,-0.182809,1.98691e-08,-4.56731e-09,0.3,-0.3,-14.7769,-23.5718,0.725334,184.61,-21.8267,2.86566,77.0026,-21.8463,867.415
0.24,-0.192335,-0.00766602,0.330352,0.0664505,0.0622742,-0.10429,0.05778,-0.100347,-0.100647,0.327447,0.023022,-0.182809,1.98691e-08,-4.56731e-09,0.3,-0.3,-14.7843,-23.5753,0.724178,184.608,-21.8405,2.86748,76.9853,-21.8689,867.416
0.241,-0.192335,-0.00766602,0.330352,0.0664505,0.0622742,-0.10429,0.05778,-0.100347,-0.100647,0.327447,0.023022,-0.182809,1.98691e-08,-4.56731e-09,0.3,-0.3,-14.7917,-23.5788,0.722771,184.605,-21.8543,2.86872,76.9692,-21.8927,867.415
0.242,-0.192335,-0.00766602,0.330352,0.0664505,0.0622742,-0.10429,0.05778,-0.100347,-0.100647,0.327447,0.023022,-0.182809,1.98691e-08,-4.56731e-09,0.3,-0.3,-14.7958,-23.5807,0.721868,184.603,-21.8619,2.86909,76.9612,-21.9063,867.415
0.243,-0.192335,-0.00766602,0.330352,0.0664505,0.0622742,-0.10429,0.05778,-0.100347,-0.100647,0.327447,0.023022,-0.182809,1.98691e-08,-4.56731e-09,0.3,-0.3,-14.8032,-23.5843,0.72007,184.6,-21.8757,2.86945,76.9471,-21.9318,867.414
0.244,-0.192335,-0.00766602,0.330352,0.0664505,0.0622742,-0.10429,0.05778,-0.100347,-0.100647,0.327447,0.023022,-0.182809,1.98691e-08,-4.56731e-09,0.3,-0.3,-14.8106,-23.5878,0.718021,184.597,-21.8896,2.86922,76.9343,-21.9584,867.413
0.245,-0.192335,-0.00766602,0.330352,0.0664505,0.0622742,-0.10429,0.05778,-0.100347,-0.100647,0.327447,0.023022,-0.182809,1.98691e-08,-4.56731e-09,0.3,-0.3,-14.818,-23.5913,0.715719,184.593,-21.9035,2.86842,76.9229,-21.9861,867.411
0.246,-0.192335,-0.00766602,0.330352,0.0664505,0.0622742,-0.10429,0.05778,-0.100347,-0.100647,0.327447,0.023022,-0.182809,1.98691e-08,-4.56731e-09,0.3,-0.3,-14.8254,-23.5949,0.713165,184.589,-21.9175,2.86705,76.9127,-22.0149,867.41
0.247,-0.192335,-0.00766602,0.330352,0.0664505,0.0622742,-0.10429,0.05778,-0.100347,-0.100647,0.327447,0.023022,-0.182809,1.98691e-08,-4.56731e-09,0.3,-0.3,-14.8328,-23.5984,0.710359,184.585,-21.9314,2.8651,76.9037,-22.0449,867.407
0.248,-0.192335,-0.00766602,0.330352,0.0664505,0.0622742,-0.10429,0.05778,-0.100347,-0.100647,0.327447,0.023022,-0.182809,1.98691e-08,-4.56731e-09,0.3,-0.3,-14.8403,-23.602,0.7073,184.581,-21.9453,2.86259,76.8961,-22.0759,867.404
0.249,-0.192335,-0.00766602,0.330352,0.0664505,0.0622742,-0.10429,0.05778,-0.100347,-0.100647,0.327447,0.023022,-0.182809,1.98691e-08,-4.56731e-09,0.3,-0.3,-14.8478,-23.6055,0.703988,184.577,-21.9593,2.85951,76.8897,-22.1081,867.401
0.25,-0.192335,-0.00766602,0.330352,0.0664505,0.0622742,-0.10429,0.05778,-0.100347,-0.100647,0.327447,0.023022,-0.182809,1.98691e-08,-4.56731e-09,0.3,-0.3,-14.8553,-23.6091,0.700423,184.572,-21.9733,2.85586,76.8846,-22.1413,867.397
0.251,-0.192335,-0.00766602,0.330352,0.0664505,0.0622742,-0.10429,0.05778,-0.100347,-0.100647,0.327447,0.023022,-0.182809,1.98691e-08,-4.56731e-09,0.3,-0.3,-14.8628,-23.6127,0.696604,184.567,-21.9873,2.85165,76.8808,-22.1757,867.394
0.252,-0.192335,-0.00766602,0.330352,0.0664505,0.0622742,-0.10429,0.05778,-0.100347,-0.100647,0.327447,0.023022,-0.182809,1.98691e-08,-4.56731e-09,0.3,-0.3,-14.8666,-23.6145,0.694588,184.565,-21.9945,2.84935,76.8792,-22.1936,867.391
0.253,-0.192335,-0.00766602,0.330352,0.0664505,0.0622742,-0.10429,0.05778,-0.100347,-0.100647,0.327447,0.023022,-0.182809,1.98691e-08,-4.56731e-09,0.3,-0.3,-14.8742,-23.6181,0.690385,184.56,-22.0085,2.8443,76.8773,-22.2296,867.387
0.254,-0.192335,-0.00766602,0.330352,0.0664505,0.0622742,-0.10429,0.05778,-0.100347,-0.100647,0.327447,0.023022,-0.182809,1.98691e-08,-4.56731e-09,0.3,-0.3,-14.8818,-23.6217,0.685927,184.554,-22.0226,2.83868,76.8767,-22.2668,867.382
0.255,-0.192335,-0.00766602,0.330352,0.0664505,0.0622742,-0.10429,0.05778,-0.100347,-0.100647,0.327447,0.023022,-0.182809,1.98691e-08,-4.56731e-09,0.3,-0.3,-14.8894,-23.6253,0.681214,184.549,-22.0367,2.8325,76.8774,-22.3051,867.377
0.256,-0.192335,-0.00766602,0.330352,0.0664505,0.0622742,-0.10429,0.05778,-0.100347,-0.100647,0.327447,0.023022,-0.182809,1.98691e-08,-4.56731e-09,0.3,-0.3,-14.8971,-23.629,0.676244,184.543,-22.0508,2.82577,76.8793,-22.3444,867.371
0.257,-0.192335,-0.00766602,0.330352,0.0664505,0.0622742,-0.10429,0.05778,-0.100347,-0.100647,0.327447,0.023022,-0.182809,1.98691e-08,-4.56731e-09,0.3,-0.3,-14.9048,-23.6326,0.671017,184.537,-22.065,2.81848,76.8826,-22.3849,867.365
0.258,-0.192335,-0.00766602,0.330352,0.0664505,0.0622742,-0.10429,0.05778,-0.100347,-0.100647,0.327447,0.023022,-0.182809,1.98691e-08,-4.56731e-09,0.3,-0.3,-14.9125,-23.6363,0.665532,184.532,-22.0792,2.81063,76.8871,-22.4266,867.358
0.259,-0.192335,-0.00766602,0.330352,0.0664505,0.0622742,-0.10429,0.05778,-0.100347,-0.100647,0.327447,0.023022,-0.182809,1.98691e-08,-4.56731e-09,0.3,-0.3,-14.9203,-23.64,0.65979,184.525,-22.0935,2.80223,76.8929,-22.4693,867.351
0.26,-0.192335,-0.00766602,0.330352,0.0664505,0.0622742,-0.10429,0.05778,-0.100347,-0.100647,0.327447,0.023022,-0.182809,1.98691e-08,-4.56731e-09,0.3,-0.3,-14.9281,-23.6437,0.653788,184.519,-22.1078,2.79327,76.9,-22.5131,867.344
0.261,-0.192335,-0.00766602,0.330352,0.0664505,0.0622742,-0.10429,0.05778,-0.100347,-0.100647,0.327447,0.023022,-0.182809,1.98691e-08,-4.56731e-09,0.3,-0.3,-14.9359,-23.6474,0.647528,184.513,-22.1222,2.78376,76.9084,-22.5581,867.336
0.262,-0.192335,-0.00766602,0.330352,0.0664505,0.0622742,-0.10429,0.05778,-0.100347,-0.100647,0.327447,0.023022,-0.182809,1.98691e-08,-4.56731e-09,0.3,-0.3,-14.9474,-23.6529,0.637852,184.504,-22.1433,2.76875,76.9232,-22.6261,867.324
0.263,-0.192335,-0.00766602,0.330352,0.0664505,0.0622742,-0.10429,0.05778,-0.100347,-0.100647,0.327447,0.023022,-0.182809,1.98691e-08,-4.56731e-09,0.3,-0.3,-14.9553,-23.6566,0.630952,184.498,-22.1578,2.75787,76.9348,-22.6738,867.315
0.264,-0.192335,-0.00766602,0.330352,0.0664505,0.0622742,-0.10429,0.05778,-0.100347,-0.100647,0.327447,0.023022,-0.182809,1.98691e-08,-4.56731e-09,0.3,-0.3,-14.9632,-23.6604,0.623791,184.492,-22.1724,2.74643,76.9477,-22.7226,867.306
0.265,-0.192335,-0.00766602,0.330352,0.0664505,0.0622742,-0.10429,0.05778,-0.100347,-0.100647,0.327447,0.023022,-0.182809,1.98691e-08,-4.56731e-09,0.3,-0.3,-14.9712,-23.6642,0.616369,184.485,-22.187,2.73443,76.9619,-22.7726,867.297
0.266,-0.192335,-0.00766602,0.330352,0.0664505,0.0622742,-0.10429,0.05778,-0.100347,-0.100647,0.327447,0.023022,-0.182809,1.98691e-08,-4.56731e-09,0.3,-0.3,-14.9778,-23.6674,0.609679,184.479,-22.2017,2.72183,76.9774,-22.8236,867.287
0.267,-0.192335,-0.00766602,0.330352,0.0664505,0.0622742,-0.10429,0.05778,-0.100347,-0.100647,0.327447,0.023022,-0.182809,1.98691e-08,-4.56731e-09,0.3,-0.3,-14.9813,-23.6694,0.60582,184.472,-22.2164,2.70984,76.9944,-22.8754,867.278
0.268,-0.192335,-0.00766602,0.330352,0.0664505,0.0622742,-0.10429,0.05778,-0.100347,-0.100647,0.327447,0.023022,-0.182809,1.98691e-08,-4.56731e-09,0.3,-0.3,-14.9853,-23.6705,0.605448,184.465,-22.2297,2.70154,77.0134,-22.9262,867.271
0.269,-0.192335,-0.00766602,0.330352,0.0664505,0.0622742,-0.10429,0.05778,-0.100347,-0.100647,0.327447,0.023022,-0.182809,1.98691e-08,-4.56731e-09,0.3,-0.3,-14.987,-23.6736,0.61088,184.457,-22.2405,2.69786,77.0343,-22.9754,867.269
0.27,-0.192335,-0.00766602,0.330352,0.0664505,0.0622742,-0.10429,0.05778,-0.100347,-0.100647,0.327447,0.023022,-0.182809,1.98691e-08,-4.56731e-09,0.3,-0.3,-14.9841,-23.6789,0.617948,184.448,-22.2489,2.69676,77.0566,-23.0234,867.271
0.271,-0.192335,-0.00766602,0.330352,0.0664505,0.0622742,-0.10429,0.05778,-0.100347,-0.100647,0.327447,0.023022,-0.182809,1.98691e-08,-4.56731e-09,0.3,-0.3,-14.9811,-23.6842,0.619635,184.442,-22.2552,2.69645,77.0807,-23.0702,867.273
0.272,-0.192335,-0.00766602,0.330352,0.0664505,0.0622742,-0.10429,0.05778,-0.100347,-0.100647,0.327447,0.023022,-0.182809,1.98691e-08,-4.56731e-09,0.3,-0.3,-14.9761,-23.6919,0.614978,184.435,-22.2611,2.69578,77.1192,-23.1374,867.277
0.273,-0.192335,-0.00766602,0.330352,0.0664505,0.0622742,-0.10429,0.05778,-0.100347,-0.100647,0.327447,0.023022,-0.182809,1.98691e-08,-4.56731e-09,0.3,-0.3,-14.9722,-23.6969,0.608804,184.434,-22.2629,2.69481,77.1475,-23.181,867.279
0.274,-0.192335,-0.00766602,0.330352,0.0664505,0.0622742,-0.10429,0.05778,-0.100347,-0.100647,0.327447,0.023022,-0.182809,1.98691e-08,-4.56731e-09,0.3,-0.3,-14.9679,-23.7017,0.60175,184.435,-22.2635,2.69343,77.1774,-23.2231,867.281
0.275,-0.192335,-0.00766602,0.330352,0.0664505,0.0622742,-0.10429,0.05778,-0.100347,-0.100647,0.327447,0.023022,-0.182809,1.98691e-08,-4.56731e-09,0.3,-0.3,-14.9631,-23.7064,0.594557,184.439,-22.2629,2.69168,77.2091,-23.2638,867.282
0.276,-0.192335,-0.00766602,0.330352,0.0664505,0.0622742,-0.10429,0.05778,-0.100347,-0.100647,0.327447,0.023022,-0.182809,1.98691e-08,-4.56731e-09,0.3,-0.3,-14.958,-23.7109,0.587725,184.445,-22.2617,2.68955,77.2425,-23.3031,867.283
0.277,-0.192335,-0.00766602,0.330352,0.0664505,0.0622742,-0.10429,0.05778,-0.100347,-0.100647,0.327447,0.023022,-0.182809,1.98691e-08,-4.56731e-09,0.3,-0.3,-14.9525,-23.7152,0.581591,184.453,-22.2601,2.68706,77.2776,-23.341,867.283
0.278,-0.192335,-0.00766602,0.330352,0.0664505,0.0622742,-0.10429,0.05778,-0.100347,-0.100647,0.327447,0.023022,-0.182809,1.98691e-08,-4.56731e-09,0.3,-0.3,-14.9467,-23.7193,0.576368,184.463,-22.2583,2.68415,77.3143,-23.3774,867.283
0.279,-0.192335,-0.00766602,0.330352,0.0664505,0.0622742,-0.10429,0.05778,-0.100347,-0.100647,0.327447,0.023022,-0.182809,1.98691e-08,-4.56731e-09,0.3,-0.3,-14.9405,-23.7233,0.572173,184.474,-22.2566,2.68081,77.3526,-23.4126,867.283
0.28,-0.192335,-0.00766602,0.330352,0.0664505,0.0622742,-0.10429,0.05778,-0.100347,-0.100647,0.327447,0.023022,-0.182809,1.98691e-08,-4.56731e-09,0.3,-0.3,-14.9341,-23.7271,0.569042,184.488,-22.2553,2.677,77.3925,-23.4464,867.282
0.281,-0.192335,-0.00766602,0.330352,0.0664505,0.0622742,-0.10429,0.05778,-0.100347,-0.100647,0.327447,0.023022,-0.182809,1.98691e-08,-4.56731e-09,0.3,-0.3,-14.9274,-23.7307,0.566951,184.503,-22.2545,2.67268,77.4339,-23.4789,867.281
0.282,-0.192335,-0.00766602,0.330352,0.0664505,0.0622742,-0.10429,0.05778,-0.100347,-0.100647,0.327447,0.023022,-0.182809,1.98691e-08,-4.56731e-09,0.3,-0.3,-14.925,-23.7319,0.566535,184.508,-22.2544,2.67097,77.4491,-23.49,867.281
0.283,-0.192335,-0.00766602,0.330352,0.0664505,0.0622742,-0.10429,0.05778,-0.100347,-0.100647,0.327447,0.023022,-0.182809,1.98691e-08,-4.56731e-09,0.3,-0.3,-14.9181,-23.7353,0.565715,184.525,-22.2547,2.6659,77.4925,-23.5208,867.28
0.284,-0.192335,-0.00766602,0.330352,0.0664505,0.0622742,-0.10429,0.05778,-0.100347,-0.100647,0.327447,0.023022,-0.182809,1.98691e-08,-4.56731e-09,0.3,-0.3,-14.9111,-23.7385,0.565701,184.542,-22.2558,2.66026,77.5373,-23.5505,867.278
0.285,-0.192335,-0.00766602,0.330352,0.0664505,0.0622742,-0.10429,0.05778,-0.100347,-0.100647,0.327447,0.023022,-0.182809,1.98691e-08,-4.56731e-09,0.3,-0.3,-14.9041,-23.7416,0.566354,184.56,-22.258,2.65399,77.5835,-23.5791,867.275
0.286,-0.192335,-0.00766602,0.330352,0.0664505,0.0622742,-0.10429,0.05778,-0.100347,-0.100647,0.327447,0.023022,-0.182809,1.98691e-08,-4.56731e-09,0.3,-0.3,-14.897,-23.7445,0.567524,184.578,-22.2612,2.6471,77.631,-23.6065,867.273
0.287,-0.192335,-0.00766602,0.330352,0.0664505,0.0622742,-0.10429,0.05778,-0.100347,-0.100647,0.327447,0.023022,-0.182809,1.98691e-08,-4.56731e-09,0.3,-0.3,-14.8899,-23.7473,0.569058,184.596,-22.2655,2.63954,77.6798,-23.6328,867.269
0.288,-0.192335,-0.00766602,0.330352,0.0664505,0.0622742,-0.10429,0.05778,-0.100347,-0.100647,0.327447,0.023022,-0.182809,1.98691e-08,-4.56731e-09,0.3,-0.3,-14.8829,-23.75,0.570804,184.615,-22.2709,2.63131,77.7299,-23.6581,867.266
0.289,-0.192335,-0.00766602,0.330352,0.0664505,0.0622742,-0.10429,0.05778,-0.100347,-0.100647,0.327447,0.023022,-0.182809,1.98691e-08,-4.56731e-09,0.3,-0.3,-14.876,-23.7527,0.572623,184.633,-22.2774,2.6224,77.7811,-23.6824,867.261
0.29,-0.192335,-0.00766602,0.330352,0.0664505,0.0622742,-0.10429,0.05778,-0.100347,-0.100647,0.327447,0.023022,-0.182809,1.98691e-08,-4.56731e-09,0.3,-0.3,-14.8692,-23.7552,0.574386,184.651,-22.285,2.6128,77.8336,-23.7056,867.257
0.291,-0.192335,-0.00766602,0.330352,0.0664505,0.0622742,-0.10429,0.05778,-0.100347,-0.100647,0.327447,0.023022,-0.182809,1.98691e-08,-4.56731e-09,0.3,-0.3,-14.8625,-23.7577,0.57598,184.668,-22.2935,2.6025,77.8872,-23.7279,867.251
0.292,-0.192335,-0.00766602,0.330352,0.0664505,0.0622742,-0.10429,0.05778,-0.100347,-0.100647,0.327447,0.023022,-0.182809,1.98691e-08,-4.56731e-09,0.3,-0.3,-14.8546,-23.7607,0.577535,184.688,-22.3051,2.58919,77.9532,-23.7533,867.245
0.293,-0.192335,-0.00766602,0.330352,0.0664505,0.0622742,-0.10429,0.05778,-0.100347,-0.100647,0.327447,0.023022,-0.182809,1.98691e-08,-4.56731e-09,0.3,-0.3,-14.8481,-23.7631,0.578443,184.704,-22.3156,2.57736,78.0093,-23.7733,867.238
0.294,-0.192335,-0.00766602,0.330352,0.0664505,0.0622742,-0.10429,0.05778,-0.100347,-0.100647,0.327447,0.023022,-0.182809,1.98691e-08,-4.56731e-09,0.3,-0.3,-14.8418,-23.7655,0.578936,184.719,-22.3268,2.56484,78.0665,-23.7923,867.231
0.295,-0.192335,-0.00766602,0.330352,0.0664505,0.0622742,-0.10429,0.05778,-0.100347,-0.100647,0.327447,0.023022,-0.182809,1.98691e-08,-4.56731e-09,0.3,-0.3,-14.8356,-23.7679,0.57897,184.733,-22.3388,2.55165,78.1249,-23.8103,867.224
0.296,-0.192335,-0.00766602,0.330352,0.0664505,0.0622742,-0.10429,0.05778,-0.100347,-0.100647,0.327447,0.023022,-0.182809,1.98691e-08,-4.56731e-09,0.3,-0.3,-14.8295,-23.7703,0.578519,184.747,-22.3513,2.53778,78.1843,-23.8273,867.217
0.297,-0.192335,-0.00766602,0.330352,0.0664505,0.0622742,-0.10429,0.05778,-0.100347,-0.100647,0.327447,0.023022,-0.182809,1.98691e-08,-4.56731e-09,0.3,-0.3,-14.8235,-23.7727,0.577568,184.759,-22.3643,2.52326,78.2448,-23.8432,867.208
0.298,-0.192335,-0.00766602,0.330352,0.0664505,0.0622742,-0.10429,0.05778,-0.100347,-0.100647,0.327447,0.023022,-0.182809,1.98691e-08,-4.56731e-09,0.3,-0.3,-14.8176,-23.7751,0.576113,184.77,-22.3777,2.50809,78.3065,-23.8581,867.2
0.299,-0.192335,-0.00766602,0.330352,0.0664505,0.0622742,-0.10429,0.05778,-0.100347,-0.100647,0.327447,0.023022,-0.182809,1.98691e-08,-4.56731e-09,0.3,-0.3,-14.8117,-23.7775,0.574161,184.781,-22.3914,2.49228,78.3692,-23.8719,867.191
0.3,-0.192335,-0.00766602,0.330352,0.0664505,0.0622742,-0.10429,0.05778,-0.100347,-0.100647,0.327447,0.023022,-0.182809,1.98691e-08,-4.56731e-09,0.3,-0.3,-14.8059,-23.78,0.571726,184.79,-22.4054,2.47586,78.4331,-23.8846,867.181
0.301,-0.192335,-0.00766602,0.330352,0.0664505,0.0622742,-0.10429,0.05778,-0.100347,-0.100647,0.327447,0.023022,-0.182809,1.98691e-08,-4.56731e-09,0.3,-0.3,-14.8001,-23.7824,0.568826,184.798,-22.4196,2.45883,78.4981,-23.8963,867.171
0.302,-0.192335,-0.00766602,0.330352,0.0664505,0.0622742,-0.10429,0.05778,-0.100347,-0.100647,0.327447,0.023022,-0.182809,1.98691e-08,-4.56731e-09,0.3,-0.3,-14.7924,-23.7858,0.564235,184.809,-22.4391,2.43487,78.5877,-23.9104,867.157
0.303,-0.192335,-0.00766602,0.330352,0.0664505,0.0622742,-0.10429,0.05778,-0.100347,-0.100647,0.327447,0.023022,-0.182809,1.98691e-08,-4.56731e-09,0.3,-0.3,-14.7867,-23.7883,0.56025,184.815,-22.4541,2.41622,78.6554,-23.9195,867.146
0.304,-0.192335,-0.00766602,0.330352,0.0664505,0.0622742,-0.10429,0.05778,-0.100347,-0.100647,0.327447,0.023022,-0.182809,1.98691e-08,-4.56731e-09,0.3,-0.3,-14.7808,-23.791,0.555798,184.82,-22.4697,2.39679,78.7241,-23.9276,867.135
0.305,-0.192335,-0.00766602,0.330352,0.0664505,0.0622742,-0.10429,0.05778,-0.100347,-0.100647,0.327447,0.023022,-0.182809,1.98691e-08,-4.56731e-09,0.3,-0.3,-14.7747,-23.7937,0.550976,184.823,-22.4857,2.37669,78.7939,-23.9346,867.123
0.306,-0.192335,-0.00766602,0.330352,0.0664505,0.0622742,-0.10429,0.05778,-0.100347,-0.100647,0.327447,0.023022,-0.182809,1.98691e-08,-4.56731e-09,0.3,-0.3,-14.7686,-23.7965,0.545834,184.826,-22.5022,2.35599,78.8649,-23.9406,867.11
0.307,-0.192335,-0.00766602,0.330352,0.0664505,0.0622742,-0.10429,0.05778,-0.100347,-0.100647,0.327447,0.023022,-0.182809,1.98691e-08,-4.56731e-09,0.3,-0.3,-14.7623,-23.7994,0.540423,184.828,-22.5189,2.33471,78.937,-23.9454,867.097
0.308,-0.192335,-0.00766602,0.330352,0.0664505,0.0622742,-0.10429,0.05778,-0.100347,-0.100647,0.327447,0.023022,-0.182809,1.98691e-08,-4.56731e-09,0.3,-0.3,-14.756,-23.8024,0.534722,184.829,-22.5357,2.3129,79.0102,-23.9491,867.084
0.309,-0.192335,-0.00766602,0.330352,0.0664505,0.0622742,-0.10429,0.05778,-0.100347,-0.100647,0.327447,0.023022,-0.182809,1.98691e-08,-4.56731e-09,0.3,-0.3,-14.7497,-23.8053,0.528743,184.829,-22.5527,2.29057,79.0847,-23.9517,867.071
0.31,-0.192335,-0.00766602,0.330352,0.0664505,0.0622742,-0.10429,0.05778,-0.100347,-0.100647,0.327447,0.023022,-0.182809,1.98691e-08,-4.56731e-09,0.3,-0.3,-14.7431,-23.8084,0.522545,184.829,-22.5697,2.26773,79.1604,-23.9531,867.057
0.311,-0.192335,-0.00766602,0.330352,0.0664505,0.0622742,-0.10429,0.05778,-0.100347,-0.100647,0.327447,0.023022,-0.182809,1.98691e-08,-4.56731e-09,0.3,-0.3,-14.7365,-23.8116,0.516094,184.829,-22.5867,2.2444,79.2373,-23.9534,867.043
0.312,-0.192335,-0.00766602,0.330352,0.0664505,0.0622742,-0.10429,0.05778,-0.100347,-0.100647,0.327447,0.023022,-0.182809,1.98691e-08,-4.56731e-09,0.3,-0.3,-14.7324,-23.8135,0.512046,184.829,-22.597,2.22998,79.2848,-23.9529,867.034
0.313,-0.192335,-0.00766602,0.330352,0.0664505,0.0622742,-0.10429,0.05778,-0.100347,-0.100647,0.327447,0.023022,-0.182809,1.98691e-08,-4.56731e-09,0.3,-0.3,-14.7257,-23.8165,0.505234,184.829,-22.6139,2.20588,79.3638,-23.9513,867.019
0.314,-0.192335,-0.00766602,0.330352,0.0664505,0.0622742,-0.10429,0.05778,-0.100347,-0.100647,0.327447,0.023022,-0.182809,1.98691e-08,-4.56731e-09,0.3,-0.3,-14.7191,-23.8196,0.498219,184.829,-22.6306,2.18131,79.4441,-23.9486,867.004
0.315,-0.192335,-0.00766602,0.330352,0.0664505,0.0622742,-0.10429,0.05778,-0.100347,-0.100647,0.327447,0.023022,-0.182809,1.98691e-08,-4.56731e-09,0.3,-0.3,-14.7126,-23.8225,0.491007,184.829,-22.6471,2.15627,79.5258,-23.9446,866.988
0.316,-0.192335,-0.00766602,0.330352,0.0664505,0.0622742,-0.10429,0.05778,-0.100347,-0.100647,0.327447,0.023022,-0.182809,1.98691e-08,-4.56731e-09,0.3,-0.3,-14.706,-23.8256,0.483616,184.83,-22.6634,2.13074,79.6087,-23.9395,866.973
0.317,-0.192335,-0.00766602,0.330352,0.0664505,0.0622742,-0.10429,0.05778,-0.100347,-0.100647,0.327447,0.023022,-0.182809,1.98691e-08,-4.56731e-09,0.3,-0.3,-14.6993,-23.8288,0.476028,184.831,-22.6795,2.10472,79.693,-23.9332,866.956
0.318,-0.192335,-0.00766602,0.330352,0.0664505,0.0622742,-0.10429,0.05778,-0.100347,-0.100647,0.327447,0.023022,-0.182809,1.98691e-08,-4.56731e-09,0.3,-0.3,-14.6925,-23.8319,0.468214,184.832,-22.6954,2.07823,79.7787,-23.9258,866.94
0.319,-0.192335,-0.00766602,0.330352,0.0664505,0.0622742,-0.10429,0.05778,-0.100347,-0.100647,0.327447,0.023022,-0.182809,1.98691e-08,-4.56731e-09,0.3,-0.3,-14.6857,-23.835,0.460189,184.834,-22.711,2.05126,79.8657,-23.9171,866.923
0.32,-0.192335,-0.00766602,0.330352,0.0664505,0.0622742,-0.10429,0.05778,-0.100347,-0.100647,0.327447,0.023022,-0.182809,1.98691e-08,-4.56731e-09,0.3,-0.3,-14.679,-23.838,0.451956,184.836,-22.7263,2.02381,79.9541,-23.9073,866.906
0.321,-0.192335,-0.00766602,0.330352,0.0664505,0.0622742,-0.10429,0.05778,-0.100347,-0.100647,0.327447,0.023022,-0.182809,1.98691e-08,-4.56731e-09,0.3,-0.3,-14.6723,-23.841,0.443508,184.839,-22.7414,1.99585,80.0438,-23.8963,866.888
0.322,-0.192335,-0.00766602,0.330352,0.0664505,0.0622742,-0.10429,0.05778,-0.100347,-0.100647,0.327447,0.023022,-0.182809,1.98691e-08,-4.56731e-09,0.3,-0.3,-14.6669,-23.8434,0.436524,184.842,-22.7534,1.97291,80.1173,-23.8866,866.873
0.323,-0.192335,-0.00766602,0.330352,0.0664505,0.0622742,-0.10429,0.05778,-0.100347,-0.100647,0.327447,0.023022,-0.182809,1.98691e-08,-4.56731e-09,0.3,-0.3,-14.6603,-23.8462,0.427669,184.846,-22.768,1.94405,80.2095,-23.8735,866.855
0.324,-0.192335,-0.00766602,0.330352,0.0664505,0.0622742,-0.10429,0.05778,-0.100347,-0.100647,0.327447,0.023022,-0.182809,1.98691e-08,-4.56731e-09,0.3,-0.3,-14.6537,-23.8491,0.418594,184.85,-22.7824,1.91468,80.3031,-23.8592,866.836
0.325,-0.192335,-0.00766602,0.330352,0.0664505,0.0622742,-0.10429,0.05778,-0.100347,-0.100647,0.327447,0.023022,-0.182809,1.98691e-08,-4.56731e-09,0.3,-0.3,-14.6472,-23.8519,0.409303,184.855,-22.7965,1.88479,80.398,-23.8437,866.817
0.326,-0.192335,-0.00766602,0.330352,0.0664505,0.0622742,-0.10429,0.05778,-0.100347,-0.100647,0.327447,0.023022,-0.182809,1.98691e-08,-4.56731e-09,0.3,-0.3,-14.6404,-23.8548,0.399732,184.861,-22.8103,1.85438,80.4942,-23.8271,866.798
0.327,-0.192335,-0.00766602,0.330352,0.0664505,0.0622742,-0.10429,0.05778,-0.100347,-0.100647,0.327447,0.023022,-0.182809,1.98691e-08,-4.56731e-09,0.3,-0.3,-14.6337,-23.8578,0.389896,184.867,-22.824,1.82345,80.5919,-23.8093,866.778
0.328,-0.192335,-0.00766602,0.330352,0.0664505,0.0622742,-0.10429,0.05778,-0.100347,-0.100647,0.327447,0.023022,-0.182809,1.98691e-08,-4.56731e-09,0.3,-0.3,-14.6269,-23.8608,0.379789,184.873,-22.8373,1.79199,80.6908,-23.7903,866.757
0.329,-0.192335,-0.00766602,0.330352,0.0664505,0.0622742,-0.10429,0.05778,-0.100347,-0.100647,0.327447,0.023022,-0.182809,1.98691e-08,-4.56731e-09,0.3,-0.3,-14.6201,-23.8638,0.36941,184.88,-22.8505,1.75999,80.7911,-23.7702,866.737
0.33,-0.192335,-0.00766602,0.330352,0.0664505,0.0622742,-0.10429,0.05778,-0.100347,-0.100647,0.327447,0.023022,-0.182809,1.98691e-08,-4.56731e-09,0.3,-0.3,-14.6132,-23.8667,0.358754,184.887,-22.8635,1.72746,80.8927,-23.749,866.716
0.331,-0.192335,-0.00766602,0.330352,0.0664505,0.0622742,-0.10429,0.05778,-0.100347,-0.100647,0.327447,0.023022,-0.182809,1.98691e-08,-4.56731e-09,0.3,-0.3,-14.6064,-23.8697,0.347819,184.894,-22.8763,1.6944,80.9956,-23.7265,866.694
0.332,-0.192335,-0.00766602,0.330352,0.0664505,0.0622742,-0.10429,0.05778,-0.100347,-0.100647,0.327447,0.023022,-0.182809,1.98691e-08,-4.56731e-09,0.3,-0.3,-14.596,-23.8743,0.330853,184.906,-22.8953,1.64365,81.1529,-23.6907,866.661
0.333,-0.192335,-0.00766602,0.330352,0.0664505,0.0622742,-0.10429,0.05778,-0.100347,-0.100647,0.327447,0.023022,-0.182809,1.98691e-08,-4.56731e-09,0.3,-0.3,-14.5892,-23.8772,0.319319,184.915,-22.9078,1.60922,81.2591,-23.6654,866.638
0.334,-0.192335,-0.00766602,0.330352,0.0664505,0.0622742,-0.10429,0.05778,-0.100347,-0.100647,0.327447,0.023022,-0.182809,1.98691e-08,-4.56731e-09,0.3,-0.3,-14.5848,-23.8789,0.31047,184.923,-22.9201,1.57421,81.3667,-23.639,866.615
0.335,-0.192335,-0.00766602,0.330352,0.0664505,0.0622742,-0.10429,0.05778,-0.100347,-0.100647,0.327447,0.023022,-0.182809,1.98691e-08,-4.56731e-09,0.3,-0.3,-14.5801,-23.8812,0.305089,184.932,-22.9324,1.53853,81.4757,-23.6113,866.591
0.336,-0.192335,-0.00766602,0.330352,0.0664505,0.0622742,-0.10429,0.05778,-0.100347,-0.100647,0.327447,0.023022,-0.182809,1.98691e-08,-4.56731e-09,0.3,-0.3,-14.5744,-23.8845,0.303274,184.94,-22.9453,1.50468,81.5854,-23.5838,866.57
0.337,-0.192335,-0.00766602,0.330352,0.0664505,0.0622742,-0.10429,0.05778,-0.100347,-0.100647,0.327447,0.023022,-0.182809,1.98691e-08,-4.56731e-09,0.3,-0.3,-14.5725,-23.8868,0.303815,184.947,-22.9583,1.4709,81.6959,-23.557,866.548
0.338,-0.192335,-0.00766602,0.330352,0.0664505,0.0622742,-0.10429,0.05778,-0.100347,-0.100647,0.327447,0.023022,-0.182809,1.98691e-08,-4.56731e-09,0.3,-0.3,-14.5745,-23.8887,0.302275,184.952,-22.9718,1.43647,81.8077,-23.5309,866.527
0.339,-0.192335,-0.00766602,0.330352,0.0664505,0.0622742,-0.10429,0.05778,-0.100347,-0.100647,0.327447,0.023022,-0.182809,1.98691e-08,-4.56731e-09,0.3,-0.3,-14.5787,-23.8902,0.297738,184.957,-22.9865,1.40147,81.9207,-23.5058,866.506
0.34,-0.192335,-0.00766602,0.330352,0.0664505,0.0622742,-0.10429,0.05778,-0.100347,-0.100647,0.327447,0.023022,-0.182809,1.98691e-08,-4.56731e-09,0.3,-0.3,-14.5829,-23.8911,0.291078,184.961,-23.0024,1.36578,82.0348,-23.4818,866.485
0.341,-0.192335,-0.00766602,0.330352,0.0664505,0.0622742,-0.10429,0.05778,-0.100347,-0.100647,0.327447,0.023022,-0.182809,1.98691e-08,-4.56731e-09,0.3,-0.3,-14.5869,-23.8915,0.283031,184.963,-23.0195,1.32936,82.1501,-23.4592,866.463
0.342,-0.192335,-0.00766602,0.330352,0.0664505,0.0622742,-0.10429,0.05778,-0.100347,-0.100647,0.327447,0.023022,-0.182809,1.98691e-08,-4.56731e-09,0.3,-0.3,-14.5911,-23.892,0.273697,184.964,-23.0385,1.29115,82.2702,-23.4373,866.44
0.343,-0.192335,-0.00766602,0.330352,0.0664505,0.0622742,-0.10429,0.05778,-0.100347,-0.100647,0.327447,0.023022,-0.182809,1.98691e-08,-4.56731e-09,0.3,-0.3,-14.5958,-23.8928,0.263898,184.964,-23.0579,1.25355,82.388,-23.4176,866.417
0.344,-0.192335,-0.00766602,0.330352,0.0664505,0.0622742,-0.10429,0.05778,-0.100347,-0.100647,0.327447,0.023022,-0.182809,1.98691e-08,-4.56731e-09,0.3,-0.3,-14.6008,-23.894,0.253741,184.963,-23.078,1.21553,82.507,-23.3992,866.394
0.345,-0.192335,-0.00766602,0.330352,0.0664505,0.0622742,-0.10429,0.05778,-0.100347,-0.100647,0.327447,0.023022,-0.182809,1.98691e-08,-4.56731e-09,0.3,-0.3,-14.6055,-23.8951,0.243854,184.961,-23.0987,1.17715,82.6273,-23.3823,866.37
0.346,-0.192335,-0.00766602,0.330352,0.0664505,0.0622742,-0.10429,0.05778,-0.100347,-0.100647,0.327447,0.023022,-0.182809,1.98691e-08,-4.56731e-09,0.3,-0.3,-14.6095,-23.8962,0.234437,184.958,-23.1195,1.13847,82.7488,-23.3668,866.347
0.347,-0.192335,-0.00766602,0.330352,0.0664505,0.0622742,-0.10429,0.05778,-0.100347,-0.100647,0.327447,0.023022,-0.182809,1.98691e-08,-4.56731e-09,0.3,-0.3,-14.6131,-23.8973,0.225537,184.954,-23.1402,1.09951,82.8715,-23.3527,866.323
0.348,-0.192335,-0.00766602,0.330352,0.0664505,0.0622742,-0.10429,0.05778,-0.100347,-0.100647,0.327447,0.023022,-0.182809,1.98691e-08,-4.56731e-09,0.3,-0.3,-14.6162,-23.8985,0.217139,184.949,-23.1605,1.06031,82.9955,-23.3398,866.3
0.349,-0.192335,-0.00766602,0.330352,0.0664505,0.0622742,-0.10429,0.05778,-0.100347,-0.100647,0.327447,0.023022,-0.182809,1.98691e-08,-4.56731e-09,0.3,-0.3,-14.6188,-23.8996,0.209194,184.942,-23.1803,1.02085,83.1208,-23.3282,866.276
0.35,-0.192335,-0.00766602,0.330352,0.0664505,0.0622742,-0.10429,0.05778,-0.100347,-0.100647,0.327447,0.023022,-0.182809,1.98691e-08,-4.56731e-09,0.3,-0.3,-14.6212,-23.9008,0.201626,184.936,-23.1993,0.981148,83.2472,-23.3178,866.252
0.351,-0.192335,-0.00766602,0.330352,0.0664505,0.0622742,-0.10429,0.05778,-0.100347,-0.100647,0.327447,0.023022,-0.182809,1.98691e-08,-4.56731e-09,0.3,-0.3,-14.6234,-23.902,0.194341,184.928,-23.2173,0.941183,83.375,-23.3086,866.228
0.352,-0.192335,-0.00766602,0.330352,0.0664505,0.0622742,-0.10429,0.05778,-0.100347,-0.100647,0.327447,0.023022,-0.182809,1.98691e-08,-4.56731e-09,0.3,-0.3,-14.6248,-23.9029,0.189591,184.922,-23.2287,0.914326,83.461,-23.3031,866.212
0.353,-0.192335,-0.00766602,0.330352,0.0664505,0.0622742,-0.10429,0.05778,-0.100347,-0.100647,0.327447,0.023022,-0.182809,1.98691e-08,-4.56731e-09,0.3,-0.3,-14.6268,-23.9042,0.182559,184.914,-23.2449,0.873903,83.5908,-23.2957,866.188
0.354,-0.192335,-0.00766602,0.330352,0.0664505,0.0622742,-0.10429,0.05778,-0.100347,-0.100647,0.327447,0.023022,-0.182809,1.98691e-08,-4.56731e-09,0.3,-0.3,-14.6289,-23.9056,0.175555,184.905,-23.2599,0.833187,83.7218,-23.2893,866.163
0.355,-0.192335,-0.00766602,0.330352,0.0664505,0.0622742,-0.10429,0.05778,-0.100347,-0.100647,0.327447,0.023022,-0.182809,1.98691e-08,-4.56731e-09,0.3,-0.3,-14.6312,-23.9071,0.16849,184.895,-23.2738,0.79216,83.8541,-23.284,866.139
0.356,-0.192335,-0.00766602,0.330352,0.0664505,0.0622742,-0.10429,0.05778,-0.100347,-0.100647,0.327447,0.023022,-0.182809,1.98691e-08,-4.56731e-09,0.3,-0.3,-14.6337,-23.9088,0.161312,184.886,-23.2864,0.750795,83.9877,-23.2797,866.114
0.357,-0.192335,-0.00766602,0.330352,0.0664505,0.0622742,-0.10429,0.05778,-0.100347,-0.100647,0.327447,0.023022,-0.182809,1.98691e-08,-4.56731e-09,0.3,-0.3,-14.6367,-23.9108,0.153953,184.876,-23.2979,0.709074,84.1225,-23.2764,866.089
0.358,-0.192335,-0.00766602,0.330352,0.0664505,0.0622742,-0.10429,0.05778,-0.100347,-0.100647,0.327447,0.023022,-0.182809,1.98691e-08,-4.56731e-09,0.3,-0.3,-14.6395,-23.9126,0.14632,184.866,-23.3084,0.667006,84.2586,-23.2742,866.063
0.359,-0.192335,-0.00766602,0.330352,0.0664505,0.0622742,-0.10429,0.05778,-0.100347,-0.100647,0.327447,0.023022,-0.182809,1.98691e-08,-4.56731e-09,0.3,-0.3,-14.6424,-23.9145,0.138376,184.856,-23.3178,0.624577,84.396,-23.2729,866.038
0.36,-0.192335,-0.00766602,0.330352,0.0664505,0.0622742,-0.10429,0.05778,-0.100347,-0.100647,0.327447,0.023022,-0.182809,1.98691e-08,-4.56731e-09,0.3,-0.3,-14.6457,-23.9164,0.130111,184.846,-23.3264,0.581768,84.5347,-23.2726,866.012
0.361,-0.192335,-0.00766602,0.330352,0.0664505,0.0622742,-0.10429,0.05778,-0.100347,-0.100647,0.327447,0.023022,-0.182809,1.98691e-08,-4.56731e-09,0.3,-0.3,-14.6493,-23.9185,0.121499,184.837,-23.3342,0.538561,84.6748,-23.2734,865.986
0.362,-0.192335,-0.00766602,0.330352,0.0664505,0.0622742,-0.10429,0.05778,-0.100347,-0.100647,0.327447,0.023022,-0.182809,1.98691e-08,-4.56731e-09,0.3,-0.3,-14.6552,-23.9217,0.108197,184.823,-23.3446,0.474203,84.8834,-23.2763,865.947
0.363,-0.192335,-0.00766602,0.330352,0.0664505,0.0622742,-0.10429,0.05778,-0.100347,-0.100647,0.327447,0.023022,-0.182809,1.98691e-08,-4.56731e-09,0.3,-0.3,-14.6597,-23.924,0.098685,184.815,-23.3509,0.429941,85.0267,-23.2796,865.92
0.364,-0.192335,-0.00766602,0.330352,0.0664505,0.0622742,-0.10429,0.05778,-0.100347,-0.100647,0.327447,0.023022,-0.182809,1.98691e-08,-4.56731e-09,0.3,-0.3,-14.6644,-23.9264,0.0888083,184.807,-23.357,0.385231,85.1715,-23.284,865.892
0.365,-0.192335,-0.00766602,0.330352,0.0664505,0.0622742,-0.10429,0.05778,-0.100347,-0.100647,0.327447,0.023022,-0.182809,1.98691e-08,-4.56731e-09,0.3,-0.3,-14.6695,-23.9289,0.0785714,184.799,-23.3627,0.340057,85.3176,-23.2895,865.865
0.366,-0.192335,-0.00766602,0.330352,0.0664505,0.0622742,-0.10429,0.05778,-0.100347,-0.100647,0.327447,0.023022,-0.182809,1.98691e-08,-4.56731e-09,0.3,-0.3,-14.6747,-23.9314,0.0679816,184.792,-23.3684,0.294403,85.465,-23.2961,865.837
0.367,-0.192335,-0.00766602,0.330352,0.0664505,0.0622742,-0.10429,0.05778,-0.100347,-0.100647,0.327447,0.023022,-0.182809,1.98691e-08,-4.56731e-09,0.3,-0.3,-14.6802,-23.934,0.0570476,184.786,-23.374,0.248255,85.6138,-23.3038,865.808
0.368,-0.192335,-0.00766602,0.330352,0.0664505,0.0622742,-0.10429,0.05778,-0.100347,-0.100647,0.327447,0.023022,-0.182809,1.98691e-08,-4.56731e-09,0.3,-0.3,-14.6858,-23.9366,0.0457792,184.78,-23.3796,0.201603,85.7641,-23.3127,865.779
0.369,-0.192335,-0.00766602,0.330352,0.0664505,0.0622742,-0.10429,0.05778,-0.100347,-0.100647,0.327447,0.023022,-0.182809,1.98691e-08,-4.56731e-09,0.3,-0.3,-14.6915,-23.9393,0.0341862,184.774,-23.3853,0.154432,85.9157,-23.3226,865.75
0.37,-0.192335,-0.00766602,0.330352,0.0664505,0.0622742,-0.10429,0.05778,-0.100347,-0.100647,0.327447,0.023022,-0.182809,1.98691e-08,-4.56731e-09,0.3,-0.3,-14.6974,-23.942,0.0222784,184.769,-23.3912,0.10673,86.0686,-23.3337,865.72
0.371,-0.192335,-0.00766602,0.330352,0.0664505,0.0622742,-0.10429,0.05778,-0.100347,-0.100647,0.327447,0.023022,-0.182809,1.98691e-08,-4.56731e-09,0.3,-0.3,-14.7033,-23.9447,0.010065,184.765,-23.3973,0.0584793,86.223,-23.346,865.69
0.372,-0.192335,-0.00766602,0.330352,0.0664505,0.0622742,-0.10429,0.05778,-0.100347,-0.100647,0.327447,0.023022,-0.182809,1.98691e-08,-4.56731e-09,0.3,-0.3,-14.7042,-23.9452,0.00822849,184.764,-23.397,0.0557556,86.246,-23.3485,865.687
0.373,-0.192335,-0.00766602,0.330352,0.0664505,0.0622742,-0.10429,0.05778,-0.100347,-0.100647,0.327447,0.023022,-0.182809,1.98691e-08,-4.56731e-09,0.3,-0.3,-14.7102,-23.9477,-0.000647518,184.756,-23.3935,0.0450344,86.3963,-23.3661,865.678
0.374,-0.192335,-0.00766602,0.330352,0.0664505,0.0622742,-0.10429,0.05778,-0.100347,-0.100647,0.327447,0.023022,-0.182809,1.98691e-08,-4.56731e-09,0.3,-0.3,-14.7159,-23.9502,0.0143981,184.749,-23.3902,0.0453339,86.5433,-23.387,865.686
0.375,-0.192335,-0.00766602,0.330352,0.0664505,0.0622742,-0.10429,0.05778,-0.100347,-0.100647,0.327447,0.023022,-0.182809,1.98691e-08,-4.56731e-09,0.3,-0.3,-14.7184,-23.9572,0.0459126,184.742,-23.387,0.0551643,86.6873,-23.4102,865.707
0.376,-0.192335,-0.00766602,0.330352,0.0664505,0.0622742,-0.10429,0.05778,-0.100347,-0.100647,0.327447,0.023022,-0.182809,1.98691e-08,-4.56731e-09,0.3,-0.3,-14.7203,-23.9678,0.0883967,184.736,-23.3841,0.0648384,86.8291,-23.4352,865.733
0.377,-0.192335,-0.00766602,0.330352,0.0664505,0.0622742,-0.10429,0.05778,-0.100347,-0.100647,0.327447,0.023022,-0.182809,1.98691e-08,-4.56731e-09,0.3,-0.3,-14.7245,-23.9798,0.132488,184.73,-23.3816,0.0739841,86.9692,-23.4612,865.759
0.378,-0.192335,-0.00766602,0.330352,0.0664505,0.0622742,-0.10429,0.05778,-0.100347,-0.100647,0.327447,0.023022,-0.182809,1.98691e-08,-4.56731e-09,0.3,-0.3,-14.7318,-23.9922,0.175252,184.725,-23.3792,0.0825291,87.1077,-23.4881,865.786
0.379,-0.192335,-0.00766602,0.330352,0.0664505,0.0622742,-0.10429,0.05778,-0.100347,-0.100647,0.327447,0.023022,-0.182809,1.98691e-08,-4.56731e-09,0.3,-0.3,-14.7416,-24.0044,0.216213,184.72,-23.377,0.0904541,87.2445,-23.5159,865.811
0.38,-0.192335,-0.00766602,0.330352,0.0664505,0.0622742,-0.10429,0.05778,-0.100347,-0.100647,0.327447,0.023022,-0.182809,1.98691e-08,-4.56731e-09,0.3,-0.3,-14.7533,-24.0158,0.255517,184.716,-23.3748,0.0977726,87.3798,-23.5445,865.835
0.381,-0.192335,-0.00766602,0.330352,0.0664505,0.0622742,-0.10429,0.05778,-0.100347,-0.100647,0.327447,0.023022,-0.182809,1.98691e-08,-4.56731e-09,0.3,-0.3,-14.7663,-24.0261,0.293417,184.711,-23.3725,0.104507,87.5135,-23.5739,865.859
0.382,-0.192335,-0.00766602,0.330352,0.0664505,0.0622742,-0.10429,0.05778,-0.100347,-0.100647,0.327447,0.023022,-0.182809,1.98691e-08,-4.56731e-09,0.3,-0.3,-14.7892,-24.0402,0.353668,184.703,-23.3688,0.114439,87.7315,-23.6247,865.896
0.383,-0.192335,-0.00766602,0.330352,0.0664505,0.0622742,-0.10429,0.05778,-0.100347,-0.100647,0.327447,0.023022,-0.182809,1.98691e-08,-4.56731e-09,0.3,-0.3,-14.8032,-24.0471,0.388866,184.698,-23.3666,0.119774,87.8611,-23.6566,865.917
0.384,-0.192335,-0.00766602,0.330352,0.0664505,0.0622742,-0.10429,0.05778,-0.100347,-0.100647,0.327447,0.023022,-0.182809,1.98691e-08,-4.56731e-09,0.3,-0.3,-14.817,-24.0526,0.423323,184.693,-23.3643,0.124638,87.9893,-23.6895,865.938
0.385,-0.192335,-0.00766602,0.330352,0.0664505,0.0622742,-0.10429,0.05778,-0.100347,-0.100647,0.327447,0.023022,-0.182809,1.98691e-08,-4.56731e-09,0.3,-0.3,-14.8304,-24.057,0.45719,184.697,-23.3615,0.13455,88.1165,-23.7205,865.961
0.386,-0.192335,-0.00766602,0.330352,0.0664505,0.0622742,-0.10429,0.05778,-0.100347,-0.100647,0.327447,0.023022,-0.182809,1.98691e-08,-4.56731e-09,0.3,-0.3,-14.84,-24.0596,0.495915,184.701,-23.3597,0.146631,88.242,-23.7496,865.988
0.387,-0.192335,-0.00766602,0.330352,0.0664505,0.0622742,-0.10429,0.05778,-0.100347,-0.100647,0.327447,0.023022,-0.182809,1.98691e-08,-4.56731e-09,0.3,-0.3,-14.8468,-24.0591,0.537552,184.704,-23.3581,0.158737,88.3661,-23.777,866.015
0.388,-0.192335,-0.00766602,0.330352,0.0664505,0.0622742,-0.10429,0.05778,-0.100347,-0.100647,0.327447,0.023022,-0.182809,1.98691e-08,-4.56731e-09,0.3,-0.3,-14.8518,-24.0549,0.579364,184.708,-23.3566,0.170565,88.4887,-23.8029,866.042
0.389,-0.192335,-0.00766602,0.330352,0.0664505,0.0622742,-0.10429,0.05778,-0.100347,-0.100647,0.327447,0.023022,-0.182809,1.98691e-08,-4.56731e-09,0.3,-0.3,-14.8554,-24.0472,0.620468,184.711,-23.3551,0.182121,88.6101,-23.8275,866.068
0.39,-0.192335,-0.00766602,0.330352,0.0664505,0.0622742,-0.10429,0.05778,-0.100347,-0.100647,0.327447,0.023022,-0.182809,1.98691e-08,-4.56731e-09,0.3,-0.3,-14.8578,-24.0365,0.660785,184.714,-23.3537,0.193443,88.7301,-23.8508,866.094
0.391,-0.192335,-0.00766602,0.330352,0.0664505,0.0622742,-0.10429,0.05778,-0.100347,-0.100647,0.327447,0.023022,-0.182809,1.98691e-08,-4.56731e-09,0.3,-0.3,-14.859,-24.0233,0.700424,184.717,-23.3523,0.20454,88.8487,-23.8729,866.119
0.392,-0.192335,-0.00766602,0.330352,0.0664505,0.0622742,-0.10429,0.05778,-0.100347,-0.100647,0.327447,0.023022,-0.182809,1.98691e-08,-4.56731e-09,0.3,-0.3,-14.8591,-24.0089,0.737783,184.719,-23.3511,0.214943,88.9609,-23.8929,866.142
0.393,-0.192335,-0.00766602,0.330352,0.0664505,0.0622742,-0.10429,0.05778,-0.100347,-0.100647,0.327447,0.023022,-0.182809,1.98691e-08,-4.56731e-09,0.3,-0.3,-14.8583,-23.9926,0.776399,184.722,-23.3499,0.225637,89.077,-23.9127,866.166
0.394,-0.192335,-0.00766602,0.330352,0.0664505,0.0622742,-0.10429,0.05778,-0.100347,-0.100647,0.327447,0.023022,-0.182809,1.98691e-08,-4.56731e-09,0.3,-0.3,-14.8567,-23.9753,0.814549,184.725,-23.3487,0.236126,89.1917,-23.9314,866.19
0.395,-0.192335,-0.00766602,0.330352,0.0664505,0.0622742,-0.10429,0.05778,-0.100347,-0.100647,0.327447,0.023022,-0.182809,1.98691e-08,-4.56731e-09,0.3,-0.3,-14.8544,-23.9574,0.852237,184.727,-23.3477,0.246405,89.3051,-23.949,866.213
0.396,-0.192335,-0.00766602,0.330352,0.0664505,0.0622742,-0.10429,0.05778,-0.100347,-0.100647,0.327447,0.023022,-0.182809,1.98691e-08,-4.56731e-09,0.3,-0.3,-14.8514,-23.9393,0.889453,184.729,-23.3466,0.256477,89.4172,-23.9655,866.236
0.397,-0.192335,-0.00766602,0.330352,0.0664505,0.0622742,-0.10429,0.05778,-0.100347,-0.100647,0.327447,0.023022,-0.182809,1.98691e-08,-4.56731e-09,0.3,-0.3,-14.8479,-23.9212,0.926199,184.731,-23.3456,0.266354,89.5279,-23.9809,866.258
0.398,-0.192335,-0.00766602,0.330352,0.0664505,0.0622742,-0.10429,0.05778,-0.100347,-0.100647,0.327447,0.023022,-0.182809,1.98691e-08,-4.56731e-09,0.3,-0.3,-14.8439,-23.9034,0.962436,184.734,-23.3446,0.27602,89.6373,-23.9953,866.279
0.399,-0.192335,-0.00766602,0.330352,0.0664505,0.0622742,-0.10429,0.05778,-0.100347,-0.100647,0.327447,0.023022,-0.182809,1.98691e-08,-4.56731e-09,0.3,-0.3,-14.8395,-23.8859,0.99815,184.736,-23.3436,0.285477,89.7454,-24.0086,866.301
0.4,-0.192335,-0.00766602,0.330352,0.0664505,0.0622742,-0.10429,0.05778,-0.100347,-0.100647,0.327447,0.023022,-0.182809,1.98691e-08,-4.56731e-09,0.3,-0.3,-14.8347,-23.869,1.03328,184.738,-23.3427,0.294706,89.8521,-24.0209,866.321
0.401,-0.192335,-0.00766602,0.330352,0.0664505,0.0622742,-0.10429,0.05778,-0.100347,-0.100647,0.327447,0.023022,-0.182809,1.98691e-08,-4.56731e-09,0.3,-0.3,-14.8297,-23.8526,1.06782,184.74,-23.3418,0.303713,89.9575,-24.0322,866.342
0.402,-0.192335,-0.00766602,0.330352,0.0664505,0.0622742,-0.10429,0.05778,-0.100347,-0.100647,0.327447,0.023022,-0.182809,1.98691e-08,-4.56731e-09,0.3,-0.3,-14.8267,-23.8437,1.08684,184.741,-23.3413,0.308647,90.0158,-24.038,866.353
0.403,-0.192335,-0.00766602,0.330352,0.0664505,0.0622742,-0.10429,0.05778,-0.100347,-0.100647,0.327447,0.023022,-0.182809,1.98691e-08,-4.56731e-09,0.3,-0.3,-14.8214,-23.8284,1.12035,184.743,-23.3405,0.317289,90.1192,-24.0477,866.372
0.404,-0.192335,-0.00766602,0.330352,0.0664505,0.0622742,-0.10429,0.05778,-0.100347,-0.100647,0.327447,0.023022,-0.182809,1.98691e-08,-4.56731e-09,0.3,-0.3,-14.8152,-23.8135,1.15278,184.744,-23.3398,0.325672,90.2214,-24.0562,866.391
0.405,-0.192335,-0.00766602,0.330352,0.0664505,0.0622742,-0.10429,0.05778,-0.100347,-0.100647,0.327447,0.023022,-0.182809,1.98691e-08,-4.56731e-09,0.3,-0.3,-14.8068,-23.798,1.18355,184.745,-23.3393,0.333765,90.3225,-24.0638,866.409
0.406,-0.192335,-0.00766602,0.330352,0.0664505,0.0622742,-0.10429,0.05778,-0.100347,-0.100647,0.327447,0.023022,-0.182809,1.98691e-08,-4.56731e-09,0.3,-0.3,-14.7964,-23.7826,1.21344,184.746,-23.3388,0.3416,90.4223,-24.0702,866.427
0.407,-0.192335,-0.00766602,0.330352,0.0664505,0.0622742,-0.10429,0.05778,-0.100347,-0.100647,0.327447,0.023022,-0.182809,1.98691e-08,-4.56731e-09,0.3,-0.3,-14.7843,-23.7674,1.24261,184.747,-23.3384,0.349188,90.5209,-24.0756,866.443
0.408,-0.192335,-0.00766602,0.330352,0.0664505,0.0622742,-0.10429,0.05778,-0.100347,-0.100647,0.327447,0.023022,-0.182809,1.98691e-08,-4.56731e-09,0.3,-0.3,-14.771,-23.7529,1.27111,184.748,-23.338,0.356537,90.6181,-24.08,866.46
0.409,-0.192335,-0.00766602,0.330352,0.0664505,0.0622742,-0.10429,0.05778,-0.100347,-0.100647,0.327447,0.023022,-0.182809,1.98691e-08,-4.56731e-09,0.3,-0.3,-14.757,-23.739,1.29892,184.749,-23.3375,0.363659,90.7141,-24.0833,866.477
0.41,-0.192335,-0.00766602,0.330352,0.0664505,0.0622742,-0.10429,0.05778,-0.100347,-0.100647,0.327447,0.023022,-0.182809,1.98691e-08,-4.56731e-09,0.3,-0.3,-14.7425,-23.726,1.32602,184.75,-23.337,0.370556,90.8087,-24.0855,866.492
0.411,-0.192335,-0.00766602,0.330352,0.0664505,0.0622742,-0.10429,0.05778,-0.100347,-0.100647,0.327447,0.023022,-0.182809,1.98691e-08,-4.56731e-09,0.3,-0.3,-14.7279,-23.7138,1.35245,184.751,-23.3365,0.377213,90.902,-24.0867,866.508
0.412,-0.192335,-0.00766602,0.330352,0.0664505,0.0622742,-0.10429,0.05778,-0.100347,-0.100647,0.327447,0.023022,-0.182809,1.98691e-08,-4.56731e-09,0.3,-0.3,-14.7094,-23.6998,1.38527,184.753,-23.3358,0.38537,91.0193,-24.0867,866.527
0.413,-0.192335,-0.00766602,0.330352,0.0664505,0.0622742,-0.10429,0.05778,-0.100347,-0.100647,0.327447,0.023022,-0.182809,1.98691e-08,-4.56731e-09,0.3,-0.3,-14.6953,-23.6899,1.41021,184.754,-23.3353,0.391472,91.1094,-24.0855,866.542
0.414,-0.192335,-0.00766602,0.330352,0.0664505,0.0622742,-0.10429,0.05778,-0.100347,-0.100647,0.327447,0.023022,-0.182809,1.98691e-08,-4.56731e-09,0.3,-0.3,-14.6817,-23.6811,1.43452,184.755,-23.3348,0.397327,91.1981,-24.0833,866.556
0.415,-0.192335,-0.00766602,0.330352,0.0664505,0.0622742,-0.10429,0.05778,-0.100347,-0.100647,0.327447,0.023022,-0.182809,1.98691e-08,-4.56731e-09,0.3,-0.3,-14.6688,-23.6734,1.45823,184.756,-23.3344,0.402931,91.2853,-24.08,866.57
0.416,-0.192335,-0.00766602,0.330352,0.0664505,0.0622742,-0.10429,0.05778,-0.100347,-0.100647,0.327447,0.023022,-0.182809,1.98691e-08,-4.56731e-09,0.3,-0.3,-14.6567,-23.6668,1.48136,184.757,-23.334,0.408281,91.3711,-24.0757,866.584
0.417,-0.192335,-0.00766602,0.330352,0.0664505,0.0622742,-0.10429,0.05778,-0.100347,-0.100647,0.327447,0.023022,-0.182809,1.98691e-08,-4.56731e-09,0.3,-0.3,-14.6454,-23.6612,1.50392,184.758,-23.3336,0.413374,91.4554,-24.0704,866.597
0.418,-0.192335,-0.00766602,0.330352,0.0664505,0.0622742,-0.10429,0.05778,-0.100347,-0.100647,0.327447,0.023022,-0.182809,1.98691e-08,-4.56731e-09,0.3,-0.3,-14.6349,-23.6566,1.52592,184.758,-23.3333,0.418215,91.5382,-24.064,866.61
0.419,-0.192335,-0.00766602,0.330352,0.0664505,0.0622742,-0.10429,0.05778,-0.100347,-0.100647,0.327447,0.023022,-0.182809,1.98691e-08,-4.56731e-09,0.3,-0.3,-14.6254,-23.6531,1.54742,184.759,-23.3329,0.422812,91.6196,-24.0565,866.623
0.42,-0.192335,-0.00766602,0.330352,0.0664505,0.0622742,-0.10429,0.05778,-0.100347,-0.100647,0.327447,0.023022,-0.182809,1.98691e-08,-4.56731e-09,0.3,-0.3,-14.6168,-23.6505,1.56844,184.76,-23.3325,0.427155,91.6994,-24.0481,866.635
0.421,-0.192335,-0.00766602,0.330352,0.0664505,0.0622742,-0.10429,0.05778,-0.100347,-0.100647,0.327447,0.023022,-0.182809,1.98691e-08,-4.56731e-09,0.3,-0.3,-14.6092,-23.6487,1.58897,184.761,-23.3322,0.431238,91.7778,-24.0385,866.647
0.422,-0.192335,-0.00766602,0.330352,0.0664505,0.0622742,-0.10429,0.05778,-0.100347,-0.100647,0.327447,0.023022,-0.182809,1.98691e-08,-4.56731e-09,0.3,-0.3,-14.6011,-23.6475,1.61314,184.761,-23.3319,0.435825,91.8706,-24.0256,866.661
0.423,-0.192335,-0.00766602,0.330352,0.0664505,0.0622742,-0.10429,0.05778,-0.100347,-0.100647,0.327447,0.023022,-0.182809,1.98691e-08,-4.56731e-09,0.3,-0.3,-14.5955,-23.6474,1.6326,184.762,-23.3317,0.439314,91.9457,-24.0138,866.672
0.424,-0.192335,-0.00766602,0.330352,0.0664505,0.0622742,-0.10429,0.05778,-0.100347,-0.100647,0.327447,0.023022,-0.182809,1.98691e-08,-4.56731e-09,0.3,-0.3,-14.5908,-23.6479,1.65162,184.762,-23.3315,0.442553,92.0193,-24.0008,866.683
0.425,-0.192335,-0.00766602,0.330352,0.0664505,0.0622742,-0.10429,0.05778,-0.100347,-0.100647,0.327447,0.023022,-0.182809,1.98691e-08,-4.56731e-09,0.3,-0.3,-14.587,-23.649,1.67017,184.762,-23.3313,0.445532,92.0914,-23.9868,866.693
0.426,-0.192335,-0.00766602,0.330352,0.0664505,0.0622742,-0.10429,0.05778,-0.100347,-0.100647,0.327447,0.023022,-0.182809,1.98691e-08,-4.56731e-09,0.3,-0.3,-14.5841,-23.6505,1.68826,184.763,-23.3312,0.448238,92.1621,-23.9717,866.703
0.427,-0.192335,-0.00766602,0.330352,0.0664505,0.0622742,-0.10429,0.05778,-0.100347,-0.100647,0.327447,0.023022,-0.182809,1.98691e-08,-4.56731e-09,0.3,-0.3,-14.5819,-23.6525,1.7059,184.763,-23.3311,0.450689,92.2313,-23.9555,866.713
0.428,-0.192335,-0.00766602,0.330352,0.0664505,0.0622742,-0.10429,0.05778,-0.100347,-0.100647,0.327447,0.023022,-0.182809,1.98691e-08,-4.56731e-09,0.3,-0.3,-14.5805,-23.6549,1.72307,184.763,-23.331,0.452869,92.299,-23.9382,866.723
