TheMarex/ba-thesis/notebook/unstabilized_logs/2014-10-21-02:30:16_trajectory.csv
"Timestamp","Trajectory_LeftLeg_Joint6","Trajectory_LeftLeg_Joint5","Trajectory_LeftLeg_Joint4","Trajectory_LeftLeg_Joint3","Trajectory_LeftLeg_Joint2","Trajectory_LeftLeg_Joint1","Trajectory_RightLeg_Joint1","Trajectory_RightLeg_Joint2","Trajectory_RightLeg_Joint3","Trajectory_RightLeg_Joint4","Trajectory_RightLeg_Joint5","Trajectory_RightLeg_Joint6","Trajectory_Torso_Joint1","Trajectory_Torso_Joint2","Trajectory_LeftArm_Joint3","Trajectory_RightArm_Joint3","Actual_LeftFootX","Actual_LeftFootY","Actual_LeftFootZ","Actual_RightFootX","Actual_RightFootY","Actual_RightFootZ","Actual_CoMX","Actual_CoMY","Actual_CoMZ"
0.001,-0.192371,-0.00767229,0.330358,0.0663297,0.0622159,-0.104335,0.05763,-0.100371,-0.100712,0.327427,0.0230001,-0.182807,2.59108e-08,-3.06183e-09,0.3,-0.3,0,0,0,172.018,-2.98923,-0.0121975,94.498,-21.111,892.433
0.002,-0.192371,-0.00767229,0.330358,0.0663297,0.0622159,-0.104335,0.05763,-0.100371,-0.100712,0.327427,0.0230001,-0.182807,2.59108e-08,-3.06183e-09,0.3,-0.3,0,0,0,172.018,-2.98923,-0.0121918,94.498,-21.111,892.433
0.003,-0.192371,-0.00767229,0.330358,0.0663297,0.0622159,-0.104335,0.05763,-0.100371,-0.100712,0.327427,0.0230001,-0.182807,2.59108e-08,-3.06183e-09,0.3,-0.3,0,0,-0.00981,172.01,-2.98587,0.030508,94.496,-21.1215,892.442
0.004,-0.192371,-0.00767229,0.330358,0.0663297,0.0622159,-0.104335,0.05763,-0.100371,-0.100712,0.327427,0.0230001,-0.182807,2.59108e-08,-3.06183e-09,0.3,-0.3,0.00649278,-0.0101578,-0.00160465,172.01,-2.98597,0.0923576,94.4911,-21.1312,892.477
0.005,-0.192371,-0.00767229,0.330358,0.0663297,0.0622159,-0.104335,0.05763,-0.100371,-0.100712,0.327427,0.0230001,-0.182807,2.59108e-08,-3.06183e-09,0.3,-0.3,0.03036,-0.0442562,0.0501229,172.01,-2.98602,0.15333,94.4853,-21.1405,892.514
0.006,-0.192371,-0.00767229,0.330358,0.0663297,0.0622159,-0.104335,0.05763,-0.100371,-0.100712,0.327427,0.0230001,-0.182807,2.59108e-08,-3.06183e-09,0.3,-0.3,0.0528527,-0.0989582,0.111818,172.015,-2.9885,0.222406,94.4782,-21.1483,892.552
0.007,-0.192371,-0.00767229,0.330358,0.0663297,0.0622159,-0.104335,0.05763,-0.100371,-0.100712,0.327427,0.0230001,-0.182807,2.59108e-08,-3.06183e-09,0.3,-0.3,0.0730924,-0.170133,0.186392,172.025,-2.9934,0.300882,94.4699,-21.1543,892.593
0.008,-0.192371,-0.00767229,0.330358,0.0663297,0.0622159,-0.104335,0.05763,-0.100371,-0.100712,0.327427,0.0230001,-0.182807,2.59108e-08,-3.06183e-09,0.3,-0.3,0.0885826,-0.253566,0.272857,172.043,-3.02243,0.374218,94.4614,-21.1604,892.624
0.009,-0.192371,-0.00767229,0.330358,0.0663297,0.0622159,-0.104335,0.05763,-0.100371,-0.100712,0.327427,0.0230001,-0.182807,2.59108e-08,-3.06183e-09,0.3,-0.3,0.0919675,-0.346696,0.356748,172.068,-3.07134,0.45005,94.4528,-21.1663,892.644
0.01,-0.192371,-0.00767229,0.330358,0.0663297,0.0622159,-0.104335,0.05763,-0.100371,-0.100712,0.327427,0.0230001,-0.182807,2.59108e-08,-3.06183e-09,0.3,-0.3,0.0837917,-0.450224,0.440961,172.101,-3.13774,0.527466,94.4441,-21.1722,892.655
0.011,-0.192371,-0.00767229,0.330358,0.0663297,0.0622159,-0.104335,0.05763,-0.100371,-0.100712,0.327427,0.0230001,-0.182807,2.59108e-08,-3.06183e-09,0.3,-0.3,0.0646342,-0.564568,0.525679,172.14,-3.2197,0.606108,94.4353,-21.1778,892.655
0.012,-0.192371,-0.00767229,0.330358,0.0663297,0.0622159,-0.104335,0.05763,-0.100371,-0.100712,0.327427,0.0230001,-0.182807,2.59108e-08,-3.06183e-09,0.3,-0.3,0.0353529,-0.690385,0.611059,172.187,-3.31562,0.685762,94.4266,-21.1833,892.646
0.013,-0.192371,-0.00767229,0.330358,0.0663297,0.0622159,-0.104335,0.05763,-0.100371,-0.100712,0.327427,0.0230001,-0.182807,2.59108e-08,-3.06183e-09,0.3,-0.3,-0.00312548,-0.828334,0.697199,172.239,-3.42411,0.766216,94.4178,-21.1887,892.627
0.014,-0.192371,-0.00767229,0.330358,0.0663297,0.0622159,-0.104335,0.05763,-0.100371,-0.100712,0.327427,0.0230001,-0.182807,2.59108e-08,-3.06183e-09,0.3,-0.3,-0.0499049,-0.978976,0.784103,172.298,-3.54405,0.847282,94.409,-21.1938,892.598
0.015,-0.192371,-0.00767229,0.330358,0.0663297,0.0622159,-0.104335,0.05763,-0.100371,-0.100712,0.327427,0.0230001,-0.182807,2.59108e-08,-3.06183e-09,0.3,-0.3,-0.104167,-1.14272,0.871704,172.363,-3.67449,0.928782,94.4002,-21.1988,892.559
0.016,-0.192371,-0.00767229,0.330358,0.0663297,0.0622159,-0.104335,0.05763,-0.100371,-0.100712,0.327427,0.0230001,-0.182807,2.59108e-08,-3.06183e-09,0.3,-0.3,-0.165197,-1.31981,0.959886,172.432,-3.81465,1.01055,94.3914,-21.2035,892.51
0.017,-0.192371,-0.00767229,0.330358,0.0663297,0.0622159,-0.104335,0.05763,-0.100371,-0.100712,0.327427,0.0230001,-0.182807,2.59108e-08,-3.06183e-09,0.3,-0.3,-0.232394,-1.51032,1.0485,172.507,-3.96391,1.09243,94.3827,-21.2081,892.451
0.018,-0.192371,-0.00767229,0.330358,0.0663297,0.0622159,-0.104335,0.05763,-0.100371,-0.100712,0.327427,0.0230001,-0.182807,2.59108e-08,-3.06183e-09,0.3,-0.3,-0.30527,-1.71414,1.13739,172.586,-4.12175,1.17426,94.3739,-21.2125,892.382
0.019,-0.192371,-0.00767229,0.330358,0.0663297,0.0622159,-0.104335,0.05763,-0.100371,-0.100712,0.327427,0.0230001,-0.182807,2.59108e-08,-3.06183e-09,0.3,-0.3,-0.383444,-1.93106,1.22637,172.67,-4.28776,1.2559,94.3652,-21.2167,892.303
0.02,-0.192371,-0.00767229,0.330358,0.0663297,0.0622159,-0.104335,0.05763,-0.100371,-0.100712,0.327427,0.0230001,-0.182807,2.59108e-08,-3.06183e-09,0.3,-0.3,-0.466629,-2.16076,1.31526,172.758,-4.4616,1.33721,94.3565,-21.2207,892.214
0.021,-0.192371,-0.00767229,0.330358,0.0663297,0.0622159,-0.104335,0.05763,-0.100371,-0.100712,0.327427,0.0230001,-0.182807,2.59108e-08,-3.06183e-09,0.3,-0.3,-0.554616,-2.40281,1.4039,172.851,-4.643,1.41803,94.3478,-21.2246,892.116
0.022,-0.192371,-0.00767229,0.330358,0.0663297,0.0622159,-0.104335,0.05763,-0.100371,-0.100712,0.327427,0.0230001,-0.182807,2.59108e-08,-3.06183e-09,0.3,-0.3,-0.64726,-2.65676,1.49212,172.948,-4.83171,1.49823,94.3392,-21.2283,892.007
0.023,-0.192371,-0.00767229,0.330358,0.0663297,0.0622159,-0.104335,0.05763,-0.100371,-0.100712,0.327427,0.0230001,-0.182807,2.59108e-08,-3.06183e-09,0.3,-0.3,-0.744463,-2.92212,1.57975,173.049,-5.02753,1.57767,94.3306,-21.2318,891.889
0.024,-0.192371,-0.00767229,0.330358,0.0663297,0.0622159,-0.104335,0.05763,-0.100371,-0.100712,0.327427,0.0230001,-0.182807,2.59108e-08,-3.06183e-09,0.3,-0.3,-0.846165,-3.19838,1.66667,173.155,-5.23026,1.65619,94.322,-21.2352,891.76
0.025,-0.192371,-0.00767229,0.330358,0.0663297,0.0622159,-0.104335,0.05763,-0.100371,-0.100712,0.327427,0.0230001,-0.182807,2.59108e-08,-3.06183e-09,0.3,-0.3,-0.952324,-3.48504,1.75272,173.264,-5.43972,1.73368,94.3135,-21.2385,891.622
0.026,-0.192371,-0.00767229,0.330358,0.0663297,0.0622159,-0.104335,0.05763,-0.100371,-0.100712,0.327427,0.0230001,-0.182807,2.59108e-08,-3.06183e-09,0.3,-0.3,-1.06291,-3.7816,1.83778,173.378,-5.65572,1.80997,94.305,-21.2416,891.474
0.027,-0.192371,-0.00767229,0.330358,0.0663297,0.0622159,-0.104335,0.05763,-0.100371,-0.100712,0.327427,0.0230001,-0.182807,2.59108e-08,-3.06183e-09,0.3,-0.3,-1.17791,-4.08759,1.92173,173.497,-5.87811,1.88493,94.2966,-21.2445,891.316
0.028,-0.192371,-0.00767229,0.330358,0.0663297,0.0622159,-0.104335,0.05763,-0.100371,-0.100712,0.327427,0.0230001,-0.182807,2.59108e-08,-3.06183e-09,0.3,-0.3,-1.29728,-4.40256,2.00443,173.619,-6.10668,1.95842,94.2882,-21.2474,891.148
0.029,-0.192371,-0.00767229,0.330358,0.0663297,0.0622159,-0.104335,0.05763,-0.100371,-0.100712,0.327427,0.0230001,-0.182807,2.59108e-08,-3.06183e-09,0.3,-0.3,-1.42097,-4.72608,2.08579,173.747,-6.34124,2.0303,94.28,-21.2501,890.97
0.03,-0.192371,-0.00767229,0.330358,0.0663297,0.0622159,-0.104335,0.05763,-0.100371,-0.100712,0.327427,0.0230001,-0.182807,2.59108e-08,-3.06183e-09,0.3,-0.3,-1.54894,-5.05774,2.16567,173.879,-6.58159,2.10042,94.2717,-21.2528,890.783
0.031,-0.192371,-0.00767229,0.330358,0.0663297,0.0622159,-0.104335,0.05763,-0.100371,-0.100712,0.327427,0.0230001,-0.182807,2.59108e-08,-3.06183e-09,0.3,-0.3,-1.68114,-5.39714,2.24397,174.015,-6.82753,2.16863,94.2636,-21.2553,890.585
0.032,-0.192371,-0.00767229,0.330358,0.0663297,0.0622159,-0.104335,0.05763,-0.100371,-0.100712,0.327427,0.0230001,-0.182807,2.59108e-08,-3.06183e-09,0.3,-0.3,-1.81752,-5.74391,2.32056,174.156,-7.07885,2.23479,94.2555,-21.2577,890.378
0.033,-0.192371,-0.00767229,0.330358,0.0663297,0.0622159,-0.104335,0.05763,-0.100371,-0.100712,0.327427,0.0230001,-0.182807,2.59108e-08,-3.06183e-09,0.3,-0.3,-1.95801,-6.09768,2.39533,174.301,-7.33534,2.29873,94.2474,-21.26,890.161
0.034,-0.192371,-0.00767229,0.330358,0.0663297,0.0622159,-0.104335,0.05763,-0.100371,-0.100712,0.327427,0.0230001,-0.182807,2.59108e-08,-3.06183e-09,0.3,-0.3,-2.10253,-6.45809,2.46814,174.451,-7.59678,2.36031,94.2394,-21.2622,889.934
0.035,-0.192371,-0.00767229,0.330358,0.0663297,0.0622159,-0.104335,0.05763,-0.100371,-0.100712,0.327427,0.0230001,-0.182807,2.59108e-08,-3.06183e-09,0.3,-0.3,-2.25101,-6.82478,2.53885,174.605,-7.86294,2.41936,94.2315,-21.2644,889.697
0.036,-0.192371,-0.00767229,0.330358,0.0663297,0.0622159,-0.104335,0.05763,-0.100371,-0.100712,0.327427,0.0230001,-0.182807,2.59108e-08,-3.06183e-09,0.3,-0.3,-2.40337,-7.19742,2.60734,174.764,-8.1336,2.47571,94.2236,-21.2664,889.451
0.037,-0.192371,-0.00767229,0.330358,0.0663297,0.0622159,-0.104335,0.05763,-0.100371,-0.100712,0.327427,0.0230001,-0.182807,2.59108e-08,-3.06183e-09,0.3,-0.3,-2.55951,-7.57565,2.67344,174.927,-8.40854,2.5292,94.2158,-21.2684,889.194
0.038,-0.192371,-0.00767229,0.330358,0.0663297,0.0622159,-0.104335,0.05763,-0.100371,-0.100712,0.327427,0.0230001,-0.182807,2.59108e-08,-3.06183e-09,0.3,-0.3,-2.71934,-7.95913,2.73699,175.094,-8.68753,2.57965,94.208,-21.2703,888.928
0.039,-0.192371,-0.00767229,0.330358,0.0663297,0.0622159,-0.104335,0.05763,-0.100371,-0.100712,0.327427,0.0230001,-0.182807,2.59108e-08,-3.06183e-09,0.3,-0.3,-2.88275,-8.3475,2.79784,175.266,-8.97032,2.62687,94.2003,-21.2722,888.652
0.04,-0.192371,-0.00767229,0.330358,0.0663297,0.0622159,-0.104335,0.05763,-0.100371,-0.100712,0.327427,0.0230001,-0.182807,2.59108e-08,-3.06183e-09,0.3,-0.3,-3.04965,-8.74041,2.8558,175.442,-9.2567,2.67067,94.1926,-21.274,888.366
0.041,-0.192371,-0.00767229,0.330358,0.0663297,0.0622159,-0.104335,0.05763,-0.100371,-0.100712,0.327427,0.0230001,-0.182807,2.59108e-08,-3.06183e-09,0.3,-0.3,-3.21993,-9.13752,2.91068,175.622,-9.54641,2.71087,94.185,-21.2757,888.071
0.042,-0.192371,-0.00767229,0.330358,0.0663297,0.0622159,-0.104335,0.05763,-0.100371,-0.100712,0.327427,0.0230001,-0.182807,2.59108e-08,-3.06183e-09,0.3,-0.3,-3.39346,-9.53845,2.96229,175.806,-9.83924,2.74726,94.1774,-21.2774,887.765
0.043,-0.192371,-0.00767229,0.330358,0.0663297,0.0622159,-0.104335,0.05763,-0.100371,-0.100712,0.327427,0.0230001,-0.182807,2.59108e-08,-3.06183e-09,0.3,-0.3,-3.57014,-9.94285,3.01042,175.994,-10.1349,2.77962,94.1699,-21.279,887.45
0.044,-0.192371,-0.00767229,0.330358,0.0663297,0.0622159,-0.104335,0.05763,-0.100371,-0.100712,0.327427,0.0230001,-0.182807,2.59108e-08,-3.06183e-09,0.3,-0.3,-3.74984,-10.3504,3.05485,176.186,-10.4332,2.80775,94.1624,-21.2806,887.125
0.045,-0.192371,-0.00767229,0.330358,0.0663297,0.0622159,-0.104335,0.05763,-0.100371,-0.100712,0.327427,0.0230001,-0.182807,2.59108e-08,-3.06183e-09,0.3,-0.3,-3.93245,-10.7606,3.09536,176.382,-10.7339,2.83142,94.1549,-21.2821,886.79
0.046,-0.192371,-0.00767229,0.330358,0.0663297,0.0622159,-0.104335,0.05763,-0.100371,-0.100712,0.327427,0.0230001,-0.182807,2.59108e-08,-3.06183e-09,0.3,-0.3,-4.11783,-11.1732,3.13171,176.582,-11.0368,2.85039,94.1475,-21.2836,886.446
0.047,-0.192371,-0.00767229,0.330358,0.0663297,0.0622159,-0.104335,0.05763,-0.100371,-0.100712,0.327427,0.0230001,-0.182807,2.59108e-08,-3.06183e-09,0.3,-0.3,-4.30586,-11.5879,3.16364,176.785,-11.3415,2.86444,94.1402,-21.2851,886.091
0.048,-0.192371,-0.00767229,0.330358,0.0663297,0.0622159,-0.104335,0.05763,-0.100371,-0.100712,0.327427,0.0230001,-0.182807,2.59108e-08,-3.06183e-09,0.3,-0.3,-4.4964,-12.0041,3.19089,176.991,-11.6479,2.87329,94.1328,-21.2865,885.727
0.049,-0.192371,-0.00767229,0.330358,0.0663297,0.0622159,-0.104335,0.05763,-0.100371,-0.100712,0.327427,0.0230001,-0.182807,2.59108e-08,-3.06183e-09,0.3,-0.3,-4.68931,-12.4216,3.21321,177.201,-11.9557,2.87671,94.1255,-21.2879,885.353
0.05,-0.192371,-0.00767229,0.330358,0.0663297,0.0622159,-0.104335,0.05763,-0.100371,-0.100712,0.327427,0.0230001,-0.182807,2.59108e-08,-3.06183e-09,0.3,-0.3,-4.88446,-12.8401,3.2303,177.414,-12.2647,2.87442,94.1183,-21.2894,884.97
0.051,-0.192371,-0.00767229,0.330358,0.0663297,0.0622159,-0.104335,0.05763,-0.100371,-0.100712,0.327427,0.0230001,-0.182807,2.59108e-08,-3.06183e-09,0.3,-0.3,-5.08169,-13.259,3.24188,177.631,-12.5745,2.86616,94.1111,-21.2908,884.577
0.052,-0.192371,-0.00767229,0.330358,0.0663297,0.0622159,-0.104335,0.05763,-0.100371,-0.100712,0.327427,0.0230001,-0.182807,2.59108e-08,-3.06183e-09,0.3,-0.3,-5.28085,-13.6782,3.24763,177.85,-12.885,2.85163,94.1039,-21.2922,884.174
0.053,-0.192371,-0.00767229,0.330358,0.0663297,0.0622159,-0.104335,0.05763,-0.100371,-0.100712,0.327427,0.0230001,-0.182807,2.59108e-08,-3.06183e-09,0.3,-0.3,-5.48178,-14.0971,3.24726,178.071,-13.1959,2.83055,94.0967,-21.2936,883.761
0.054,-0.192371,-0.00767229,0.330358,0.0663297,0.0622159,-0.104335,0.05763,-0.100371,-0.100712,0.327427,0.0230001,-0.182807,2.59108e-08,-3.06183e-09,0.3,-0.3,-5.68434,-14.5156,3.24044,178.296,-13.507,2.80261,94.0895,-21.295,883.339
0.055,-0.192371,-0.00767229,0.330358,0.0663297,0.0622159,-0.104335,0.05763,-0.100371,-0.100712,0.327427,0.0230001,-0.182807,2.59108e-08,-3.06183e-09,0.3,-0.3,-5.88833,-14.9331,3.22683,178.523,-13.8179,2.76752,94.0824,-21.2964,882.906
0.056,-0.192371,-0.00767229,0.330358,0.0663297,0.0622159,-0.104335,0.05763,-0.100371,-0.100712,0.327427,0.0230001,-0.182807,2.59108e-08,-3.06183e-09,0.3,-0.3,-6.09361,-15.3494,3.20609,178.751,-14.1284,2.72494,94.0753,-21.2978,882.464
0.057,-0.192371,-0.00767229,0.330358,0.0663297,0.0622159,-0.104335,0.05763,-0.100371,-0.100712,0.327427,0.0230001,-0.182807,2.59108e-08,-3.06183e-09,0.3,-0.3,-6.29999,-15.7641,3.17788,178.982,-14.4383,2.67456,94.0682,-21.2993,882.013
0.058,-0.192371,-0.00767229,0.330358,0.0663297,0.0622159,-0.104335,0.05763,-0.100371,-0.100712,0.327427,0.0230001,-0.182807,2.59108e-08,-3.06183e-09,0.3,-0.3,-6.50728,-16.1768,3.14182,179.215,-14.7473,2.61604,94.0612,-21.3007,881.552
0.059,-0.192371,-0.00767229,0.330358,0.0663297,0.0622159,-0.104335,0.05763,-0.100371,-0.100712,0.327427,0.0230001,-0.182807,2.59108e-08,-3.06183e-09,0.3,-0.3,-6.7153,-16.5873,3.09754,179.449,-15.0552,2.54902,94.0541,-21.3022,881.081
0.06,-0.192371,-0.00767229,0.330358,0.0663297,0.0622159,-0.104335,0.05763,-0.100371,-0.100712,0.327427,0.0230001,-0.182807,2.59108e-08,-3.06183e-09,0.3,-0.3,-6.92386,-16.9952,3.04467,179.685,-15.3617,2.47318,94.0471,-21.3038,880.6
0.061,-0.192371,-0.00767229,0.330358,0.0663297,0.0622159,-0.104335,0.05763,-0.100371,-0.100712,0.327427,0.0230001,-0.182807,2.59108e-08,-3.06183e-09,0.3,-0.3,-7.13276,-17.4001,2.9828,179.922,-15.6664,2.38813,94.04,-21.3053,880.11
0.062,-0.192371,-0.00767229,0.330358,0.0663297,0.0622159,-0.104335,0.05763,-0.100371,-0.100712,0.327427,0.0230001,-0.182807,2.59108e-08,-3.06183e-09,0.3,-0.3,-7.3418,-17.8018,2.91154,180.16,-15.9693,2.29351,94.033,-21.3069,879.611
0.063,-0.192371,-0.00767229,0.330358,0.0663297,0.0622159,-0.104335,0.05763,-0.100371,-0.100712,0.327427,0.0230001,-0.182807,2.59108e-08,-3.06183e-09,0.3,-0.3,-7.55077,-18.1998,2.83048,180.398,-16.2699,2.18894,94.026,-21.3086,879.101
0.064,-0.192371,-0.00767229,0.330358,0.0663297,0.0622159,-0.104335,0.05763,-0.100371,-0.100712,0.327427,0.0230001,-0.182807,2.59108e-08,-3.06183e-09,0.3,-0.3,-7.75946,-18.594,2.73919,180.637,-16.5681,2.07404,94.0189,-21.3103,878.582
0.065,-0.192371,-0.00767229,0.330358,0.0663297,0.0622159,-0.104335,0.05763,-0.100371,-0.100712,0.327427,0.0230001,-0.182807,2.59108e-08,-3.06183e-09,0.3,-0.3,-7.96765,-18.9839,2.63726,180.876,-16.8635,1.94841,94.0119,-21.3121,878.053
0.066,-0.192371,-0.00767229,0.330358,0.0663297,0.0622159,-0.104335,0.05763,-0.100371,-0.100712,0.327427,0.0230001,-0.182807,2.59108e-08,-3.06183e-09,0.3,-0.3,-8.17513,-19.3692,2.52423,181.115,-17.156,1.81164,94.0049,-21.3139,877.515
0.067,-0.192371,-0.00767229,0.330358,0.0663297,0.0622159,-0.104335,0.05763,-0.100371,-0.100712,0.327427,0.0230001,-0.182807,2.59108e-08,-3.06183e-09,0.3,-0.3,-8.38166,-19.7497,2.39966,181.354,-17.4452,1.66334,93.9978,-21.3158,876.967
0.068,-0.192371,-0.00767229,0.330358,0.0663297,0.0622159,-0.104335,0.05763,-0.100371,-0.100712,0.327427,0.0230001,-0.182807,2.59108e-08,-3.06183e-09,0.3,-0.3,-8.58702,-20.125,2.26311,181.592,-17.7309,1.50308,93.9908,-21.3177,876.41
0.069,-0.192371,-0.00767229,0.330358,0.0663297,0.0622159,-0.104335,0.05763,-0.100371,-0.100712,0.327427,0.0230001,-0.182807,2.59108e-08,-3.06183e-09,0.3,-0.3,-8.79098,-20.4947,2.11411,181.829,-18.0128,1.33043,93.9837,-21.3197,875.843
0.07,-0.192371,-0.00767229,0.330358,0.0663297,0.0622159,-0.104335,0.05763,-0.100371,-0.100712,0.327427,0.0230001,-0.182807,2.59108e-08,-3.06183e-09,0.3,-0.3,-8.9933,-20.8587,1.95219,182.065,-18.2907,1.14497,93.9766,-21.3218,875.266
0.071,-0.192371,-0.00767229,0.330358,0.0663297,0.0622159,-0.104335,0.05763,-0.100371,-0.100712,0.327427,0.0230001,-0.182807,2.59108e-08,-3.06183e-09,0.3,-0.3,-9.19374,-21.2165,1.77687,182.299,-18.5642,0.946259,93.9695,-21.324,874.68
0.072,-0.192371,-0.00767229,0.330358,0.0663297,0.0622159,-0.104335,0.05763,-0.100371,-0.100712,0.327427,0.0230001,-0.182807,2.59108e-08,-3.06183e-09,0.3,-0.3,-9.3934,-21.5665,1.5877,182.423,-18.6618,0.787186,93.9505,-21.3205,874.096
0.073,-0.192371,-0.00767229,0.330358,0.0663297,0.0622159,-0.104335,0.05763,-0.100371,-0.100712,0.327427,0.0230001,-0.182807,2.59108e-08,-3.06183e-09,0.3,-0.3,-9.59061,-21.9086,1.40002,182.507,-18.6999,0.623667,93.9254,-21.3124,873.513
0.074,-0.192371,-0.00767229,0.330358,0.0663297,0.0622159,-0.104335,0.05763,-0.100371,-0.100712,0.327427,0.0230001,-0.182807,2.59108e-08,-3.06183e-09,0.3,-0.3,-9.79515,-22.2401,1.20928,182.584,-18.7344,0.458563,93.897,-21.3057,872.934
0.075,-0.192371,-0.00767229,0.330358,0.0663297,0.0622159,-0.104335,0.05763,-0.100371,-0.100712,0.327427,0.0230001,-0.182807,2.59108e-08,-3.06183e-09,0.3,-0.3,-10.0114,-22.5591,1.02218,182.583,-18.7344,0.439434,93.8498,-21.2765,872.419
0.076,-0.192371,-0.00767229,0.330358,0.0663297,0.0622159,-0.104335,0.05763,-0.100371,-0.100712,0.327427,0.0230001,-0.182807,2.59108e-08,-3.06183e-09,0.3,-0.3,-10.213,-22.8673,0.889165,182.583,-18.7344,0.440281,93.8014,-21.2463,871.93
0.077,-0.192371,-0.00767229,0.330358,0.0663297,0.0622159,-0.104335,0.05763,-0.100371,-0.100712,0.327427,0.0230001,-0.182807,2.59108e-08,-3.06183e-09,0.3,-0.3,-10.4019,-23.1449,0.770254,182.583,-18.7344,0.459961,93.7515,-21.2155,871.468
0.078,-0.192371,-0.00767229,0.330358,0.0663297,0.0622159,-0.104335,0.05763,-0.100371,-0.100712,0.327427,0.0230001,-0.182807,2.59108e-08,-3.06183e-09,0.3,-0.3,-10.5763,-23.3889,0.668614,182.584,-18.7344,0.477533,93.6979,-21.1852,871.026
0.079,-0.192371,-0.00767229,0.330358,0.0663297,0.0622159,-0.104335,0.05763,-0.100371,-0.100712,0.327427,0.0230001,-0.182807,2.59108e-08,-3.06183e-09,0.3,-0.3,-10.7431,-23.6013,0.582055,182.584,-18.7344,0.49316,93.6404,-21.1558,870.604
0.08,-0.192371,-0.00767229,0.330358,0.0663297,0.0622159,-0.104335,0.05763,-0.100371,-0.100712,0.327427,0.0230001,-0.182807,2.59108e-08,-3.06183e-09,0.3,-0.3,-10.7828,-23.6774,0.568343,182.584,-18.7344,0.506701,93.5899,-21.1184,870.219
0.081,-0.192371,-0.00767229,0.330358,0.0663297,0.0622159,-0.104335,0.05763,-0.100371,-0.100712,0.327427,0.0230001,-0.182807,2.59108e-08,-3.06183e-09,0.3,-0.3,-10.7233,-23.6565,0.566169,182.584,-18.7343,0.519497,93.5375,-21.0823,869.861
0.082,-0.192371,-0.00767229,0.330358,0.0663297,0.0622159,-0.104335,0.05763,-0.100371,-0.100712,0.327427,0.0230001,-0.182807,2.59108e-08,-3.06183e-09,0.3,-0.3,-10.6746,-23.6389,0.559561,182.584,-18.7343,0.531776,93.4833,-21.0483,869.524
0.083,-0.192371,-0.00767229,0.330358,0.0663297,0.0622159,-0.104335,0.05763,-0.100371,-0.100712,0.327427,0.0230001,-0.182807,2.59108e-08,-3.06183e-09,0.3,-0.3,-10.6522,-23.6012,0.547132,182.584,-18.7343,0.543596,93.4251,-21.0157,869.205
0.084,-0.192371,-0.00767229,0.330358,0.0663297,0.0622159,-0.104335,0.05763,-0.100371,-0.100712,0.327427,0.0230001,-0.182807,2.59108e-08,-3.06183e-09,0.3,-0.3,-10.6969,-23.5348,0.535252,182.584,-18.7343,0.554283,93.363,-20.9844,868.904
0.085,-0.192371,-0.00767229,0.330358,0.0663297,0.0622159,-0.104335,0.05763,-0.100371,-0.100712,0.327427,0.0230001,-0.182807,2.59108e-08,-3.06183e-09,0.3,-0.3,-10.7676,-23.4445,0.530929,182.584,-18.7343,0.563711,93.2965,-20.9543,868.62
0.086,-0.192371,-0.00767229,0.330358,0.0663297,0.0622159,-0.104335,0.05763,-0.100371,-0.100712,0.327427,0.0230001,-0.182807,2.59108e-08,-3.06183e-09,0.3,-0.3,-10.856,-23.3294,0.534385,182.584,-18.7343,0.571857,93.2254,-20.9255,868.355
0.087,-0.192371,-0.00767229,0.330358,0.0663297,0.0622159,-0.104335,0.05763,-0.100371,-0.100712,0.327427,0.0230001,-0.182807,2.59108e-08,-3.06183e-09,0.3,-0.3,-10.9576,-23.1891,0.545419,182.584,-18.7343,0.578732,93.1497,-20.8978,868.108
0.088,-0.192371,-0.00767229,0.330358,0.0663297,0.0622159,-0.104335,0.05763,-0.100371,-0.100712,0.327427,0.0230001,-0.182807,2.59108e-08,-3.06183e-09,0.3,-0.3,-11.0694,-23.0234,0.563517,182.584,-18.7343,0.584373,93.0693,-20.8713,867.879
0.089,-0.192371,-0.00767229,0.330358,0.0663297,0.0622159,-0.104335,0.05763,-0.100371,-0.100712,0.327427,0.0230001,-0.182807,2.59108e-08,-3.06183e-09,0.3,-0.3,-11.1893,-22.8333,0.587608,182.585,-18.7343,0.588696,92.9844,-20.8466,867.666
0.09,-0.192371,-0.00767229,0.330358,0.0663297,0.0622159,-0.104335,0.05763,-0.100371,-0.100712,0.327427,0.0230001,-0.182807,2.59108e-08,-3.06183e-09,0.3,-0.3,-11.3158,-22.6249,0.615417,182.585,-18.7343,0.591938,92.895,-20.8237,867.468
0.091,-0.192371,-0.00767229,0.330358,0.0663297,0.0622159,-0.104335,0.05763,-0.100371,-0.100712,0.327427,0.0230001,-0.182807,2.59108e-08,-3.06183e-09,0.3,-0.3,-11.4475,-22.401,0.645426,182.585,-18.7343,0.594097,92.8013,-20.8028,867.284
0.092,-0.192371,-0.00767229,0.330358,0.0663297,0.0622159,-0.104335,0.05763,-0.100371,-0.100712,0.327427,0.0230001,-0.182807,2.59108e-08,-3.06183e-09,0.3,-0.3,-11.5847,-22.1645,0.675006,182.585,-18.7343,0.595125,92.7034,-20.7839,867.111
0.093,-0.192371,-0.00767229,0.330358,0.0663297,0.0622159,-0.104335,0.05763,-0.100371,-0.100712,0.327427,0.0230001,-0.182807,2.59108e-08,-3.06183e-09,0.3,-0.3,-11.7277,-21.9179,0.702066,182.585,-18.7343,0.594997,92.6013,-20.7675,866.951
0.094,-0.192371,-0.00767229,0.330358,0.0663297,0.0622159,-0.104335,0.05763,-0.100371,-0.100712,0.327427,0.0230001,-0.182807,2.59108e-08,-3.06183e-09,0.3,-0.3,-11.8763,-21.664,0.725696,182.585,-18.7343,0.59391,92.4953,-20.7544,866.801
0.095,-0.192371,-0.00767229,0.330358,0.0663297,0.0622159,-0.104335,0.05763,-0.100371,-0.100712,0.327427,0.0230001,-0.182807,2.59108e-08,-3.06183e-09,0.3,-0.3,-12.0295,-21.4063,0.746004,182.585,-18.7343,0.591793,92.3852,-20.7448,866.662
0.096,-0.192371,-0.00767229,0.330358,0.0663297,0.0622159,-0.104335,0.05763,-0.100371,-0.100712,0.327427,0.0230001,-0.182807,2.59108e-08,-3.06183e-09,0.3,-0.3,-12.1864,-21.1465,0.761142,182.583,-18.7337,0.588642,92.2711,-20.739,866.533
0.097,-0.192371,-0.00767229,0.330358,0.0663297,0.0622159,-0.104335,0.05763,-0.100371,-0.100712,0.327427,0.0230001,-0.182807,2.59108e-08,-3.06183e-09,0.3,-0.3,-12.348,-20.8871,0.769881,182.577,-18.7312,0.584709,92.1527,-20.7368,866.414
0.098,-0.192371,-0.00767229,0.330358,0.0663297,0.0622159,-0.104335,0.05763,-0.100371,-0.100712,0.327427,0.0230001,-0.182807,2.59108e-08,-3.06183e-09,0.3,-0.3,-12.5148,-20.6279,0.771147,182.568,-18.7269,0.579992,92.0301,-20.7381,866.304
0.099,-0.192371,-0.00767229,0.330358,0.0663297,0.0622159,-0.104335,0.05763,-0.100371,-0.100712,0.327427,0.0230001,-0.182807,2.59108e-08,-3.06183e-09,0.3,-0.3,-12.6874,-20.3675,0.763758,182.554,-18.7211,0.574423,91.9033,-20.7432,866.205
0.1,-0.192371,-0.00767229,0.330358,0.0663297,0.0622159,-0.104335,0.05763,-0.100371,-0.100712,0.327427,0.0230001,-0.182807,2.59108e-08,-3.06183e-09,0.3,-0.3,-12.8667,-20.1047,0.747425,182.54,-18.7145,0.567869,91.7724,-20.7519,866.115
0.101,-0.192371,-0.00767229,0.330358,0.0663297,0.0622159,-0.104335,0.05763,-0.100371,-0.100712,0.327427,0.0230001,-0.182807,2.59108e-08,-3.06183e-09,0.3,-0.3,-13.053,-19.8377,0.721665,182.524,-18.7076,0.560255,91.6375,-20.7644,866.036
0.102,-0.192371,-0.00767229,0.330358,0.0663297,0.0622159,-0.104335,0.05763,-0.100371,-0.100712,0.327427,0.0230001,-0.182807,2.59108e-08,-3.06183e-09,0.3,-0.3,-13.2465,-19.5652,0.685984,182.508,-18.7006,0.551527,91.4988,-20.7807,865.966
0.103,-0.192371,-0.00767229,0.330358,0.0663297,0.0622159,-0.104335,0.05763,-0.100371,-0.100712,0.327427,0.0230001,-0.182807,2.59108e-08,-3.06183e-09,0.3,-0.3,-13.4474,-19.2863,0.639934,182.492,-18.6938,0.541634,91.3561,-20.8008,865.906
0.104,-0.192371,-0.00767229,0.330358,0.0663297,0.0622159,-0.104335,0.05763,-0.100371,-0.100712,0.327427,0.0230001,-0.182807,2.59108e-08,-3.06183e-09,0.3,-0.3,-13.6558,-19.003,0.585062,182.456,-18.678,0.533571,91.2135,-20.8249,865.852
0.105,-0.192371,-0.00767229,0.330358,0.0663297,0.0622159,-0.104335,0.05763,-0.100371,-0.100712,0.327427,0.0230001,-0.182807,2.59108e-08,-3.06183e-09,0.3,-0.3,-13.7326,-18.8858,0.593997,182.423,-18.6637,0.533472,91.0814,-20.8632,865.819
0.106,-0.192371,-0.00767229,0.330358,0.0663297,0.0622159,-0.104335,0.05763,-0.100371,-0.100712,0.327427,0.0230001,-0.182807,2.59108e-08,-3.06183e-09,0.3,-0.3,-13.7013,-18.891,0.608743,182.389,-18.6489,0.524769,90.952,-20.9086,865.798
0.107,-0.192371,-0.00767229,0.330358,0.0663297,0.0622159,-0.104335,0.05763,-0.100371,-0.100712,0.327427,0.0230001,-0.182807,2.59108e-08,-3.06183e-09,0.3,-0.3,-13.6679,-18.8911,0.609033,182.382,-18.6352,0.513727,90.8262,-20.9565,865.786
0.108,-0.192371,-0.00767229,0.330358,0.0663297,0.0622159,-0.104335,0.05763,-0.100371,-0.100712,0.327427,0.0230001,-0.182807,2.59108e-08,-3.06183e-09,0.3,-0.3,-13.634,-18.8894,0.60446,182.403,-18.6249,0.514936,90.7043,-21.0054,865.785
0.109,-0.192371,-0.00767229,0.330358,0.0663297,0.0622159,-0.104335,0.05763,-0.100371,-0.100712,0.327427,0.0230001,-0.182807,2.59108e-08,-3.06183e-09,0.3,-0.3,-13.5994,-18.8862,0.597632,182.427,-18.6135,0.520372,90.5841,-21.0549,865.792
0.11,-0.192371,-0.00767229,0.330358,0.0663297,0.0622159,-0.104335,0.05763,-0.100371,-0.100712,0.327427,0.0230001,-0.182807,2.59108e-08,-3.06183e-09,0.3,-0.3,-13.5647,-18.8815,0.589509,182.44,-18.5906,0.529016,90.4648,-21.1032,865.804
0.111,-0.192371,-0.00767229,0.330358,0.0663297,0.0622159,-0.104335,0.05763,-0.100371,-0.100712,0.327427,0.0230001,-0.182807,2.59108e-08,-3.06183e-09,0.3,-0.3,-13.5301,-18.8755,0.579198,182.441,-18.5542,0.54245,90.346,-21.1496,865.818
0.112,-0.192371,-0.00767229,0.330358,0.0663297,0.0622159,-0.104335,0.05763,-0.100371,-0.100712,0.327427,0.0230001,-0.182807,2.59108e-08,-3.06183e-09,0.3,-0.3,-13.4955,-18.8678,0.567936,182.434,-18.5091,0.558796,90.2275,-21.1942,865.835
0.113,-0.192371,-0.00767229,0.330358,0.0663297,0.0622159,-0.104335,0.05763,-0.100371,-0.100712,0.327427,0.0230001,-0.182807,2.59108e-08,-3.06183e-09,0.3,-0.3,-13.4615,-18.8592,0.556272,182.421,-18.4588,0.576893,90.1096,-21.2372,865.852
0.114,-0.192371,-0.00767229,0.330358,0.0663297,0.0622159,-0.104335,0.05763,-0.100371,-0.100712,0.327427,0.0230001,-0.182807,2.59108e-08,-3.06183e-09,0.3,-0.3,-13.4283,-18.8498,0.544905,182.407,-18.4065,0.595976,89.9922,-21.2787,865.869
0.115,-0.192371,-0.00767229,0.330358,0.0663297,0.0622159,-0.104335,0.05763,-0.100371,-0.100712,0.327427,0.0230001,-0.182807,2.59108e-08,-3.06183e-09,0.3,-0.3,-13.396,-18.8397,0.534297,182.393,-18.3545,0.615553,89.8755,-21.3188,865.887
0.116,-0.192371,-0.00767229,0.330358,0.0663297,0.0622159,-0.104335,0.05763,-0.100371,-0.100712,0.327427,0.0230001,-0.182807,2.59108e-08,-3.06183e-09,0.3,-0.3,-13.3647,-18.8291,0.524694,182.381,-18.3045,0.6353,89.7596,-21.3576,865.904
0.117,-0.192371,-0.00767229,0.330358,0.0663297,0.0622159,-0.104335,0.05763,-0.100371,-0.100712,0.327427,0.0230001,-0.182807,2.59108e-08,-3.06183e-09,0.3,-0.3,-13.3343,-18.818,0.516204,182.373,-18.2581,0.655003,89.6445,-21.3952,865.92
0.118,-0.192371,-0.00767229,0.330358,0.0663297,0.0622159,-0.104335,0.05763,-0.100371,-0.100712,0.327427,0.0230001,-0.182807,2.59108e-08,-3.06183e-09,0.3,-0.3,-13.3047,-18.8066,0.50884,182.37,-18.2162,0.674534,89.5303,-21.4317,865.936
0.119,-0.192371,-0.00767229,0.330358,0.0663297,0.0622159,-0.104335,0.05763,-0.100371,-0.100712,0.327427,0.0230001,-0.182807,2.59108e-08,-3.06183e-09,0.3,-0.3,-13.2759,-18.7949,0.502542,182.373,-18.1796,0.693853,89.4171,-21.4672,865.951
0.12,-0.192371,-0.00767229,0.330358,0.0663297,0.0622159,-0.104335,0.05763,-0.100371,-0.100712,0.327427,0.0230001,-0.182807,2.59108e-08,-3.06183e-09,0.3,-0.3,-13.2481,-18.7833,0.497136,182.382,-18.1486,0.712954,89.3048,-21.5018,865.966
0.121,-0.192371,-0.00767229,0.330358,0.0663297,0.0622159,-0.104335,0.05763,-0.100371,-0.100712,0.327427,0.0230001,-0.182807,2.59108e-08,-3.06183e-09,0.3,-0.3,-13.2209,-18.7714,0.492579,182.398,-18.1234,0.731899,89.1935,-21.5356,865.98
0.122,-0.192371,-0.00767229,0.330358,0.0663297,0.0622159,-0.104335,0.05763,-0.100371,-0.100712,0.327427,0.0230001,-0.182807,2.59108e-08,-3.06183e-09,0.3,-0.3,-13.1944,-18.7596,0.488729,182.422,-18.1041,0.750757,89.0832,-21.5685,865.994
0.123,-0.192371,-0.00767229,0.330358,0.0663297,0.0622159,-0.104335,0.05763,-0.100371,-0.100712,0.327427,0.0230001,-0.182807,2.59108e-08,-3.06183e-09,0.3,-0.3,-13.1683,-18.7477,0.485469,182.452,-18.0904,0.769615,88.9739,-21.6006,866.008
0.124,-0.192371,-0.00767229,0.330358,0.0663297,0.0622159,-0.104335,0.05763,-0.100371,-0.100712,0.327427,0.0230001,-0.182807,2.59108e-08,-3.06183e-09,0.3,-0.3,-13.1425,-18.7357,0.482757,182.489,-18.0821,0.788574,88.8655,-21.6319,866.021
0.125,-0.192371,-0.00767229,0.330358,0.0663297,0.0622159,-0.104335,0.05763,-0.100371,-0.100712,0.327427,0.0230001,-0.182807,2.59108e-08,-3.06183e-09,0.3,-0.3,-13.1175,-18.724,0.480338,182.533,-18.0788,0.807695,88.758,-21.6624,866.035
0.126,-0.192371,-0.00767229,0.330358,0.0663297,0.0622159,-0.104335,0.05763,-0.100371,-0.100712,0.327427,0.0230001,-0.182807,2.59108e-08,-3.06183e-09,0.3,-0.3,-13.0928,-18.7125,0.478211,182.582,-18.0801,0.827074,88.6515,-21.6921,866.049
0.127,-0.192371,-0.00767229,0.330358,0.0663297,0.0622159,-0.104335,0.05763,-0.100371,-0.100712,0.327427,0.0230001,-0.182807,2.59108e-08,-3.06183e-09,0.3,-0.3,-13.0684,-18.7009,0.476391,182.638,-18.0855,0.846783,88.5458,-21.721,866.063
0.128,-0.192371,-0.00767229,0.330358,0.0663297,0.0622159,-0.104335,0.05763,-0.100371,-0.100712,0.327427,0.0230001,-0.182807,2.59108e-08,-3.06183e-09,0.3,-0.3,-13.0444,-18.6895,0.474764,182.699,-18.0944,0.866837,88.4409,-21.749,866.077
0.129,-0.192371,-0.00767229,0.330358,0.0663297,0.0622159,-0.104335,0.05763,-0.100371,-0.100712,0.327427,0.0230001,-0.182807,2.59108e-08,-3.06183e-09,0.3,-0.3,-13.0208,-18.6784,0.473299,182.764,-18.1065,0.887224,88.3368,-21.7762,866.092
0.13,-0.192371,-0.00767229,0.330358,0.0663297,0.0622159,-0.104335,0.05763,-0.100371,-0.100712,0.327427,0.0230001,-0.182807,2.59108e-08,-3.06183e-09,0.3,-0.3,-12.9982,-18.6678,0.471934,182.835,-18.1211,0.907797,88.2333,-21.8025,866.107
0.131,-0.192371,-0.00767229,0.330358,0.0663297,0.0622159,-0.104335,0.05763,-0.100371,-0.100712,0.327427,0.0230001,-0.182807,2.59108e-08,-3.06183e-09,0.3,-0.3,-12.976,-18.6576,0.470639,182.909,-18.1378,0.928474,88.1306,-21.8278,866.123
0.132,-0.192371,-0.00767229,0.330358,0.0663297,0.0622159,-0.104335,0.05763,-0.100371,-0.100712,0.327427,0.0230001,-0.182807,2.59108e-08,-3.06183e-09,0.3,-0.3,-12.9543,-18.6475,0.468982,182.987,-18.1561,0.949121,88.0285,-21.8522,866.138
0.133,-0.192371,-0.00767229,0.330358,0.0663297,0.0622159,-0.104335,0.05763,-0.100371,-0.100712,0.327427,0.0230001,-0.182807,2.59108e-08,-3.06183e-09,0.3,-0.3,-12.9329,-18.6375,0.467044,183.068,-18.1756,0.969521,87.927,-21.8756,866.153
0.134,-0.192371,-0.00767229,0.330358,0.0663297,0.0622159,-0.104335,0.05763,-0.100371,-0.100712,0.327427,0.0230001,-0.182807,2.59108e-08,-3.06183e-09,0.3,-0.3,-12.9151,-18.6347,0.476006,183.151,-18.196,0.993858,87.8278,-21.8979,866.171
0.135,-0.192371,-0.00767229,0.330358,0.0663297,0.0622159,-0.104335,0.05763,-0.100371,-0.100712,0.327427,0.0230001,-0.182807,2.59108e-08,-3.06183e-09,0.3,-0.3,-12.8964,-18.6549,0.493096,183.236,-18.2168,1.01972,87.7299,-21.9195,866.191
0.136,-0.192371,-0.00767229,0.330358,0.0663297,0.0622159,-0.104335,0.05763,-0.100371,-0.100712,0.327427,0.0230001,-0.182807,2.59108e-08,-3.06183e-09,0.3,-0.3,-12.8785,-18.6733,0.50636,183.322,-18.2379,1.04716,87.6332,-21.9401,866.213
0.137,-0.192371,-0.00767229,0.330358,0.0663297,0.0622159,-0.104335,0.05763,-0.100371,-0.100712,0.327427,0.0230001,-0.182807,2.59108e-08,-3.06183e-09,0.3,-0.3,-12.8615,-18.6901,0.516749,183.411,-18.2591,1.07585,87.538,-21.9599,866.236
0.138,-0.192371,-0.00767229,0.330358,0.0663297,0.0622159,-0.104335,0.05763,-0.100371,-0.100712,0.327427,0.0230001,-0.182807,2.59108e-08,-3.06183e-09,0.3,-0.3,-12.8451,-18.7057,0.5251,183.5,-18.2808,1.10541,87.4443,-21.9786,866.26
0.139,-0.192371,-0.00767229,0.330358,0.0663297,0.0622159,-0.104335,0.05763,-0.100371,-0.100712,0.327427,0.0230001,-0.182807,2.59108e-08,-3.06183e-09,0.3,-0.3,-12.8294,-18.7201,0.532088,183.591,-18.3028,1.13545,87.3521,-21.9964,866.285
0.14,-0.192371,-0.00767229,0.330358,0.0663297,0.0622159,-0.104335,0.05763,-0.100371,-0.100712,0.327427,0.0230001,-0.182807,2.59108e-08,-3.06183e-09,0.3,-0.3,-12.8141,-18.7335,0.538282,183.682,-18.3254,1.16558,87.2614,-22.0132,866.311
0.141,-0.192371,-0.00767229,0.330358,0.0663297,0.0622159,-0.104335,0.05763,-0.100371,-0.100712,0.327427,0.0230001,-0.182807,2.59108e-08,-3.06183e-09,0.3,-0.3,-12.7992,-18.746,0.544132,183.776,-18.3485,1.19525,87.1722,-22.0289,866.336
0.142,-0.192371,-0.00767229,0.330358,0.0663297,0.0622159,-0.104335,0.05763,-0.100371,-0.100712,0.327427,0.0230001,-0.182807,2.59108e-08,-3.06183e-09,0.3,-0.3,-12.7846,-18.7576,0.549464,183.87,-18.3722,1.22437,87.0846,-22.0435,866.361
0.143,-0.192371,-0.00767229,0.330358,0.0663297,0.0622159,-0.104335,0.05763,-0.100371,-0.100712,0.327427,0.0230001,-0.182807,2.59108e-08,-3.06183e-09,0.3,-0.3,-12.7702,-18.7683,0.554628,183.966,-18.3965,1.25276,86.9985,-22.057,866.385
0.144,-0.192371,-0.00767229,0.330358,0.0663297,0.0622159,-0.104335,0.05763,-0.100371,-0.100712,0.327427,0.0230001,-0.182807,2.59108e-08,-3.06183e-09,0.3,-0.3,-12.7561,-18.7783,0.559833,184.063,-18.4213,1.28034,86.9139,-22.0694,866.409
0.145,-0.192371,-0.00767229,0.330358,0.0663297,0.0622159,-0.104335,0.05763,-0.100371,-0.100712,0.327427,0.0230001,-0.182807,2.59108e-08,-3.06183e-09,0.3,-0.3,-12.7422,-18.7875,0.56518,184.16,-18.4465,1.30703,86.8309,-22.0806,866.432
0.146,-0.192371,-0.00767229,0.330358,0.0663297,0.0622159,-0.104335,0.05763,-0.100371,-0.100712,0.327427,0.0230001,-0.182807,2.59108e-08,-3.06183e-09,0.3,-0.3,-12.7285,-18.7962,0.570703,184.258,-18.4721,1.33279,86.7494,-22.0908,866.453
0.147,-0.192371,-0.00767229,0.330358,0.0663297,0.0622159,-0.104335,0.05763,-0.100371,-0.100712,0.327427,0.0230001,-0.182807,2.59108e-08,-3.06183e-09,0.3,-0.3,-12.715,-18.8042,0.576392,184.357,-18.498,1.35761,86.6693,-22.0998,866.474
0.148,-0.192371,-0.00767229,0.330358,0.0663297,0.0622159,-0.104335,0.05763,-0.100371,-0.100712,0.327427,0.0230001,-0.182807,2.59108e-08,-3.06183e-09,0.3,-0.3,-12.7015,-18.8118,0.582211,184.455,-18.5239,1.38146,86.5908,-22.1077,866.495
0.149,-0.192371,-0.00767229,0.330358,0.0663297,0.0622159,-0.104335,0.05763,-0.100371,-0.100712,0.327427,0.0230001,-0.182807,2.59108e-08,-3.06183e-09,0.3,-0.3,-12.6881,-18.819,0.588101,184.554,-18.5498,1.40435,86.5137,-22.1145,866.514
0.15,-0.192371,-0.00767229,0.330358,0.0663297,0.0622159,-0.104335,0.05763,-0.100371,-0.100712,0.327427,0.0230001,-0.182807,2.59108e-08,-3.06183e-09,0.3,-0.3,-12.6749,-18.8259,0.593999,184.652,-18.5756,1.42628,86.4381,-22.1202,866.533
0.151,-0.192371,-0.00767229,0.330358,0.0663297,0.0622159,-0.104335,0.05763,-0.100371,-0.100712,0.327427,0.0230001,-0.182807,2.59108e-08,-3.06183e-09,0.3,-0.3,-12.6607,-18.8333,0.599878,184.75,-18.6011,1.44727,86.3638,-22.1247,866.551
0.152,-0.192371,-0.00767229,0.330358,0.0663297,0.0622159,-0.104335,0.05763,-0.100371,-0.100712,0.327427,0.0230001,-0.182807,2.59108e-08,-3.06183e-09,0.3,-0.3,-12.6462,-18.8405,0.605567,184.847,-18.6263,1.46732,86.2909,-22.1282,866.568
0.153,-0.192371,-0.00767229,0.330358,0.0663297,0.0622159,-0.104335,0.05763,-0.100371,-0.100712,0.327427,0.0230001,-0.182807,2.59108e-08,-3.06183e-09,0.3,-0.3,-12.6313,-18.8475,0.611041,184.942,-18.6509,1.48649,86.2194,-22.1304,866.584
0.154,-0.192371,-0.00767229,0.330358,0.0663297,0.0622159,-0.104335,0.05763,-0.100371,-0.100712,0.327427,0.0230001,-0.182807,2.59108e-08,-3.06183e-09,0.3,-0.3,-12.6161,-18.8546,0.616257,185.037,-18.6749,1.50479,86.1492,-22.1315,866.6
0.155,-0.192371,-0.00767229,0.330358,0.0663297,0.0622159,-0.104335,0.05763,-0.100371,-0.100712,0.327427,0.0230001,-0.182807,2.59108e-08,-3.06183e-09,0.3,-0.3,-12.5998,-18.8623,0.621194,185.131,-18.6983,1.52223,86.0803,-22.1315,866.615
0.156,-0.192371,-0.00767229,0.330358,0.0663297,0.0622159,-0.104335,0.05763,-0.100371,-0.100712,0.327427,0.0230001,-0.182807,2.59108e-08,-3.06183e-09,0.3,-0.3,-12.5828,-18.87,0.625724,185.223,-18.721,1.53887,86.0127,-22.1303,866.629
0.157,-0.192371,-0.00767229,0.330358,0.0663297,0.0622159,-0.104335,0.05763,-0.100371,-0.100712,0.327427,0.0230001,-0.182807,2.59108e-08,-3.06183e-09,0.3,-0.3,-12.5653,-18.8778,0.62985,185.314,-18.7428,1.55473,85.9464,-22.128,866.643
0.158,-0.192371,-0.00767229,0.330358,0.0663297,0.0622159,-0.104335,0.05763,-0.100371,-0.100712,0.327427,0.0230001,-0.182807,2.59108e-08,-3.06183e-09,0.3,-0.3,-12.5472,-18.8859,0.633569,185.404,-18.7639,1.56984,85.8814,-22.1244,866.656
0.159,-0.192371,-0.00767229,0.330358,0.0663297,0.0622159,-0.104335,0.05763,-0.100371,-0.100712,0.327427,0.0230001,-0.182807,2.59108e-08,-3.06183e-09,0.3,-0.3,-12.5284,-18.8942,0.636878,185.491,-18.7841,1.58423,85.8176,-22.1197,866.669
0.16,-0.192371,-0.00767229,0.330358,0.0663297,0.0622159,-0.104335,0.05763,-0.100371,-0.100712,0.327427,0.0230001,-0.182807,2.59108e-08,-3.06183e-09,0.3,-0.3,-12.5079,-18.9033,0.639699,185.578,-18.8035,1.59795,85.755,-22.1138,866.681
0.161,-0.192371,-0.00767229,0.330358,0.0663297,0.0622159,-0.104335,0.05763,-0.100371,-0.100712,0.327427,0.0230001,-0.182807,2.59108e-08,-3.06183e-09,0.3,-0.3,-12.487,-18.9126,0.642075,185.662,-18.8221,1.61102,85.6937,-22.1068,866.692
0.162,-0.192371,-0.00767229,0.330358,0.0663297,0.0622159,-0.104335,0.05763,-0.100371,-0.100712,0.327427,0.0230001,-0.182807,2.59108e-08,-3.06183e-09,0.3,-0.3,-12.4654,-18.922,0.643993,185.745,-18.8399,1.62348,85.6336,-22.0985,866.703
0.163,-0.192371,-0.00767229,0.330358,0.0663297,0.0622159,-0.104335,0.05763,-0.100371,-0.100712,0.327427,0.0230001,-0.182807,2.59108e-08,-3.06183e-09,0.3,-0.3,-12.4434,-18.9316,0.645477,185.827,-18.857,1.63536,85.5748,-22.0891,866.714
0.164,-0.192371,-0.00767229,0.330358,0.0663297,0.0622159,-0.104335,0.05763,-0.100371,-0.100712,0.327427,0.0230001,-0.182807,2.59108e-08,-3.06183e-09,0.3,-0.3,-12.4204,-18.9417,0.646565,185.907,-18.8735,1.64666,85.5171,-22.0785,866.724
0.165,-0.192371,-0.00767229,0.330358,0.0663297,0.0622159,-0.104335,0.05763,-0.100371,-0.100712,0.327427,0.0230001,-0.182807,2.59108e-08,-3.06183e-09,0.3,-0.3,-12.3969,-18.952,0.647207,185.986,-18.8893,1.65744,85.4607,-22.0667,866.734
0.166,-0.192371,-0.00767229,0.330358,0.0663297,0.0622159,-0.104335,0.05763,-0.100371,-0.100712,0.327427,0.0230001,-0.182807,2.59108e-08,-3.06183e-09,0.3,-0.3,-12.3731,-18.9625,0.647465,186.063,-18.9047,1.66772,85.4055,-22.0537,866.743
0.167,-0.192371,-0.00767229,0.330358,0.0663297,0.0622159,-0.104335,0.05763,-0.100371,-0.100712,0.327427,0.0230001,-0.182807,2.59108e-08,-3.06183e-09,0.3,-0.3,-12.3489,-18.9732,0.647366,186.139,-18.9197,1.6775,85.3515,-22.0396,866.752
0.168,-0.192371,-0.00767229,0.330358,0.0663297,0.0622159,-0.104335,0.05763,-0.100371,-0.100712,0.327427,0.0230001,-0.182807,2.59108e-08,-3.06183e-09,0.3,-0.3,-12.3236,-18.9842,0.646863,186.214,-18.9343,1.68685,85.2987,-22.0243,866.76
0.169,-0.192371,-0.00767229,0.330358,0.0663297,0.0622159,-0.104335,0.05763,-0.100371,-0.100712,0.327427,0.0230001,-0.182807,2.59108e-08,-3.06183e-09,0.3,-0.3,-12.298,-18.9955,0.645988,186.287,-18.9489,1.69576,85.2472,-22.0079,866.768
0.17,-0.192371,-0.00767229,0.330358,0.0663297,0.0622159,-0.104335,0.05763,-0.100371,-0.100712,0.327427,0.0230001,-0.182807,2.59108e-08,-3.06183e-09,0.3,-0.3,-12.2726,-19.0068,0.644823,186.36,-18.9634,1.70423,85.197,-21.9903,866.776
0.171,-0.192371,-0.00767229,0.330358,0.0663297,0.0622159,-0.104335,0.05763,-0.100371,-0.100712,0.327427,0.0230001,-0.182807,2.59108e-08,-3.06183e-09,0.3,-0.3,-12.2468,-19.0183,0.643336,186.431,-18.978,1.71232,85.148,-21.9717,866.783
0.172,-0.192371,-0.00767229,0.330358,0.0663297,0.0622159,-0.104335,0.05763,-0.100371,-0.100712,0.327427,0.0230001,-0.182807,2.59108e-08,-3.06183e-09,0.3,-0.3,-12.221,-19.0298,0.641565,186.502,-18.9928,1.72001,85.1003,-21.9519,866.79
0.173,-0.192371,-0.00767229,0.330358,0.0663297,0.0622159,-0.104335,0.05763,-0.100371,-0.100712,0.327427,0.0230001,-0.182807,2.59108e-08,-3.06183e-09,0.3,-0.3,-12.1952,-19.0414,0.639518,186.571,-19.008,1.72734,85.0538,-21.931,866.796
0.174,-0.192371,-0.00767229,0.330358,0.0663297,0.0622159,-0.104335,0.05763,-0.100371,-0.100712,0.327427,0.0230001,-0.182807,2.59108e-08,-3.06183e-09,0.3,-0.3,-12.1694,-19.053,0.637207,186.64,-19.0236,1.73429,85.0086,-21.909,866.802
0.175,-0.192371,-0.00767229,0.330358,0.0663297,0.0622159,-0.104335,0.05763,-0.100371,-0.100712,0.327427,0.0230001,-0.182807,2.59108e-08,-3.06183e-09,0.3,-0.3,-12.1438,-19.0645,0.634641,186.708,-19.0397,1.74089,84.9646,-21.886,866.808
0.176,-0.192371,-0.00767229,0.330358,0.0663297,0.0622159,-0.104335,0.05763,-0.100371,-0.100712,0.327427,0.0230001,-0.182807,2.59108e-08,-3.06183e-09,0.3,-0.3,-12.1183,-19.076,0.631829,186.776,-19.0565,1.74714,84.922,-21.8619,866.813
0.177,-0.192371,-0.00767229,0.330358,0.0663297,0.0622159,-0.104335,0.05763,-0.100371,-0.100712,0.327427,0.0230001,-0.182807,2.59108e-08,-3.06183e-09,0.3,-0.3,-12.0931,-19.0874,0.628775,186.842,-19.074,1.75304,84.8806,-21.8368,866.818
0.178,-0.192371,-0.00767229,0.330358,0.0663297,0.0622159,-0.104335,0.05763,-0.100371,-0.100712,0.327427,0.0230001,-0.182807,2.59108e-08,-3.06183e-09,0.3,-0.3,-12.0681,-19.0987,0.625485,186.908,-19.0924,1.7586,84.8404,-21.8106,866.823
0.179,-0.192371,-0.00767229,0.330358,0.0663297,0.0622159,-0.104335,0.05763,-0.100371,-0.100712,0.327427,0.0230001,-0.182807,2.59108e-08,-3.06183e-09,0.3,-0.3,-12.0434,-19.1099,0.621961,186.973,-19.1116,1.76383,84.8015,-21.7834,866.827
0.18,-0.192371,-0.00767229,0.330358,0.0663297,0.0622159,-0.104335,0.05763,-0.100371,-0.100712,0.327427,0.0230001,-0.182807,2.59108e-08,-3.06183e-09,0.3,-0.3,-12.0191,-19.121,0.618204,187.038,-19.1318,1.76873,84.7639,-21.7552,866.831
0.181,-0.192371,-0.00767229,0.330358,0.0663297,0.0622159,-0.104335,0.05763,-0.100371,-0.100712,0.327427,0.0230001,-0.182807,2.59108e-08,-3.06183e-09,0.3,-0.3,-11.995,-19.1319,0.614216,187.101,-19.1531,1.7733,84.7276,-21.7259,866.834
0.182,-0.192371,-0.00767229,0.330358,0.0663297,0.0622159,-0.104335,0.05763,-0.100371,-0.100712,0.327427,0.0230001,-0.182807,2.59108e-08,-3.06183e-09,0.3,-0.3,-11.9713,-19.1428,0.609997,187.164,-19.1753,1.77754,84.6925,-21.6956,866.837
0.183,-0.192371,-0.00767229,0.330358,0.0663297,0.0622159,-0.104335,0.05763,-0.100371,-0.100712,0.327427,0.0230001,-0.182807,2.59108e-08,-3.06183e-09,0.3,-0.3,-11.9479,-19.1535,0.605544,187.226,-19.1987,1.78145,84.6586,-21.6644,866.839
0.184,-0.192371,-0.00767229,0.330358,0.0663297,0.0622159,-0.104335,0.05763,-0.100371,-0.100712,0.327427,0.0230001,-0.182807,2.59108e-08,-3.06183e-09,0.3,-0.3,-11.9249,-19.164,0.600858,187.287,-19.2231,1.78505,84.626,-21.6321,866.841
0.185,-0.192371,-0.00767229,0.330358,0.0663297,0.0622159,-0.104335,0.05763,-0.100371,-0.100712,0.327427,0.0230001,-0.182807,2.59108e-08,-3.06183e-09,0.3,-0.3,-11.9022,-19.1745,0.595935,187.347,-19.2487,1.78832,84.5946,-21.5988,866.843
0.186,-0.192371,-0.00767229,0.330358,0.0663297,0.0622159,-0.104335,0.05763,-0.100371,-0.100712,0.327427,0.0230001,-0.182807,2.59108e-08,-3.06183e-09,0.3,-0.3,-11.8798,-19.1847,0.590775,187.406,-19.2755,1.79127,84.5645,-21.5646,866.845
0.187,-0.192371,-0.00767229,0.330358,0.0663297,0.0622159,-0.104335,0.05763,-0.100371,-0.100712,0.327427,0.0230001,-0.182807,2.59108e-08,-3.06183e-09,0.3,-0.3,-11.8577,-19.1949,0.585374,187.464,-19.3033,1.7939,84.5356,-21.5293,866.846
0.188,-0.192371,-0.00767229,0.330358,0.0663297,0.0622159,-0.104335,0.05763,-0.100371,-0.100712,0.327427,0.0230001,-0.182807,2.59108e-08,-3.06183e-09,0.3,-0.3,-11.8358,-19.205,0.57973,187.521,-19.3324,1.79623,84.5079,-21.493,866.846
0.189,-0.192371,-0.00767229,0.330358,0.0663297,0.0622159,-0.104335,0.05763,-0.100371,-0.100712,0.327427,0.0230001,-0.182807,2.59108e-08,-3.06183e-09,0.3,-0.3,-11.8142,-19.2149,0.573841,187.576,-19.3625,1.79824,84.4814,-21.4558,866.846
0.19,-0.192371,-0.00767229,0.330358,0.0663297,0.0622159,-0.104335,0.05763,-0.100371,-0.100712,0.327427,0.0230001,-0.182807,2.59108e-08,-3.06183e-09,0.3,-0.3,-11.7929,-19.2247,0.567705,187.63,-19.3938,1.79994,84.4561,-21.4175,866.846
0.191,-0.192371,-0.00767229,0.330358,0.0663297,0.0622159,-0.104335,0.05763,-0.100371,-0.100712,0.327427,0.0230001,-0.182807,2.59108e-08,-3.06183e-09,0.3,-0.3,-11.7717,-19.2344,0.561319,187.683,-19.4261,1.80133,84.4319,-21.3782,866.845
0.192,-0.192371,-0.00767229,0.330358,0.0663297,0.0622159,-0.104335,0.05763,-0.100371,-0.100712,0.327427,0.0230001,-0.182807,2.59108e-08,-3.06183e-09,0.3,-0.3,-11.7507,-19.244,0.554682,187.734,-19.4596,1.80243,84.409,-21.3379,866.844
0.193,-0.192371,-0.00767229,0.330358,0.0663297,0.0622159,-0.104335,0.05763,-0.100371,-0.100712,0.327427,0.0230001,-0.182807,2.59108e-08,-3.06183e-09,0.3,-0.3,-11.7298,-19.2535,0.547792,187.784,-19.4941,1.80323,84.3873,-21.2967,866.842
0.194,-0.192371,-0.00767229,0.330358,0.0663297,0.0622159,-0.104335,0.05763,-0.100371,-0.100712,0.327427,0.0230001,-0.182807,2.59108e-08,-3.06183e-09,0.3,-0.3,-11.709,-19.2629,0.540646,187.831,-19.5296,1.80373,84.3667,-21.2544,866.84
0.195,-0.192371,-0.00767229,0.330358,0.0663297,0.0622159,-0.104335,0.05763,-0.100371,-0.100712,0.327427,0.0230001,-0.182807,2.59108e-08,-3.06183e-09,0.3,-0.3,-11.6884,-19.2722,0.533244,187.877,-19.5662,1.80395,84.3472,-21.211,866.838
0.196,-0.192371,-0.00767229,0.330358,0.0663297,0.0622159,-0.104335,0.05763,-0.100371,-0.100712,0.327427,0.0230001,-0.182807,2.59108e-08,-3.06183e-09,0.3,-0.3,-11.6681,-19.2813,0.525582,187.921,-19.6038,1.80389,84.3289,-21.1667,866.835
0.197,-0.192371,-0.00767229,0.330358,0.0663297,0.0622159,-0.104335,0.05763,-0.100371,-0.100712,0.327427,0.0230001,-0.182807,2.59108e-08,-3.06183e-09,0.3,-0.3,-11.648,-19.2907,0.5177,187.963,-19.6423,1.80353,84.3118,-21.1213,866.832
0.198,-0.192371,-0.00767229,0.330358,0.0663297,0.0622159,-0.104335,0.05763,-0.100371,-0.100712,0.327427,0.0230001,-0.182807,2.59108e-08,-3.06183e-09,0.3,-0.3,-11.6276,-19.3003,0.509519,188.002,-19.6818,1.8029,84.2957,-21.075,866.828
0.199,-0.192371,-0.00767229,0.330358,0.0663297,0.0622159,-0.104335,0.05763,-0.100371,-0.100712,0.327427,0.0230001,-0.182807,2.59108e-08,-3.06183e-09,0.3,-0.3,-11.6069,-19.3099,0.501058,188.04,-19.7222,1.80202,84.2808,-21.0275,866.824
0.2,-0.192371,-0.00767229,0.330358,0.0663297,0.0622159,-0.104335,0.05763,-0.100371,-0.100712,0.327427,0.0230001,-0.182807,2.59108e-08,-3.06183e-09,0.3,-0.3,-11.5861,-19.3195,0.492339,188.075,-19.7635,1.8009,84.267,-20.9791,866.82
0.201,-0.192371,-0.00767229,0.330358,0.0663297,0.0622159,-0.104335,0.05763,-0.100371,-0.100712,0.327427,0.0230001,-0.182807,2.59108e-08,-3.06183e-09,0.3,-0.3,-11.5653,-19.3292,0.483359,188.108,-19.8058,1.79952,84.2543,-20.9296,866.815
0.202,-0.192371,-0.00767229,0.330358,0.0663297,0.0622159,-0.104335,0.05763,-0.100371,-0.100712,0.327427,0.0230001,-0.182807,2.59108e-08,-3.06183e-09,0.3,-0.3,-11.5443,-19.339,0.474115,188.138,-19.8491,1.79792,84.2427,-20.8791,866.81
0.203,-0.192371,-0.00767229,0.330358,0.0663297,0.0622159,-0.104335,0.05763,-0.100371,-0.100712,0.327427,0.0230001,-0.182807,2.59108e-08,-3.06183e-09,0.3,-0.3,-11.5232,-19.3488,0.464609,188.166,-19.8933,1.79608,84.2322,-20.8276,866.804
0.204,-0.192371,-0.00767229,0.330358,0.0663297,0.0622159,-0.104335,0.05763,-0.100371,-0.100712,0.327427,0.0230001,-0.182807,2.59108e-08,-3.06183e-09,0.3,-0.3,-11.502,-19.3588,0.454739,188.192,-19.9386,1.79352,84.2228,-20.7751,866.798
0.205,-0.192371,-0.00767229,0.330358,0.0663297,0.0622159,-0.104335,0.05763,-0.100371,-0.100712,0.327427,0.0230001,-0.182807,2.59108e-08,-3.06183e-09,0.3,-0.3,-11.4804,-19.3688,0.444461,188.215,-19.9848,1.79009,84.2145,-20.7217,866.79
0.206,-0.192371,-0.00767229,0.330358,0.0663297,0.0622159,-0.104335,0.05763,-0.100371,-0.100712,0.327427,0.0230001,-0.182807,2.59108e-08,-3.06183e-09,0.3,-0.3,-11.4587,-19.3789,0.433952,188.236,-20.0316,1.7859,84.2072,-20.6672,866.783
0.207,-0.192371,-0.00767229,0.330358,0.0663297,0.0622159,-0.104335,0.05763,-0.100371,-0.100712,0.327427,0.0230001,-0.182807,2.59108e-08,-3.06183e-09,0.3,-0.3,-11.4367,-19.3892,0.423228,188.256,-20.0791,1.78104,84.2011,-20.6117,866.775
0.208,-0.192371,-0.00767229,0.330358,0.0663297,0.0622159,-0.104335,0.05763,-0.100371,-0.100712,0.327427,0.0230001,-0.182807,2.59108e-08,-3.06183e-09,0.3,-0.3,-11.4147,-19.3995,0.412285,188.274,-20.127,1.77556,84.196,-20.5552,866.767
0.209,-0.192371,-0.00767229,0.330358,0.0663297,0.0622159,-0.104335,0.05763,-0.100371,-0.100712,0.327427,0.0230001,-0.182807,2.59108e-08,-3.06183e-09,0.3,-0.3,-11.3925,-19.4099,0.401114,188.29,-20.1754,1.7695,84.1922,-20.4976,866.758
0.21,-0.192371,-0.00767229,0.330358,0.0663297,0.0622159,-0.104335,0.05763,-0.100371,-0.100712,0.327427,0.0230001,-0.182807,2.59108e-08,-3.06183e-09,0.3,-0.3,-11.3701,-19.4203,0.38971,188.306,-20.2239,1.7629,84.1896,-20.4389,866.749
0.211,-0.192371,-0.00767229,0.330358,0.0663297,0.0622159,-0.104335,0.05763,-0.100371,-0.100712,0.327427,0.0230001,-0.182807,2.59108e-08,-3.06183e-09,0.3,-0.3,-11.3476,-19.4308,0.378073,188.321,-20.2727,1.75576,84.1881,-20.3792,866.739
0.212,-0.192371,-0.00767229,0.330358,0.0663297,0.0622159,-0.104335,0.05763,-0.100371,-0.100712,0.327427,0.0230001,-0.182807,2.59108e-08,-3.06183e-09,0.3,-0.3,-11.3249,-19.4413,0.366207,188.335,-20.3216,1.74812,84.188,-20.3184,866.73
0.213,-0.192371,-0.00767229,0.330358,0.0663297,0.0622159,-0.104335,0.05763,-0.100371,-0.100712,0.327427,0.0230001,-0.182807,2.59108e-08,-3.06183e-09,0.3,-0.3,-11.3022,-19.4519,0.354113,188.349,-20.3705,1.73998,84.1891,-20.2565,866.719
0.214,-0.192371,-0.00767229,0.330358,0.0663297,0.0622159,-0.104335,0.05763,-0.100371,-0.100712,0.327427,0.0230001,-0.182807,2.59108e-08,-3.06183e-09,0.3,-0.3,-11.2793,-19.4624,0.341795,188.362,-20.4194,1.73136,84.1915,-20.1934,866.709
0.215,-0.192371,-0.00767229,0.330358,0.0663297,0.0622159,-0.104335,0.05763,-0.100371,-0.100712,0.327427,0.0230001,-0.182807,2.59108e-08,-3.06183e-09,0.3,-0.3,-11.2564,-19.473,0.329256,188.376,-20.4682,1.72224,84.1952,-20.1292,866.698
0.216,-0.192371,-0.00767229,0.330358,0.0663297,0.0622159,-0.104335,0.05763,-0.100371,-0.100712,0.327427,0.0230001,-0.182807,2.59108e-08,-3.06183e-09,0.3,-0.3,-11.2527,-19.4764,0.337297,188.382,-20.5191,1.71893,84.1974,-20.0677,866.695
0.217,-0.192371,-0.00767229,0.330358,0.0663297,0.0622159,-0.104335,0.05763,-0.100371,-0.100712,0.327427,0.0230001,-0.182807,2.59108e-08,-3.06183e-09,0.3,-0.3,-11.2689,-19.4848,0.357603,188.383,-20.5724,1.72166,84.2007,-20.0069,866.699
0.218,-0.192371,-0.00767229,0.330358,0.0663297,0.0622159,-0.104335,0.05763,-0.100371,-0.100712,0.327427,0.0230001,-0.182807,2.59108e-08,-3.06183e-09,0.3,-0.3,-11.2881,-19.4926,0.373475,188.379,-20.6266,1.72573,84.2049,-19.9471,866.705
0.219,-0.192371,-0.00767229,0.330358,0.0663297,0.0622159,-0.104335,0.05763,-0.100371,-0.100712,0.327427,0.0230001,-0.182807,2.59108e-08,-3.06183e-09,0.3,-0.3,-11.308,-19.5001,0.384741,188.372,-20.6814,1.72898,84.2101,-19.8883,866.711
0.22,-0.192371,-0.00767229,0.330358,0.0663297,0.0622159,-0.104335,0.05763,-0.100371,-0.100712,0.327427,0.0230001,-0.182807,2.59108e-08,-3.06183e-09,0.3,-0.3,-11.3292,-19.5081,0.392964,188.361,-20.7364,1.73077,84.2161,-19.8307,866.716
0.221,-0.192371,-0.00767229,0.330358,0.0663297,0.0622159,-0.104335,0.05763,-0.100371,-0.100712,0.327427,0.0230001,-0.182807,2.59108e-08,-3.06183e-09,0.3,-0.3,-11.3501,-19.5162,0.399576,188.347,-20.7914,1.73114,84.223,-19.7745,866.72
0.222,-0.192371,-0.00767229,0.330358,0.0663297,0.0622159,-0.104335,0.05763,-0.100371,-0.100712,0.327427,0.0230001,-0.182807,2.59108e-08,-3.06183e-09,0.3,-0.3,-11.3705,-19.5242,0.405587,188.329,-20.8464,1.73038,84.2309,-19.7196,866.723
0.223,-0.192371,-0.00767229,0.330358,0.0663297,0.0622159,-0.104335,0.05763,-0.100371,-0.100712,0.327427,0.0230001,-0.182807,2.59108e-08,-3.06183e-09,0.3,-0.3,-11.3911,-19.5327,0.411458,188.309,-20.9011,1.72875,84.2398,-19.6661,866.726
0.224,-0.192371,-0.00767229,0.330358,0.0663297,0.0622159,-0.104335,0.05763,-0.100371,-0.100712,0.327427,0.0230001,-0.182807,2.59108e-08,-3.06183e-09,0.3,-0.3,-11.4114,-19.5413,0.417594,188.287,-20.9552,1.72652,84.2496,-19.614,866.728
0.225,-0.192371,-0.00767229,0.330358,0.0663297,0.0622159,-0.104335,0.05763,-0.100371,-0.100712,0.327427,0.0230001,-0.182807,2.59108e-08,-3.06183e-09,0.3,-0.3,-11.4314,-19.55,0.424136,188.261,-21.0088,1.72383,84.2605,-19.5632,866.729
0.226,-0.192371,-0.00767229,0.330358,0.0663297,0.0622159,-0.104335,0.05763,-0.100371,-0.100712,0.327427,0.0230001,-0.182807,2.59108e-08,-3.06183e-09,0.3,-0.3,-11.4512,-19.5587,0.431118,188.234,-21.0614,1.72082,84.2724,-19.5137,866.731
0.227,-0.192371,-0.00767229,0.330358,0.0663297,0.0622159,-0.104335,0.05763,-0.100371,-0.100712,0.327427,0.0230001,-0.182807,2.59108e-08,-3.06183e-09,0.3,-0.3,-11.4709,-19.5675,0.438581,188.204,-21.113,1.71753,84.2854,-19.4655,866.732
0.228,-0.192371,-0.00767229,0.330358,0.0663297,0.0622159,-0.104335,0.05763,-0.100371,-0.100712,0.327427,0.0230001,-0.182807,2.59108e-08,-3.06183e-09,0.3,-0.3,-11.49,-19.5764,0.44637,188.173,-21.1635,1.71403,84.2995,-19.4185,866.734
0.229,-0.192371,-0.00767229,0.330358,0.0663297,0.0622159,-0.104335,0.05763,-0.100371,-0.100712,0.327427,0.0230001,-0.182807,2.59108e-08,-3.06183e-09,0.3,-0.3,-11.5089,-19.5853,0.454475,188.139,-21.2127,1.71034,84.3147,-19.3727,866.735
0.23,-0.192371,-0.00767229,0.330358,0.0663297,0.0622159,-0.104335,0.05763,-0.100371,-0.100712,0.327427,0.0230001,-0.182807,2.59108e-08,-3.06183e-09,0.3,-0.3,-11.5277,-19.5942,0.462804,188.105,-21.2606,1.70647,84.3311,-19.328,866.737
0.231,-0.192371,-0.00767229,0.330358,0.0663297,0.0622159,-0.104335,0.05763,-0.100371,-0.100712,0.327427,0.0230001,-0.182807,2.59108e-08,-3.06183e-09,0.3,-0.3,-11.5467,-19.6033,0.471277,188.07,-21.3072,1.7024,84.3487,-19.2844,866.738
0.232,-0.192371,-0.00767229,0.330358,0.0663297,0.0622159,-0.104335,0.05763,-0.100371,-0.100712,0.327427,0.0230001,-0.182807,2.59108e-08,-3.06183e-09,0.3,-0.3,-11.5656,-19.6124,0.479754,188.034,-21.3524,1.69812,84.3675,-19.2419,866.739
0.233,-0.192371,-0.00767229,0.330358,0.0663297,0.0622159,-0.104335,0.05763,-0.100371,-0.100712,0.327427,0.0230001,-0.182807,2.59108e-08,-3.06183e-09,0.3,-0.3,-11.5849,-19.6212,0.488139,187.998,-21.3964,1.69366,84.3876,-19.2005,866.741
0.234,-0.192371,-0.00767229,0.330358,0.0663297,0.0622159,-0.104335,0.05763,-0.100371,-0.100712,0.327427,0.0230001,-0.182807,2.59108e-08,-3.06183e-09,0.3,-0.3,-11.6036,-19.6303,0.496427,187.962,-21.4392,1.68897,84.409,-19.1601,866.742
0.235,-0.192371,-0.00767229,0.330358,0.0663297,0.0622159,-0.104335,0.05763,-0.100371,-0.100712,0.327427,0.0230001,-0.182807,2.59108e-08,-3.06183e-09,0.3,-0.3,-11.6223,-19.6394,0.504444,187.925,-21.4808,1.68404,84.4317,-19.1208,866.743
0.236,-0.192371,-0.00767229,0.330358,0.0663297,0.0622159,-0.104335,0.05763,-0.100371,-0.100712,0.327427,0.0230001,-0.182807,2.59108e-08,-3.06183e-09,0.3,-0.3,-11.6413,-19.6485,0.512203,187.89,-21.5215,1.67884,84.4557,-19.0825,866.743
0.237,-0.192371,-0.00767229,0.330358,0.0663297,0.0622159,-0.104335,0.05763,-0.100371,-0.100712,0.327427,0.0230001,-0.182807,2.59108e-08,-3.06183e-09,0.3,-0.3,-11.6605,-19.6578,0.519652,187.855,-21.5613,1.67336,84.4812,-19.0452,866.744
0.238,-0.192371,-0.00767229,0.330358,0.0663297,0.0622159,-0.104335,0.05763,-0.100371,-0.100712,0.327427,0.0230001,-0.182807,2.59108e-08,-3.06183e-09,0.3,-0.3,-11.68,-19.667,0.526753,187.82,-21.6004,1.66756,84.508,-19.0091,866.744
0.239,-0.192371,-0.00767229,0.330358,0.0663297,0.0622159,-0.104335,0.05763,-0.100371,-0.100712,0.327427,0.0230001,-0.182807,2.59108e-08,-3.06183e-09,0.3,-0.3,-11.7002,-19.6766,0.533498,187.787,-21.6389,1.66142,84.5363,-18.974,866.745
0.24,-0.192371,-0.00767229,0.330358,0.0663297,0.0622159,-0.104335,0.05763,-0.100371,-0.100712,0.327427,0.0230001,-0.182807,2.59108e-08,-3.06183e-09,0.3,-0.3,-11.7204,-19.6861,0.539863,187.755,-21.677,1.65491,84.566,-18.9399,866.744
0.241,-0.192371,-0.00767229,0.330358,0.0663297,0.0622159,-0.104335,0.05763,-0.100371,-0.100712,0.327427,0.0230001,-0.182807,2.59108e-08,-3.06183e-09,0.3,-0.3,-11.7405,-19.6954,0.545798,187.723,-21.7147,1.64803,84.5972,-18.907,866.744
0.242,-0.192371,-0.00767229,0.330358,0.0663297,0.0622159,-0.104335,0.05763,-0.100371,-0.100712,0.327427,0.0230001,-0.182807,2.59108e-08,-3.06183e-09,0.3,-0.3,-11.7608,-19.7048,0.551333,187.693,-21.7522,1.64075,84.6298,-18.8752,866.743
0.243,-0.192371,-0.00767229,0.330358,0.0663297,0.0622159,-0.104335,0.05763,-0.100371,-0.100712,0.327427,0.0230001,-0.182807,2.59108e-08,-3.06183e-09,0.3,-0.3,-11.7814,-19.7142,0.556463,187.665,-21.7896,1.63305,84.6639,-18.8445,866.742
0.244,-0.192371,-0.00767229,0.330358,0.0663297,0.0622159,-0.104335,0.05763,-0.100371,-0.100712,0.327427,0.0230001,-0.182807,2.59108e-08,-3.06183e-09,0.3,-0.3,-11.8022,-19.7238,0.561193,187.637,-21.827,1.62488,84.6995,-18.815,866.74
0.245,-0.192371,-0.00767229,0.330358,0.0663297,0.0622159,-0.104335,0.05763,-0.100371,-0.100712,0.327427,0.0230001,-0.182807,2.59108e-08,-3.06183e-09,0.3,-0.3,-11.8233,-19.7333,0.565529,187.611,-21.8646,1.61624,84.7366,-18.7866,866.739
0.246,-0.192371,-0.00767229,0.330358,0.0663297,0.0622159,-0.104335,0.05763,-0.100371,-0.100712,0.327427,0.0230001,-0.182807,2.59108e-08,-3.06183e-09,0.3,-0.3,-11.845,-19.743,0.569525,187.586,-21.9022,1.60708,84.7751,-18.7593,866.736
0.247,-0.192371,-0.00767229,0.330358,0.0663297,0.0622159,-0.104335,0.05763,-0.100371,-0.100712,0.327427,0.0230001,-0.182807,2.59108e-08,-3.06183e-09,0.3,-0.3,-11.8662,-19.7526,0.573112,187.563,-21.9401,1.59742,84.8151,-18.7332,866.734
0.248,-0.192371,-0.00767229,0.330358,0.0663297,0.0622159,-0.104335,0.05763,-0.100371,-0.100712,0.327427,0.0230001,-0.182807,2.59108e-08,-3.06183e-09,0.3,-0.3,-11.8876,-19.7622,0.576357,187.54,-21.9783,1.58724,84.8565,-18.7083,866.73
0.249,-0.192371,-0.00767229,0.330358,0.0663297,0.0622159,-0.104335,0.05763,-0.100371,-0.100712,0.327427,0.0230001,-0.182807,2.59108e-08,-3.06183e-09,0.3,-0.3,-11.9092,-19.7719,0.579265,187.519,-22.0167,1.5765,84.8995,-18.6846,866.727
0.25,-0.192371,-0.00767229,0.330358,0.0663297,0.0622159,-0.104335,0.05763,-0.100371,-0.100712,0.327427,0.0230001,-0.182807,2.59108e-08,-3.06183e-09,0.3,-0.3,-11.9308,-19.7816,0.581848,187.498,-22.0554,1.5652,84.9438,-18.662,866.723
0.251,-0.192371,-0.00767229,0.330358,0.0663297,0.0622159,-0.104335,0.05763,-0.100371,-0.100712,0.327427,0.0230001,-0.182807,2.59108e-08,-3.06183e-09,0.3,-0.3,-11.9525,-19.7913,0.584117,187.479,-22.0945,1.55333,84.9896,-18.6406,866.719
0.252,-0.192371,-0.00767229,0.330358,0.0663297,0.0622159,-0.104335,0.05763,-0.100371,-0.100712,0.327427,0.0230001,-0.182807,2.59108e-08,-3.06183e-09,0.3,-0.3,-11.9742,-19.8009,0.586083,187.46,-22.1339,1.54087,85.0368,-18.6204,866.714
0.253,-0.192371,-0.00767229,0.330358,0.0663297,0.0622159,-0.104335,0.05763,-0.100371,-0.100712,0.327427,0.0230001,-0.182807,2.59108e-08,-3.06183e-09,0.3,-0.3,-11.9959,-19.8106,0.587755,187.443,-22.1736,1.52781,85.0854,-18.6014,866.708
0.254,-0.192371,-0.00767229,0.330358,0.0663297,0.0622159,-0.104335,0.05763,-0.100371,-0.100712,0.327427,0.0230001,-0.182807,2.59108e-08,-3.06183e-09,0.3,-0.3,-12.0176,-19.8203,0.589143,187.425,-22.2135,1.51414,85.1354,-18.5835,866.702
0.255,-0.192371,-0.00767229,0.330358,0.0663297,0.0622159,-0.104335,0.05763,-0.100371,-0.100712,0.327427,0.0230001,-0.182807,2.59108e-08,-3.06183e-09,0.3,-0.3,-12.0393,-19.8299,0.590255,187.409,-22.2538,1.49987,85.1868,-18.5668,866.696
0.256,-0.192371,-0.00767229,0.330358,0.0663297,0.0622159,-0.104335,0.05763,-0.100371,-0.100712,0.327427,0.0230001,-0.182807,2.59108e-08,-3.06183e-09,0.3,-0.3,-12.0609,-19.8395,0.591097,187.392,-22.2943,1.48497,85.2395,-18.5513,866.689
0.257,-0.192371,-0.00767229,0.330358,0.0663297,0.0622159,-0.104335,0.05763,-0.100371,-0.100712,0.327427,0.0230001,-0.182807,2.59108e-08,-3.06183e-09,0.3,-0.3,-12.0825,-19.849,0.591676,187.376,-22.335,1.46946,85.2936,-18.537,866.682
0.258,-0.192371,-0.00767229,0.330358,0.0663297,0.0622159,-0.104335,0.05763,-0.100371,-0.100712,0.327427,0.0230001,-0.182807,2.59108e-08,-3.06183e-09,0.3,-0.3,-12.104,-19.8586,0.591997,187.36,-22.3759,1.45332,85.3491,-18.5238,866.674
0.259,-0.192371,-0.00767229,0.330358,0.0663297,0.0622159,-0.104335,0.05763,-0.100371,-0.100712,0.327427,0.0230001,-0.182807,2.59108e-08,-3.06183e-09,0.3,-0.3,-12.1255,-19.868,0.592065,187.344,-22.4169,1.43656,85.4058,-18.5117,866.666
0.26,-0.192371,-0.00767229,0.330358,0.0663297,0.0622159,-0.104335,0.05763,-0.100371,-0.100712,0.327427,0.0230001,-0.182807,2.59108e-08,-3.06183e-09,0.3,-0.3,-12.1469,-19.8775,0.591884,187.328,-22.4581,1.41918,85.4639,-18.5008,866.658
0.261,-0.192371,-0.00767229,0.330358,0.0663297,0.0622159,-0.104335,0.05763,-0.100371,-0.100712,0.327427,0.0230001,-0.182807,2.59108e-08,-3.06183e-09,0.3,-0.3,-12.1681,-19.8868,0.591458,187.312,-22.4994,1.40117,85.5232,-18.4911,866.648
0.262,-0.192371,-0.00767229,0.330358,0.0663297,0.0622159,-0.104335,0.05763,-0.100371,-0.100712,0.327427,0.0230001,-0.182807,2.59108e-08,-3.06183e-09,0.3,-0.3,-12.1893,-19.8962,0.59079,187.296,-22.5407,1.38255,85.5838,-18.4825,866.639
0.263,-0.192371,-0.00767229,0.330358,0.0663297,0.0622159,-0.104335,0.05763,-0.100371,-0.100712,0.327427,0.0230001,-0.182807,2.59108e-08,-3.06183e-09,0.3,-0.3,-12.2104,-19.9055,0.589882,187.28,-22.5821,1.36331,85.6458,-18.475,866.629
0.264,-0.192371,-0.00767229,0.330358,0.0663297,0.0622159,-0.104335,0.05763,-0.100371,-0.100712,0.327427,0.0230001,-0.182807,2.59108e-08,-3.06183e-09,0.3,-0.3,-12.2315,-19.9148,0.588738,187.263,-22.6235,1.34347,85.709,-18.4686,866.619
0.265,-0.192371,-0.00767229,0.330358,0.0663297,0.0622159,-0.104335,0.05763,-0.100371,-0.100712,0.327427,0.0230001,-0.182807,2.59108e-08,-3.06183e-09,0.3,-0.3,-12.2524,-19.924,0.587358,187.246,-22.6649,1.32302,85.7734,-18.4634,866.608
0.266,-0.192371,-0.00767229,0.330358,0.0663297,0.0622159,-0.104335,0.05763,-0.100371,-0.100712,0.327427,0.0230001,-0.182807,2.59108e-08,-3.06183e-09,0.3,-0.3,-12.2733,-19.9332,0.585745,187.229,-22.7064,1.30196,85.8392,-18.4593,866.596
0.267,-0.192371,-0.00767229,0.330358,0.0663297,0.0622159,-0.104335,0.05763,-0.100371,-0.100712,0.327427,0.0230001,-0.182807,2.59108e-08,-3.06183e-09,0.3,-0.3,-12.2941,-19.9424,0.583898,187.211,-22.7477,1.28031,85.9062,-18.4564,866.585
0.268,-0.192371,-0.00767229,0.330358,0.0663297,0.0622159,-0.104335,0.05763,-0.100371,-0.100712,0.327427,0.0230001,-0.182807,2.59108e-08,-3.06183e-09,0.3,-0.3,-12.3148,-19.9515,0.58182,187.193,-22.7891,1.25807,85.9745,-18.4545,866.572
0.269,-0.192371,-0.00767229,0.330358,0.0663297,0.0622159,-0.104335,0.05763,-0.100371,-0.100712,0.327427,0.0230001,-0.182807,2.59108e-08,-3.06183e-09,0.3,-0.3,-12.3355,-19.9607,0.57951,187.174,-22.8304,1.23524,86.044,-18.4538,866.56
0.27,-0.192371,-0.00767229,0.330358,0.0663297,0.0622159,-0.104335,0.05763,-0.100371,-0.100712,0.327427,0.0230001,-0.182807,2.59108e-08,-3.06183e-09,0.3,-0.3,-12.3561,-19.9698,0.576968,187.155,-22.8717,1.21184,86.1148,-18.4542,866.547
0.271,-0.192371,-0.00767229,0.330358,0.0663297,0.0622159,-0.104335,0.05763,-0.100371,-0.100712,0.327427,0.0230001,-0.182807,2.59108e-08,-3.06183e-09,0.3,-0.3,-12.3767,-19.979,0.574195,187.136,-22.9129,1.18785,86.1868,-18.4557,866.534
0.272,-0.192371,-0.00767229,0.330358,0.0663297,0.0622159,-0.104335,0.05763,-0.100371,-0.100712,0.327427,0.0230001,-0.182807,2.59108e-08,-3.06183e-09,0.3,-0.3,-12.3972,-19.9881,0.57119,187.116,-22.9541,1.16329,86.2602,-18.4584,866.52
0.273,-0.192371,-0.00767229,0.330358,0.0663297,0.0622159,-0.104335,0.05763,-0.100371,-0.100712,0.327427,0.0230001,-0.182807,2.59108e-08,-3.06183e-09,0.3,-0.3,-12.4177,-19.9972,0.567952,187.096,-22.9953,1.13817,86.3348,-18.4621,866.505
0.274,-0.192371,-0.00767229,0.330358,0.0663297,0.0622159,-0.104335,0.05763,-0.100371,-0.100712,0.327427,0.0230001,-0.182807,2.59108e-08,-3.06183e-09,0.3,-0.3,-12.4382,-20.0064,0.56448,187.075,-23.0364,1.11248,86.4106,-18.467,866.491
0.275,-0.192371,-0.00767229,0.330358,0.0663297,0.0622159,-0.104335,0.05763,-0.100371,-0.100712,0.327427,0.0230001,-0.182807,2.59108e-08,-3.06183e-09,0.3,-0.3,-12.4587,-20.0156,0.560773,187.055,-23.0775,1.08624,86.4877,-18.4731,866.476
0.276,-0.192371,-0.00767229,0.330358,0.0663297,0.0622159,-0.104335,0.05763,-0.100371,-0.100712,0.327427,0.0230001,-0.182807,2.59108e-08,-3.06183e-09,0.3,-0.3,-12.4791,-20.0248,0.55683,187.033,-23.1186,1.05943,86.5661,-18.4802,866.461
0.277,-0.192371,-0.00767229,0.330358,0.0663297,0.0622159,-0.104335,0.05763,-0.100371,-0.100712,0.327427,0.0230001,-0.182807,2.59108e-08,-3.06183e-09,0.3,-0.3,-12.4996,-20.034,0.552649,187.012,-23.1596,1.03207,86.6458,-18.4885,866.445
0.278,-0.192371,-0.00767229,0.330358,0.0663297,0.0622159,-0.104335,0.05763,-0.100371,-0.100712,0.327427,0.0230001,-0.182807,2.59108e-08,-3.06183e-09,0.3,-0.3,-12.52,-20.0433,0.54823,186.99,-23.2007,1.00415,86.7268,-18.4979,866.428
0.279,-0.192371,-0.00767229,0.330358,0.0663297,0.0622159,-0.104335,0.05763,-0.100371,-0.100712,0.327427,0.0230001,-0.182807,2.59108e-08,-3.06183e-09,0.3,-0.3,-12.5405,-20.0526,0.543569,186.968,-23.2417,0.975689,86.8091,-18.5084,866.412
0.28,-0.192371,-0.00767229,0.330358,0.0663297,0.0622159,-0.104335,0.05763,-0.100371,-0.100712,0.327427,0.0230001,-0.182807,2.59108e-08,-3.06183e-09,0.3,-0.3,-12.561,-20.0619,0.538667,186.946,-23.2828,0.946672,86.8926,-18.52,866.395
0.281,-0.192371,-0.00767229,0.330358,0.0663297,0.0622159,-0.104335,0.05763,-0.100371,-0.100712,0.327427,0.0230001,-0.182807,2.59108e-08,-3.06183e-09,0.3,-0.3,-12.5815,-20.0713,0.53352,186.924,-23.3238,0.917105,86.9775,-18.5328,866.377
0.282,-0.192371,-0.00767229,0.330358,0.0663297,0.0622159,-0.104335,0.05763,-0.100371,-0.100712,0.327427,0.0230001,-0.182807,2.59108e-08,-3.06183e-09,0.3,-0.3,-12.6021,-20.0808,0.528128,186.902,-23.3649,0.88699,87.0636,-18.5467,866.359
0.283,-0.192371,-0.00767229,0.330358,0.0663297,0.0622159,-0.104335,0.05763,-0.100371,-0.100712,0.327427,0.0230001,-0.182807,2.59108e-08,-3.06183e-09,0.3,-0.3,-12.6228,-20.0903,0.522489,186.88,-23.406,0.856323,87.1511,-18.5618,866.341
0.284,-0.192371,-0.00767229,0.330358,0.0663297,0.0622159,-0.104335,0.05763,-0.100371,-0.100712,0.327427,0.0230001,-0.182807,2.59108e-08,-3.06183e-09,0.3,-0.3,-12.6436,-20.0999,0.516599,186.857,-23.4472,0.825108,87.2398,-18.5779,866.323
0.285,-0.192371,-0.00767229,0.330358,0.0663297,0.0622159,-0.104335,0.05763,-0.100371,-0.100712,0.327427,0.0230001,-0.182807,2.59108e-08,-3.06183e-09,0.3,-0.3,-12.6646,-20.1096,0.510453,186.835,-23.4884,0.793339,87.3299,-18.5953,866.304
0.286,-0.192371,-0.00767229,0.330358,0.0663297,0.0622159,-0.104335,0.05763,-0.100371,-0.100712,0.327427,0.0230001,-0.182807,2.59108e-08,-3.06183e-09,0.3,-0.3,-12.686,-20.119,0.504039,186.812,-23.5297,0.761,87.4212,-18.6137,866.284
0.287,-0.192371,-0.00767229,0.330358,0.0663297,0.0622159,-0.104335,0.05763,-0.100371,-0.100712,0.327427,0.0230001,-0.182807,2.59108e-08,-3.06183e-09,0.3,-0.3,-12.7071,-20.1283,0.497399,186.789,-23.571,0.728111,87.5139,-18.6333,866.264
0.288,-0.192371,-0.00767229,0.330358,0.0663297,0.0622159,-0.104335,0.05763,-0.100371,-0.100712,0.327427,0.0230001,-0.182807,2.59108e-08,-3.06183e-09,0.3,-0.3,-12.7278,-20.1376,0.490414,186.767,-23.6124,0.694677,87.6078,-18.654,866.244
0.289,-0.192371,-0.00767229,0.330358,0.0663297,0.0622159,-0.104335,0.05763,-0.100371,-0.100712,0.327427,0.0230001,-0.182807,2.59108e-08,-3.06183e-09,0.3,-0.3,-12.7486,-20.1467,0.483178,186.744,-23.6538,0.660698,87.7031,-18.6758,866.223
0.29,-0.192371,-0.00767229,0.330358,0.0663297,0.0622159,-0.104335,0.05763,-0.100371,-0.100712,0.327427,0.0230001,-0.182807,2.59108e-08,-3.06183e-09,0.3,-0.3,-12.7693,-20.1559,0.475683,186.722,-23.6953,0.626163,87.7997,-18.6988,866.202
0.291,-0.192371,-0.00767229,0.330358,0.0663297,0.0622159,-0.104335,0.05763,-0.100371,-0.100712,0.327427,0.0230001,-0.182807,2.59108e-08,-3.06183e-09,0.3,-0.3,-12.7901,-20.1651,0.46793,186.7,-23.7368,0.591072,87.8977,-18.7229,866.181
0.292,-0.192371,-0.00767229,0.330358,0.0663297,0.0622159,-0.104335,0.05763,-0.100371,-0.100712,0.327427,0.0230001,-0.182807,2.59108e-08,-3.06183e-09,0.3,-0.3,-12.811,-20.1742,0.459917,186.678,-23.7783,0.555422,87.9969,-18.7481,866.159
0.293,-0.192371,-0.00767229,0.330358,0.0663297,0.0622159,-0.104335,0.05763,-0.100371,-0.100712,0.327427,0.0230001,-0.182807,2.59108e-08,-3.06183e-09,0.3,-0.3,-12.8318,-20.1834,0.451645,186.656,-23.8199,0.519211,88.0975,-18.7744,866.136
0.294,-0.192371,-0.00767229,0.330358,0.0663297,0.0622159,-0.104335,0.05763,-0.100371,-0.100712,0.327427,0.0230001,-0.182807,2.59108e-08,-3.06183e-09,0.3,-0.3,-12.8528,-20.1925,0.443261,186.633,-23.8302,0.497072,88.1985,-18.8002,866.121
0.295,-0.192371,-0.00767229,0.330358,0.0663297,0.0622159,-0.104335,0.05763,-0.100371,-0.100712,0.327427,0.0230001,-0.182807,2.59108e-08,-3.06183e-09,0.3,-0.3,-12.883,-20.1906,0.43604,186.612,-23.8203,0.479187,88.298,-18.8262,866.109
0.296,-0.192371,-0.00767229,0.330358,0.0663297,0.0622159,-0.104335,0.05763,-0.100371,-0.100712,0.327427,0.0230001,-0.182807,2.59108e-08,-3.06183e-09,0.3,-0.3,-12.912,-20.1877,0.438622,186.592,-23.8108,0.463741,88.3958,-18.8534,866.1
0.297,-0.192371,-0.00767229,0.330358,0.0663297,0.0622159,-0.104335,0.05763,-0.100371,-0.100712,0.327427,0.0230001,-0.182807,2.59108e-08,-3.06183e-09,0.3,-0.3,-12.9397,-20.1845,0.443884,186.572,-23.8013,0.450884,88.4917,-18.8818,866.095
0.298,-0.192371,-0.00767229,0.330358,0.0663297,0.0622159,-0.104335,0.05763,-0.100371,-0.100712,0.327427,0.0230001,-0.182807,2.59108e-08,-3.06183e-09,0.3,-0.3,-12.9659,-20.1807,0.451842,186.552,-23.792,0.440718,88.5857,-18.9113,866.094
0.299,-0.192371,-0.00767229,0.330358,0.0663297,0.0622159,-0.104335,0.05763,-0.100371,-0.100712,0.327427,0.0230001,-0.182807,2.59108e-08,-3.06183e-09,0.3,-0.3,-12.9903,-20.1757,0.462551,186.533,-23.7828,0.433268,88.6779,-18.9418,866.096
0.3,-0.192371,-0.00767229,0.330358,0.0663297,0.0622159,-0.104335,0.05763,-0.100371,-0.100712,0.327427,0.0230001,-0.182807,2.59108e-08,-3.06183e-09,0.3,-0.3,-13.0129,-20.1693,0.476117,186.514,-23.7737,0.428627,88.7681,-18.9733,866.101
0.301,-0.192371,-0.00767229,0.330358,0.0663297,0.0622159,-0.104335,0.05763,-0.100371,-0.100712,0.327427,0.0230001,-0.182807,2.59108e-08,-3.06183e-09,0.3,-0.3,-13.0336,-20.1608,0.492685,186.495,-23.7646,0.426752,88.8564,-19.0058,866.11
0.302,-0.192371,-0.00767229,0.330358,0.0663297,0.0622159,-0.104335,0.05763,-0.100371,-0.100712,0.327427,0.0230001,-0.182807,2.59108e-08,-3.06183e-09,0.3,-0.3,-13.0528,-20.1502,0.512334,186.476,-23.7556,0.427721,88.9428,-19.0392,866.122
0.303,-0.192371,-0.00767229,0.330358,0.0663297,0.0622159,-0.104335,0.05763,-0.100371,-0.100712,0.327427,0.0230001,-0.182807,2.59108e-08,-3.06183e-09,0.3,-0.3,-13.0707,-20.1369,0.535128,186.458,-23.7467,0.43169,89.0273,-19.0735,866.138
0.304,-0.192371,-0.00767229,0.330358,0.0663297,0.0622159,-0.104335,0.05763,-0.100371,-0.100712,0.327427,0.0230001,-0.182807,2.59108e-08,-3.06183e-09,0.3,-0.3,-13.0874,-20.1208,0.560978,186.44,-23.738,0.429798,89.1108,-19.1082,866.15
0.305,-0.192371,-0.00767229,0.330358,0.0663297,0.0622159,-0.104335,0.05763,-0.100371,-0.100712,0.327427,0.0230001,-0.182807,2.59108e-08,-3.06183e-09,0.3,-0.3,-13.1052,-20.0998,0.579815,186.422,-23.7295,0.427626,89.1931,-19.1433,866.159
0.306,-0.192371,-0.00767229,0.330358,0.0663297,0.0622159,-0.104335,0.05763,-0.100371,-0.100712,0.327427,0.0230001,-0.182807,2.59108e-08,-3.06183e-09,0.3,-0.3,-13.1223,-20.075,0.596521,186.404,-23.7209,0.425373,89.2741,-19.179,866.167
0.307,-0.192371,-0.00767229,0.330358,0.0663297,0.0622159,-0.104335,0.05763,-0.100371,-0.100712,0.327427,0.0230001,-0.182807,2.59108e-08,-3.06183e-09,0.3,-0.3,-13.1381,-20.047,0.612894,186.386,-23.7124,0.423059,89.3537,-19.2154,866.175
0.308,-0.192371,-0.00767229,0.330358,0.0663297,0.0622159,-0.104335,0.05763,-0.100371,-0.100712,0.327427,0.0230001,-0.182807,2.59108e-08,-3.06183e-09,0.3,-0.3,-13.1524,-20.0161,0.629382,186.368,-23.7039,0.420681,89.4319,-19.2527,866.183
0.309,-0.192371,-0.00767229,0.330358,0.0663297,0.0622159,-0.104335,0.05763,-0.100371,-0.100712,0.327427,0.0230001,-0.182807,2.59108e-08,-3.06183e-09,0.3,-0.3,-13.1655,-19.9827,0.646042,186.351,-23.6955,0.418224,89.5087,-19.2908,866.191
0.31,-0.192371,-0.00767229,0.330358,0.0663297,0.0622159,-0.104335,0.05763,-0.100371,-0.100712,0.327427,0.0230001,-0.182807,2.59108e-08,-3.06183e-09,0.3,-0.3,-13.1777,-19.9471,0.662832,186.333,-23.6871,0.415672,89.584,-19.3297,866.198
0.311,-0.192371,-0.00767229,0.330358,0.0663297,0.0622159,-0.104335,0.05763,-0.100371,-0.100712,0.327427,0.0230001,-0.182807,2.59108e-08,-3.06183e-09,0.3,-0.3,-13.1892,-19.9096,0.679696,186.316,-23.6787,0.413012,89.6579,-19.3696,866.205
0.312,-0.192371,-0.00767229,0.330358,0.0663297,0.0622159,-0.104335,0.05763,-0.100371,-0.100712,0.327427,0.0230001,-0.182807,2.59108e-08,-3.06183e-09,0.3,-0.3,-13.2002,-19.8705,0.696577,186.298,-23.6704,0.410225,89.7304,-19.4104,866.212
0.313,-0.192371,-0.00767229,0.330358,0.0663297,0.0622159,-0.104335,0.05763,-0.100371,-0.100712,0.327427,0.0230001,-0.182807,2.59108e-08,-3.06183e-09,0.3,-0.3,-13.2109,-19.8298,0.713424,186.281,-23.6622,0.407301,89.8015,-19.4521,866.219
0.314,-0.192371,-0.00767229,0.330358,0.0663297,0.0622159,-0.104335,0.05763,-0.100371,-0.100712,0.327427,0.0230001,-0.182807,2.59108e-08,-3.06183e-09,0.3,-0.3,-13.2216,-19.7879,0.73019,186.264,-23.6539,0.40423,89.8711,-19.4948,866.226
0.315,-0.192371,-0.00767229,0.330358,0.0663297,0.0622159,-0.104335,0.05763,-0.100371,-0.100712,0.327427,0.0230001,-0.182807,2.59108e-08,-3.06183e-09,0.3,-0.3,-13.2323,-19.7449,0.746826,186.247,-23.6458,0.400995,89.9393,-19.5384,866.232
0.316,-0.192371,-0.00767229,0.330358,0.0663297,0.0622159,-0.104335,0.05763,-0.100371,-0.100712,0.327427,0.0230001,-0.182807,2.59108e-08,-3.06183e-09,0.3,-0.3,-13.2433,-19.7009,0.763287,186.23,-23.6376,0.397587,90.0061,-19.5831,866.238
0.317,-0.192371,-0.00767229,0.330358,0.0663297,0.0622159,-0.104335,0.05763,-0.100371,-0.100712,0.327427,0.0230001,-0.182807,2.59108e-08,-3.06183e-09,0.3,-0.3,-13.2544,-19.656,0.779526,186.213,-23.6294,0.393997,90.0714,-19.6288,866.244
0.318,-0.192371,-0.00767229,0.330358,0.0663297,0.0622159,-0.104335,0.05763,-0.100371,-0.100712,0.327427,0.0230001,-0.182807,2.59108e-08,-3.06183e-09,0.3,-0.3,-13.2659,-19.6106,0.795498,186.196,-23.6213,0.390213,90.1353,-19.6755,866.249
0.319,-0.192371,-0.00767229,0.330358,0.0663297,0.0622159,-0.104335,0.05763,-0.100371,-0.100712,0.327427,0.0230001,-0.182807,2.59108e-08,-3.06183e-09,0.3,-0.3,-13.2778,-19.5646,0.811158,186.179,-23.6131,0.386232,90.1977,-19.7232,866.254
0.32,-0.192371,-0.00767229,0.330358,0.0663297,0.0622159,-0.104335,0.05763,-0.100371,-0.100712,0.327427,0.0230001,-0.182807,2.59108e-08,-3.06183e-09,0.3,-0.3,-13.2901,-19.5182,0.826463,186.162,-23.605,0.382046,90.2587,-19.7721,866.259
0.321,-0.192371,-0.00767229,0.330358,0.0663297,0.0622159,-0.104335,0.05763,-0.100371,-0.100712,0.327427,0.0230001,-0.182807,2.59108e-08,-3.06183e-09,0.3,-0.3,-13.3028,-19.4716,0.841372,186.145,-23.5968,0.377645,90.3183,-19.822,866.263
0.322,-0.192371,-0.00767229,0.330358,0.0663297,0.0622159,-0.104335,0.05763,-0.100371,-0.100712,0.327427,0.0230001,-0.182807,2.59108e-08,-3.06183e-09,0.3,-0.3,-13.3159,-19.4249,0.855845,186.128,-23.5887,0.373028,90.3765,-19.873,866.267
0.323,-0.192371,-0.00767229,0.330358,0.0663297,0.0622159,-0.104335,0.05763,-0.100371,-0.100712,0.327427,0.0230001,-0.182807,2.59108e-08,-3.06183e-09,0.3,-0.3,-13.3294,-19.3783,0.869846,186.111,-23.5805,0.368185,90.4332,-19.9251,866.271
0.324,-0.192371,-0.00767229,0.330358,0.0663297,0.0622159,-0.104335,0.05763,-0.100371,-0.100712,0.327427,0.0230001,-0.182807,2.59108e-08,-3.06183e-09,0.3,-0.3,-13.3434,-19.3319,0.883344,186.094,-23.5723,0.363113,90.4885,-19.9783,866.274
0.325,-0.192371,-0.00767229,0.330358,0.0663297,0.0622159,-0.104335,0.05763,-0.100371,-0.100712,0.327427,0.0230001,-0.182807,2.59108e-08,-3.06183e-09,0.3,-0.3,-13.3577,-19.2859,0.89631,186.077,-23.5641,0.357815,90.5424,-20.0327,866.277
0.326,-0.192371,-0.00767229,0.330358,0.0663297,0.0622159,-0.104335,0.05763,-0.100371,-0.100712,0.327427,0.0230001,-0.182807,2.59108e-08,-3.06183e-09,0.3,-0.3,-13.3723,-19.2402,0.908656,186.06,-23.5559,0.35228,90.5949,-20.0882,866.28
0.327,-0.192371,-0.00767229,0.330358,0.0663297,0.0622159,-0.104335,0.05763,-0.100371,-0.100712,0.327427,0.0230001,-0.182807,2.59108e-08,-3.06183e-09,0.3,-0.3,-13.3872,-19.1952,0.920435,186.043,-23.5476,0.346504,90.6459,-20.1448,866.282
0.328,-0.192371,-0.00767229,0.330358,0.0663297,0.0622159,-0.104335,0.05763,-0.100371,-0.100712,0.327427,0.0230001,-0.182807,2.59108e-08,-3.06183e-09,0.3,-0.3,-13.4025,-19.1508,0.931606,186.026,-23.5393,0.34049,90.6955,-20.2025,866.284
0.329,-0.192371,-0.00767229,0.330358,0.0663297,0.0622159,-0.104335,0.05763,-0.100371,-0.100712,0.327427,0.0230001,-0.182807,2.59108e-08,-3.06183e-09,0.3,-0.3,-13.4182,-19.1072,0.942144,186.009,-23.5311,0.334229,90.7437,-20.2615,866.285
0.33,-0.192371,-0.00767229,0.330358,0.0663297,0.0622159,-0.104335,0.05763,-0.100371,-0.100712,0.327427,0.0230001,-0.182807,2.59108e-08,-3.06183e-09,0.3,-0.3,-13.4341,-19.0643,0.952033,185.992,-23.5228,0.327723,90.7904,-20.3215,866.286
0.331,-0.192371,-0.00767229,0.330358,0.0663297,0.0622159,-0.104335,0.05763,-0.100371,-0.100712,0.327427,0.0230001,-0.182807,2.59108e-08,-3.06183e-09,0.3,-0.3,-13.4503,-19.0224,0.961261,185.975,-23.5145,0.320969,90.8358,-20.3828,866.287
0.332,-0.192371,-0.00767229,0.330358,0.0663297,0.0622159,-0.104335,0.05763,-0.100371,-0.100712,0.327427,0.0230001,-0.182807,2.59108e-08,-3.06183e-09,0.3,-0.3,-13.4668,-18.9813,0.969819,185.957,-23.5062,0.313969,90.8797,-20.4452,866.287
0.333,-0.192371,-0.00767229,0.330358,0.0663297,0.0622159,-0.104335,0.05763,-0.100371,-0.100712,0.327427,0.0230001,-0.182807,2.59108e-08,-3.06183e-09,0.3,-0.3,-13.4835,-18.9412,0.977667,185.94,-23.4979,0.306719,90.9222,-20.5087,866.287
0.334,-0.192371,-0.00767229,0.330358,0.0663297,0.0622159,-0.104335,0.05763,-0.100371,-0.100712,0.327427,0.0230001,-0.182807,2.59108e-08,-3.06183e-09,0.3,-0.3,-13.5005,-18.902,0.984896,185.923,-23.4896,0.299221,90.9634,-20.5734,866.286
0.335,-0.192371,-0.00767229,0.330358,0.0663297,0.0622159,-0.104335,0.05763,-0.100371,-0.100712,0.327427,0.0230001,-0.182807,2.59108e-08,-3.06183e-09,0.3,-0.3,-13.5176,-18.8638,0.991421,185.906,-23.4814,0.291473,91.0031,-20.6393,866.285
0.336,-0.192371,-0.00767229,0.330358,0.0663297,0.0622159,-0.104335,0.05763,-0.100371,-0.100712,0.327427,0.0230001,-0.182807,2.59108e-08,-3.06183e-09,0.3,-0.3,-13.5349,-18.8265,0.9973,185.889,-23.4731,0.283468,91.0414,-20.7064,866.284
0.337,-0.192371,-0.00767229,0.330358,0.0663297,0.0622159,-0.104335,0.05763,-0.100371,-0.100712,0.327427,0.0230001,-0.182807,2.59108e-08,-3.06183e-09,0.3,-0.3,-13.5525,-18.7901,1.00252,185.872,-23.4648,0.275208,91.0783,-20.7745,866.282
0.338,-0.192371,-0.00767229,0.330358,0.0663297,0.0622159,-0.104335,0.05763,-0.100371,-0.100712,0.327427,0.0230001,-0.182807,2.59108e-08,-3.06183e-09,0.3,-0.3,-13.5702,-18.7546,1.00707,185.854,-23.4565,0.266691,91.1139,-20.8439,866.28
0.339,-0.192371,-0.00767229,0.330358,0.0663297,0.0622159,-0.104335,0.05763,-0.100371,-0.100712,0.327427,0.0230001,-0.182807,2.59108e-08,-3.06183e-09,0.3,-0.3,-13.588,-18.7199,1.01097,185.837,-23.4482,0.257921,91.148,-20.9143,866.277
0.34,-0.192371,-0.00767229,0.330358,0.0663297,0.0622159,-0.104335,0.05763,-0.100371,-0.100712,0.327427,0.0230001,-0.182807,2.59108e-08,-3.06183e-09,0.3,-0.3,-13.6061,-18.6859,1.01454,185.848,-23.4435,0.266918,91.183,-20.9814,866.281
0.341,-0.192371,-0.00767229,0.330358,0.0663297,0.0622159,-0.104335,0.05763,-0.100371,-0.100712,0.327427,0.0230001,-0.182807,2.59108e-08,-3.06183e-09,0.3,-0.3,-13.6172,-18.6493,1.02487,185.86,-23.4385,0.275459,91.2169,-21.0462,866.286
0.342,-0.192371,-0.00767229,0.330358,0.0663297,0.0622159,-0.104335,0.05763,-0.100371,-0.100712,0.327427,0.0230001,-0.182807,2.59108e-08,-3.06183e-09,0.3,-0.3,-13.6252,-18.608,1.03582,185.872,-23.4332,0.284428,91.2497,-21.1092,866.294
0.343,-0.192371,-0.00767229,0.330358,0.0663297,0.0622159,-0.104335,0.05763,-0.100371,-0.100712,0.327427,0.0230001,-0.182807,2.59108e-08,-3.06183e-09,0.3,-0.3,-13.6293,-18.5629,1.04825,185.884,-23.4278,0.293781,91.2814,-21.1707,866.304
0.344,-0.192371,-0.00767229,0.330358,0.0663297,0.0622159,-0.104335,0.05763,-0.100371,-0.100712,0.327427,0.0230001,-0.182807,2.59108e-08,-3.06183e-09,0.3,-0.3,-13.6298,-18.5149,1.06189,185.897,-23.4222,0.303452,91.3118,-21.2308,866.315
0.345,-0.192371,-0.00767229,0.330358,0.0663297,0.0622159,-0.104335,0.05763,-0.100371,-0.100712,0.327427,0.0230001,-0.182807,2.59108e-08,-3.06183e-09,0.3,-0.3,-13.627,-18.4655,1.07645,185.91,-23.4166,0.313396,91.341,-21.2897,866.327
0.346,-0.192371,-0.00767229,0.330358,0.0663297,0.0622159,-0.104335,0.05763,-0.100371,-0.100712,0.327427,0.0230001,-0.182807,2.59108e-08,-3.06183e-09,0.3,-0.3,-13.6213,-18.4158,1.09171,185.923,-23.411,0.323549,91.3691,-21.3475,866.339
0.347,-0.192371,-0.00767229,0.330358,0.0663297,0.0622159,-0.104335,0.05763,-0.100371,-0.100712,0.327427,0.0230001,-0.182807,2.59108e-08,-3.06183e-09,0.3,-0.3,-13.613,-18.3671,1.1075,185.936,-23.4053,0.333902,91.3959,-21.4043,866.352
0.348,-0.192371,-0.00767229,0.330358,0.0663297,0.0622159,-0.104335,0.05763,-0.100371,-0.100712,0.327427,0.0230001,-0.182807,2.59108e-08,-3.06183e-09,0.3,-0.3,-13.6027,-18.3201,1.12358,185.949,-23.3995,0.344391,91.4216,-21.4602,866.366
0.349,-0.192371,-0.00767229,0.330358,0.0663297,0.0622159,-0.104335,0.05763,-0.100371,-0.100712,0.327427,0.0230001,-0.182807,2.59108e-08,-3.06183e-09,0.3,-0.3,-13.5904,-18.2755,1.13982,185.962,-23.3938,0.354958,91.4461,-21.5152,866.379
0.35,-0.192371,-0.00767229,0.330358,0.0663297,0.0622159,-0.104335,0.05763,-0.100371,-0.100712,0.327427,0.0230001,-0.182807,2.59108e-08,-3.06183e-09,0.3,-0.3,-13.5765,-18.2338,1.15615,185.975,-23.3881,0.365612,91.4693,-21.5693,866.393
0.351,-0.192371,-0.00767229,0.330358,0.0663297,0.0622159,-0.104335,0.05763,-0.100371,-0.100712,0.327427,0.0230001,-0.182807,2.59108e-08,-3.06183e-09,0.3,-0.3,-13.5613,-18.1954,1.17249,185.988,-23.3823,0.376364,91.4913,-21.6226,866.407
0.352,-0.192371,-0.00767229,0.330358,0.0663297,0.0622159,-0.104335,0.05763,-0.100371,-0.100712,0.327427,0.0230001,-0.182807,2.59108e-08,-3.06183e-09,0.3,-0.3,-13.5449,-18.1602,1.18874,186.002,-23.3766,0.38719,91.5121,-21.675,866.421
0.353,-0.192371,-0.00767229,0.330358,0.0663297,0.0622159,-0.104335,0.05763,-0.100371,-0.100712,0.327427,0.0230001,-0.182807,2.59108e-08,-3.06183e-09,0.3,-0.3,-13.5274,-18.1283,1.20488,186.015,-23.3708,0.397753,91.5316,-21.7267,866.435
0.354,-0.192371,-0.00767229,0.330358,0.0663297,0.0622159,-0.104335,0.05763,-0.100371,-0.100712,0.327427,0.0230001,-0.182807,2.59108e-08,-3.06183e-09,0.3,-0.3,-13.5092,-18.0996,1.22065,186.028,-23.3651,0.408056,91.55,-21.7775,866.448
0.355,-0.192371,-0.00767229,0.330358,0.0663297,0.0622159,-0.104335,0.05763,-0.100371,-0.100712,0.327427,0.0230001,-0.182807,2.59108e-08,-3.06183e-09,0.3,-0.3,-13.4905,-18.0738,1.23557,186.042,-23.3593,0.418093,91.5672,-21.8274,866.461
0.356,-0.192371,-0.00767229,0.330358,0.0663297,0.0622159,-0.104335,0.05763,-0.100371,-0.100712,0.327427,0.0230001,-0.182807,2.59108e-08,-3.06183e-09,0.3,-0.3,-13.4713,-18.0506,1.24944,186.055,-23.3534,0.427834,91.5831,-21.8765,866.473
0.357,-0.192371,-0.00767229,0.330358,0.0663297,0.0622159,-0.104335,0.05763,-0.100371,-0.100712,0.327427,0.0230001,-0.182807,2.59108e-08,-3.06183e-09,0.3,-0.3,-13.4515,-18.0296,1.26222,186.069,-23.3476,0.437271,91.5979,-21.9246,866.485
0.358,-0.192371,-0.00767229,0.330358,0.0663297,0.0622159,-0.104335,0.05763,-0.100371,-0.100712,0.327427,0.0230001,-0.182807,2.59108e-08,-3.06183e-09,0.3,-0.3,-13.4314,-18.0105,1.27391,186.082,-23.3418,0.446392,91.6114,-21.9718,866.496
0.359,-0.192371,-0.00767229,0.330358,0.0663297,0.0622159,-0.104335,0.05763,-0.100371,-0.100712,0.327427,0.0230001,-0.182807,2.59108e-08,-3.06183e-09,0.3,-0.3,-13.4108,-17.9928,1.28454,186.095,-23.3361,0.455198,91.6237,-22.018,866.506
0.36,-0.192371,-0.00767229,0.330358,0.0663297,0.0622159,-0.104335,0.05763,-0.100371,-0.100712,0.327427,0.0230001,-0.182807,2.59108e-08,-3.06183e-09,0.3,-0.3,-13.39,-17.9762,1.29414,186.109,-23.3303,0.463682,91.6347,-22.0631,866.515
0.361,-0.192371,-0.00767229,0.330358,0.0663297,0.0622159,-0.104335,0.05763,-0.100371,-0.100712,0.327427,0.0230001,-0.182807,2.59108e-08,-3.06183e-09,0.3,-0.3,-13.369,-17.9605,1.30274,186.122,-23.3246,0.471846,91.6443,-22.1072,866.524
0.362,-0.192371,-0.00767229,0.330358,0.0663297,0.0622159,-0.104335,0.05763,-0.100371,-0.100712,0.327427,0.0230001,-0.182807,2.59108e-08,-3.06183e-09,0.3,-0.3,-13.3479,-17.9453,1.31039,186.135,-23.319,0.479687,91.6527,-22.1502,866.532
0.363,-0.192371,-0.00767229,0.330358,0.0663297,0.0622159,-0.104335,0.05763,-0.100371,-0.100712,0.327427,0.0230001,-0.182807,2.59108e-08,-3.06183e-09,0.3,-0.3,-13.3269,-17.9305,1.31712,186.148,-23.3133,0.487209,91.6598,-22.192,866.54
0.364,-0.192371,-0.00767229,0.330358,0.0663297,0.0622159,-0.104335,0.05763,-0.100371,-0.100712,0.327427,0.0230001,-0.182807,2.59108e-08,-3.06183e-09,0.3,-0.3,-13.3061,-17.9158,1.32299,186.161,-23.3077,0.494411,91.6655,-22.2328,866.547
0.365,-0.192371,-0.00767229,0.330358,0.0663297,0.0622159,-0.104335,0.05763,-0.100371,-0.100712,0.327427,0.0230001,-0.182807,2.59108e-08,-3.06183e-09,0.3,-0.3,-13.2855,-17.9009,1.32801,186.174,-23.3022,0.501297,91.6699,-22.2723,866.554
0.366,-0.192371,-0.00767229,0.330358,0.0663297,0.0622159,-0.104335,0.05763,-0.100371,-0.100712,0.327427,0.0230001,-0.182807,2.59108e-08,-3.06183e-09,0.3,-0.3,-13.2652,-17.8859,1.33225,186.186,-23.2966,0.507868,91.6729,-22.3107,866.56
0.367,-0.192371,-0.00767229,0.330358,0.0663297,0.0622159,-0.104335,0.05763,-0.100371,-0.100712,0.327427,0.0230001,-0.182807,2.59108e-08,-3.06183e-09,0.3,-0.3,-13.2454,-17.8706,1.33575,186.199,-23.2912,0.514124,91.6746,-22.3479,866.565
0.368,-0.192371,-0.00767229,0.330358,0.0663297,0.0622159,-0.104335,0.05763,-0.100371,-0.100712,0.327427,0.0230001,-0.182807,2.59108e-08,-3.06183e-09,0.3,-0.3,-13.226,-17.8548,1.33856,186.211,-23.2858,0.520071,91.6749,-22.3839,866.57
0.369,-0.192371,-0.00767229,0.330358,0.0663297,0.0622159,-0.104335,0.05763,-0.100371,-0.100712,0.327427,0.0230001,-0.182807,2.59108e-08,-3.06183e-09,0.3,-0.3,-13.2071,-17.8387,1.34071,186.224,-23.2804,0.525707,91.6738,-22.4187,866.575
0.37,-0.192371,-0.00767229,0.330358,0.0663297,0.0622159,-0.104335,0.05763,-0.100371,-0.100712,0.327427,0.0230001,-0.182807,2.59108e-08,-3.06183e-09,0.3,-0.3,-13.1889,-17.8221,1.34225,186.236,-23.2751,0.531042,91.6713,-22.4522,866.579
0.371,-0.192371,-0.00767229,0.330358,0.0663297,0.0622159,-0.104335,0.05763,-0.100371,-0.100712,0.327427,0.0230001,-0.182807,2.59108e-08,-3.06183e-09,0.3,-0.3,-13.1712,-17.805,1.34318,186.248,-23.2698,0.536076,91.6674,-22.4845,866.583
0.372,-0.192371,-0.00767229,0.330358,0.0663297,0.0622159,-0.104335,0.05763,-0.100371,-0.100712,0.327427,0.0230001,-0.182807,2.59108e-08,-3.06183e-09,0.3,-0.3,-13.1542,-17.7874,1.34356,186.26,-23.2646,0.540812,91.6621,-22.5156,866.586
0.373,-0.192371,-0.00767229,0.330358,0.0663297,0.0622159,-0.104335,0.05763,-0.100371,-0.100712,0.327427,0.0230001,-0.182807,2.59108e-08,-3.06183e-09,0.3,-0.3,-13.1378,-17.7693,1.34339,186.272,-23.2594,0.545259,91.6555,-22.5455,866.589
0.374,-0.192371,-0.00767229,0.330358,0.0663297,0.0622159,-0.104335,0.05763,-0.100371,-0.100712,0.327427,0.0230001,-0.182807,2.59108e-08,-3.06183e-09,0.3,-0.3,-13.1221,-17.7507,1.3427,186.284,-23.2542,0.549417,91.6474,-22.5741,866.591
0.375,-0.192371,-0.00767229,0.330358,0.0663297,0.0622159,-0.104335,0.05763,-0.100371,-0.100712,0.327427,0.0230001,-0.182807,2.59108e-08,-3.06183e-09,0.3,-0.3,-13.107,-17.7316,1.34149,186.296,-23.2491,0.553295,91.638,-22.6015,866.593
0.376,-0.192371,-0.00767229,0.330358,0.0663297,0.0622159,-0.104335,0.05763,-0.100371,-0.100712,0.327427,0.0230001,-0.182807,2.59108e-08,-3.06183e-09,0.3,-0.3,-13.0925,-17.7121,1.3398,186.307,-23.2441,0.556894,91.6272,-22.6277,866.594
0.377,-0.192371,-0.00767229,0.330358,0.0663297,0.0622159,-0.104335,0.05763,-0.100371,-0.100712,0.327427,0.0230001,-0.182807,2.59108e-08,-3.06183e-09,0.3,-0.3,-13.0787,-17.6921,1.33761,186.319,-23.239,0.560221,91.615,-22.6527,866.596
0.378,-0.192371,-0.00767229,0.330358,0.0663297,0.0622159,-0.104335,0.05763,-0.100371,-0.100712,0.327427,0.0230001,-0.182807,2.59108e-08,-3.06183e-09,0.3,-0.3,-13.0654,-17.6717,1.33495,186.331,-23.234,0.56328,91.6014,-22.6764,866.596
0.379,-0.192371,-0.00767229,0.330358,0.0663297,0.0622159,-0.104335,0.05763,-0.100371,-0.100712,0.327427,0.0230001,-0.182807,2.59108e-08,-3.06183e-09,0.3,-0.3,-13.0527,-17.6509,1.33181,186.342,-23.229,0.566072,91.5864,-22.699,866.597
0.38,-0.192371,-0.00767229,0.330358,0.0663297,0.0622159,-0.104335,0.05763,-0.100371,-0.100712,0.327427,0.0230001,-0.182807,2.59108e-08,-3.06183e-09,0.3,-0.3,-13.0405,-17.6297,1.3282,186.354,-23.224,0.568609,91.5701,-22.7203,866.597
0.381,-0.192371,-0.00767229,0.330358,0.0663297,0.0622159,-0.104335,0.05763,-0.100371,-0.100712,0.327427,0.0230001,-0.182807,2.59108e-08,-3.06183e-09,0.3,-0.3,-13.0288,-17.6082,1.32411,186.365,-23.219,0.570887,91.5524,-22.7404,866.596
0.382,-0.192371,-0.00767229,0.330358,0.0663297,0.0622159,-0.104335,0.05763,-0.100371,-0.100712,0.327427,0.0230001,-0.182807,2.59108e-08,-3.06183e-09,0.3,-0.3,-13.0176,-17.5864,1.31955,186.376,-23.2141,0.572912,91.5333,-22.7594,866.595
0.383,-0.192371,-0.00767229,0.330358,0.0663297,0.0622159,-0.104335,0.05763,-0.100371,-0.100712,0.327427,0.0230001,-0.182807,2.59108e-08,-3.06183e-09,0.3,-0.3,-13.0068,-17.5642,1.31452,186.388,-23.2092,0.574692,91.5129,-22.7771,866.594
0.384,-0.192371,-0.00767229,0.330358,0.0663297,0.0622159,-0.104335,0.05763,-0.100371,-0.100712,0.327427,0.0230001,-0.182807,2.59108e-08,-3.06183e-09,0.3,-0.3,-12.9964,-17.5419,1.309,186.399,-23.2043,0.576225,91.4911,-22.7937,866.592
0.385,-0.192371,-0.00767229,0.330358,0.0663297,0.0622159,-0.104335,0.05763,-0.100371,-0.100712,0.327427,0.0230001,-0.182807,2.59108e-08,-3.06183e-09,0.3,-0.3,-12.9864,-17.5192,1.30299,186.41,-23.1993,0.577518,91.468,-22.809,866.59
0.386,-0.192371,-0.00767229,0.330358,0.0663297,0.0622159,-0.104335,0.05763,-0.100371,-0.100712,0.327427,0.0230001,-0.182807,2.59108e-08,-3.06183e-09,0.3,-0.3,-12.9767,-17.4964,1.2965,186.422,-23.1944,0.578575,91.4436,-22.8233,866.588
0.387,-0.192371,-0.00767229,0.330358,0.0663297,0.0622159,-0.104335,0.05763,-0.100371,-0.100712,0.327427,0.0230001,-0.182807,2.59108e-08,-3.06183e-09,0.3,-0.3,-12.9673,-17.4735,1.28951,186.433,-23.1895,0.579393,91.4178,-22.8363,866.585
0.388,-0.192371,-0.00767229,0.330358,0.0663297,0.0622159,-0.104335,0.05763,-0.100371,-0.100712,0.327427,0.0230001,-0.182807,2.59108e-08,-3.06183e-09,0.3,-0.3,-12.9581,-17.4503,1.28202,186.444,-23.1847,0.579983,91.3906,-22.8482,866.582
0.389,-0.192371,-0.00767229,0.330358,0.0663297,0.0622159,-0.104335,0.05763,-0.100371,-0.100712,0.327427,0.0230001,-0.182807,2.59108e-08,-3.06183e-09,0.3,-0.3,-12.9492,-17.4271,1.27402,186.456,-23.1798,0.580339,91.3622,-22.8589,866.578
0.39,-0.192371,-0.00767229,0.330358,0.0663297,0.0622159,-0.104335,0.05763,-0.100371,-0.100712,0.327427,0.0230001,-0.182807,2.59108e-08,-3.06183e-09,0.3,-0.3,-12.9404,-17.4038,1.26551,186.467,-23.1749,0.580469,91.3324,-22.8684,866.574
0.391,-0.192371,-0.00767229,0.330358,0.0663297,0.0622159,-0.104335,0.05763,-0.100371,-0.100712,0.327427,0.0230001,-0.182807,2.59108e-08,-3.06183e-09,0.3,-0.3,-12.9317,-17.3805,1.25648,186.478,-23.17,0.580376,91.3012,-22.8768,866.57
0.392,-0.192371,-0.00767229,0.330358,0.0663297,0.0622159,-0.104335,0.05763,-0.100371,-0.100712,0.327427,0.0230001,-0.182807,2.59108e-08,-3.06183e-09,0.3,-0.3,-12.9232,-17.3571,1.24692,186.49,-23.1651,0.580059,91.2688,-22.8841,866.565
0.393,-0.192371,-0.00767229,0.330358,0.0663297,0.0622159,-0.104335,0.05763,-0.100371,-0.100712,0.327427,0.0230001,-0.182807,2.59108e-08,-3.06183e-09,0.3,-0.3,-12.9147,-17.3337,1.23684,186.501,-23.1603,0.579519,91.235,-22.8901,866.56
0.394,-0.192371,-0.00767229,0.330358,0.0663297,0.0622159,-0.104335,0.05763,-0.100371,-0.100712,0.327427,0.0230001,-0.182807,2.59108e-08,-3.06183e-09,0.3,-0.3,-12.9063,-17.3104,1.22623,186.512,-23.1554,0.578762,91.2,-22.8951,866.554
0.395,-0.192371,-0.00767229,0.330358,0.0663297,0.0622159,-0.104335,0.05763,-0.100371,-0.100712,0.327427,0.0230001,-0.182807,2.59108e-08,-3.06183e-09,0.3,-0.3,-12.8979,-17.2871,1.21508,186.523,-23.1506,0.577787,91.1636,-22.8989,866.548
0.396,-0.192371,-0.00767229,0.330358,0.0663297,0.0622159,-0.104335,0.05763,-0.100371,-0.100712,0.327427,0.0230001,-0.182807,2.59108e-08,-3.06183e-09,0.3,-0.3,-12.8894,-17.2639,1.20339,186.534,-23.1457,0.576595,91.1259,-22.9016,866.542
0.397,-0.192371,-0.00767229,0.330358,0.0663297,0.0622159,-0.104335,0.05763,-0.100371,-0.100712,0.327427,0.0230001,-0.182807,2.59108e-08,-3.06183e-09,0.3,-0.3,-12.8809,-17.2409,1.19115,186.546,-23.1409,0.575188,91.0869,-22.9031,866.535
0.398,-0.192371,-0.00767229,0.330358,0.0663297,0.0622159,-0.104335,0.05763,-0.100371,-0.100712,0.327427,0.0230001,-0.182807,2.59108e-08,-3.06183e-09,0.3,-0.3,-12.8724,-17.2179,1.17837,186.557,-23.1361,0.57357,91.0466,-22.9035,866.528
0.399,-0.192371,-0.00767229,0.330358,0.0663297,0.0622159,-0.104335,0.05763,-0.100371,-0.100712,0.327427,0.0230001,-0.182807,2.59108e-08,-3.06183e-09,0.3,-0.3,-12.8637,-17.1951,1.16504,186.568,-23.1312,0.571735,91.005,-22.9027,866.521
0.4,-0.192371,-0.00767229,0.330358,0.0663297,0.0622159,-0.104335,0.05763,-0.100371,-0.100712,0.327427,0.0230001,-0.182807,2.59108e-08,-3.06183e-09,0.3,-0.3,-12.8549,-17.1724,1.15116,186.579,-23.1264,0.569695,90.9621,-22.9008,866.513
0.401,-0.192371,-0.00767229,0.330358,0.0663297,0.0622159,-0.104335,0.05763,-0.100371,-0.100712,0.327427,0.0230001,-0.182807,2.59108e-08,-3.06183e-09,0.3,-0.3,-12.846,-17.15,1.13672,186.59,-23.1217,0.567442,90.9179,-22.8978,866.505
0.402,-0.192371,-0.00767229,0.330358,0.0663297,0.0622159,-0.104335,0.05763,-0.100371,-0.100712,0.327427,0.0230001,-0.182807,2.59108e-08,-3.06183e-09,0.3,-0.3,-12.8369,-17.1277,1.12173,186.601,-23.1169,0.564978,90.8724,-22.8936,866.496
0.403,-0.192371,-0.00767229,0.330358,0.0663297,0.0622159,-0.104335,0.05763,-0.100371,-0.100712,0.327427,0.0230001,-0.182807,2.59108e-08,-3.06183e-09,0.3,-0.3,-12.8277,-17.1055,1.10619,186.612,-23.1121,0.562307,90.8257,-22.8884,866.487
0.404,-0.192371,-0.00767229,0.330358,0.0663297,0.0622159,-0.104335,0.05763,-0.100371,-0.100712,0.327427,0.0230001,-0.182807,2.59108e-08,-3.06183e-09,0.3,-0.3,-12.8182,-17.0835,1.09001,186.623,-23.1076,0.55912,90.778,-22.8818,866.477
0.405,-0.192371,-0.00767229,0.330358,0.0663297,0.0622159,-0.104335,0.05763,-0.100371,-0.100712,0.327427,0.0230001,-0.182807,2.59108e-08,-3.06183e-09,0.3,-0.3,-12.8059,-17.0598,1.0715,186.633,-23.1031,0.555603,90.7292,-22.8742,866.466
0.406,-0.192371,-0.00767229,0.330358,0.0663297,0.0622159,-0.104335,0.05763,-0.100371,-0.100712,0.327427,0.0230001,-0.182807,2.59108e-08,-3.06183e-09,0.3,-0.3,-12.7907,-17.035,1.05204,186.643,-23.0988,0.551817,90.6793,-22.8653,866.455
0.407,-0.192371,-0.00767229,0.330358,0.0663297,0.0622159,-0.104335,0.05763,-0.100371,-0.100712,0.327427,0.0230001,-0.182807,2.59108e-08,-3.06183e-09,0.3,-0.3,-12.7731,-17.0095,1.03198,186.653,-23.0945,0.547783,90.6284,-22.8552,866.443
0.408,-0.192371,-0.00767229,0.330358,0.0663297,0.0622159,-0.104335,0.05763,-0.100371,-0.100712,0.327427,0.0230001,-0.182807,2.59108e-08,-3.06183e-09,0.3,-0.3,-12.7536,-16.9835,1.01138,186.663,-23.0902,0.543514,90.5762,-22.844,866.431
0.409,-0.192371,-0.00767229,0.330358,0.0663297,0.0622159,-0.104335,0.05763,-0.100371,-0.100712,0.327427,0.0230001,-0.182807,2.59108e-08,-3.06183e-09,0.3,-0.3,-12.7327,-16.9573,0.990249,186.673,-23.0858,0.539009,90.5229,-22.8316,866.418
0.41,-0.192371,-0.00767229,0.330358,0.0663297,0.0622159,-0.104335,0.05763,-0.100371,-0.100712,0.327427,0.0230001,-0.182807,2.59108e-08,-3.06183e-09,0.3,-0.3,-12.7108,-16.931,0.968571,186.683,-23.0815,0.534269,90.4684,-22.818,866.405
0.411,-0.192371,-0.00767229,0.330358,0.0663297,0.0622159,-0.104335,0.05763,-0.100371,-0.100712,0.327427,0.0230001,-0.182807,2.59108e-08,-3.06183e-09,0.3,-0.3,-12.6882,-16.9048,0.946354,186.693,-23.0771,0.529297,90.4126,-22.8032,866.392
0.412,-0.192371,-0.00767229,0.330358,0.0663297,0.0622159,-0.104335,0.05763,-0.100371,-0.100712,0.327427,0.0230001,-0.182807,2.59108e-08,-3.06183e-09,0.3,-0.3,-12.6654,-16.8788,0.923611,186.703,-23.0727,0.524088,90.3555,-22.7873,866.378
0.413,-0.192371,-0.00767229,0.330358,0.0663297,0.0622159,-0.104335,0.05763,-0.100371,-0.100712,0.327427,0.0230001,-0.182807,2.59108e-08,-3.06183e-09,0.3,-0.3,-12.6425,-16.853,0.900358,186.713,-23.0684,0.518641,90.2972,-22.7703,866.364
0.414,-0.192371,-0.00767229,0.330358,0.0663297,0.0622159,-0.104335,0.05763,-0.100371,-0.100712,0.327427,0.0230001,-0.182807,2.59108e-08,-3.06183e-09,0.3,-0.3,-12.6198,-16.8275,0.876612,186.723,-23.064,0.512951,90.2376,-22.7521,866.35
0.415,-0.192371,-0.00767229,0.330358,0.0663297,0.0622159,-0.104335,0.05763,-0.100371,-0.100712,0.327427,0.0230001,-0.182807,2.59108e-08,-3.06183e-09,0.3,-0.3,-12.5974,-16.8025,0.852388,186.733,-23.0597,0.507023,90.1766,-22.7329,866.335
0.416,-0.192371,-0.00767229,0.330358,0.0663297,0.0622159,-0.104335,0.05763,-0.100371,-0.100712,0.327427,0.0230001,-0.182807,2.59108e-08,-3.06183e-09,0.3,-0.3,-12.5754,-16.7778,0.827702,186.743,-23.0553,0.500851,90.1143,-22.7125,866.32
0.417,-0.192371,-0.00767229,0.330358,0.0663297,0.0622159,-0.104335,0.05763,-0.100371,-0.100712,0.327427,0.0230001,-0.182807,2.59108e-08,-3.06183e-09,0.3,-0.3,-12.5541,-16.7535,0.802565,186.753,-23.051,0.494434,90.0507,-22.691,866.304
0.418,-0.192371,-0.00767229,0.330358,0.0663297,0.0622159,-0.104335,0.05763,-0.100371,-0.100712,0.327427,0.0230001,-0.182807,2.59108e-08,-3.06183e-09,0.3,-0.3,-12.5334,-16.7298,0.776987,186.763,-23.0467,0.487776,89.9856,-22.6683,866.289
0.419,-0.192371,-0.00767229,0.330358,0.0663297,0.0622159,-0.104335,0.05763,-0.100371,-0.100712,0.327427,0.0230001,-0.182807,2.59108e-08,-3.06183e-09,0.3,-0.3,-12.5134,-16.7064,0.750974,186.773,-23.0423,0.480867,89.9192,-22.6446,866.273
0.42,-0.192371,-0.00767229,0.330358,0.0663297,0.0622159,-0.104335,0.05763,-0.100371,-0.100712,0.327427,0.0230001,-0.182807,2.59108e-08,-3.06183e-09,0.3,-0.3,-12.4942,-16.6835,0.724531,186.783,-23.038,0.473713,89.8514,-22.6198,866.256
0.421,-0.192371,-0.00767229,0.330358,0.0663297,0.0622159,-0.104335,0.05763,-0.100371,-0.100712,0.327427,0.0230001,-0.182807,2.59108e-08,-3.06183e-09,0.3,-0.3,-12.4757,-16.6611,0.697659,186.793,-23.0337,0.466309,89.7822,-22.5938,866.239
0.422,-0.192371,-0.00767229,0.330358,0.0663297,0.0622159,-0.104335,0.05763,-0.100371,-0.100712,0.327427,0.0230001,-0.182807,2.59108e-08,-3.06183e-09,0.3,-0.3,-12.4581,-16.6391,0.670357,186.803,-23.0295,0.458658,89.7116,-22.5668,866.222
0.423,-0.192371,-0.00767229,0.330358,0.0663297,0.0622159,-0.104335,0.05763,-0.100371,-0.100712,0.327427,0.0230001,-0.182807,2.59108e-08,-3.06183e-09,0.3,-0.3,-12.4412,-16.6176,0.642622,186.812,-23.0252,0.450756,89.6396,-22.5386,866.205
0.424,-0.192371,-0.00767229,0.330358,0.0663297,0.0622159,-0.104335,0.05763,-0.100371,-0.100712,0.327427,0.0230001,-0.182807,2.59108e-08,-3.06183e-09,0.3,-0.3,-12.4251,-16.5965,0.614451,186.822,-23.0209,0.442602,89.5661,-22.5094,866.187
