TheMarex/ba-thesis/notebook/unstabilized_logs/2014-10-08-00:58:50_trajectory.csv
"Timestamp","Trajectory_LeftLeg_Joint6","Trajectory_LeftLeg_Joint5","Trajectory_LeftLeg_Joint4","Trajectory_LeftLeg_Joint3","Trajectory_LeftLeg_Joint2","Trajectory_LeftLeg_Joint1","Trajectory_RightLeg_Joint1","Trajectory_RightLeg_Joint2","Trajectory_RightLeg_Joint3","Trajectory_RightLeg_Joint4","Trajectory_RightLeg_Joint5","Trajectory_RightLeg_Joint6","Trajectory_Torso_Joint1","Trajectory_Torso_Joint2","Trajectory_LeftArm_Joint3","Trajectory_RightArm_Joint3","Actual_LeftFootX","Actual_LeftFootY","Actual_LeftFootZ","Actual_RightFootX","Actual_RightFootY","Actual_RightFootZ","Actual_CoMX","Actual_CoMY","Actual_CoMZ"
0.001,-0.192335,-0.00766602,0.330352,0.0664505,0.0622742,-0.10429,0.05778,-0.100347,-0.100647,0.327447,0.023022,-0.182809,1.98691e-08,-4.56731e-09,0.3,-0.3,0,0,0.778126,172.018,-2.98923,0.765879,94.498,-21.111,893.211
0.002,-0.192335,-0.00766602,0.330352,0.0664505,0.0622742,-0.10429,0.05778,-0.100347,-0.100647,0.327447,0.023022,-0.182809,1.98691e-08,-4.56731e-09,0.3,-0.3,0,0,0.778126,172.018,-2.98923,0.765884,94.498,-21.111,893.211
0.003,-0.192335,-0.00766602,0.330352,0.0664505,0.0622742,-0.10429,0.05778,-0.100347,-0.100647,0.327447,0.023022,-0.182809,1.98691e-08,-4.56731e-09,0.3,-0.3,0,0,0.768316,172.018,-2.98896,0.765066,94.4975,-21.1119,893.207
0.004,-0.192335,-0.00766602,0.330352,0.0664505,0.0622742,-0.10429,0.05778,-0.100347,-0.100647,0.327447,0.023022,-0.182809,1.98691e-08,-4.56731e-09,0.3,-0.3,0.00252308,-0.00075448,0.756432,172.017,-2.98842,0.763824,94.4961,-21.1142,893.202
0.005,-0.192335,-0.00766602,0.330352,0.0664505,0.0622742,-0.10429,0.05778,-0.100347,-0.100647,0.327447,0.023022,-0.182809,1.98691e-08,-4.56731e-09,0.3,-0.3,0.00784542,-0.0186292,0.7576,172.019,-2.98966,0.762346,94.4949,-21.1152,893.187
0.006,-0.192335,-0.00766602,0.330352,0.0664505,0.0622742,-0.10429,0.05778,-0.100347,-0.100647,0.327447,0.023022,-0.182809,1.98691e-08,-4.56731e-09,0.3,-0.3,0.0104167,-0.0522306,0.76069,172.026,-3.00524,0.763186,94.4936,-21.1161,893.163
0.007,-0.192335,-0.00766602,0.330352,0.0664505,0.0622742,-0.10429,0.05778,-0.100347,-0.100647,0.327447,0.023022,-0.182809,1.98691e-08,-4.56731e-09,0.3,-0.3,0.00834184,-0.101678,0.765269,172.036,-3.03474,0.766035,94.4924,-21.1168,893.129
0.008,-0.192335,-0.00766602,0.330352,0.0664505,0.0622742,-0.10429,0.05778,-0.100347,-0.100647,0.327447,0.023022,-0.182809,1.98691e-08,-4.56731e-09,0.3,-0.3,0.00081766,-0.167159,0.771528,172.052,-3.07764,0.770462,94.4913,-21.1172,893.085
0.009,-0.192335,-0.00766602,0.330352,0.0664505,0.0622742,-0.10429,0.05778,-0.100347,-0.100647,0.327447,0.023022,-0.182809,1.98691e-08,-4.56731e-09,0.3,-0.3,-0.0127936,-0.24865,0.779289,172.073,-3.13342,0.776192,94.4903,-21.1174,893.031
0.01,-0.192335,-0.00766602,0.330352,0.0664505,0.0622742,-0.10429,0.05778,-0.100347,-0.100647,0.327447,0.023022,-0.182809,1.98691e-08,-4.56731e-09,0.3,-0.3,-0.0328891,-0.34603,0.788398,172.1,-3.20154,0.782984,94.4893,-21.1174,892.968
0.011,-0.192335,-0.00766602,0.330352,0.0664505,0.0622742,-0.10429,0.05778,-0.100347,-0.100647,0.327447,0.023022,-0.182809,1.98691e-08,-4.56731e-09,0.3,-0.3,-0.0596685,-0.459087,0.798706,172.132,-3.28151,0.790623,94.4885,-21.1172,892.894
0.012,-0.192335,-0.00766602,0.330352,0.0664505,0.0622742,-0.10429,0.05778,-0.100347,-0.100647,0.327447,0.023022,-0.182809,1.98691e-08,-4.56731e-09,0.3,-0.3,-0.0931841,-0.587541,0.810063,172.169,-3.37289,0.798918,94.4877,-21.1168,892.81
0.013,-0.192335,-0.00766602,0.330352,0.0664505,0.0622742,-0.10429,0.05778,-0.100347,-0.100647,0.327447,0.023022,-0.182809,1.98691e-08,-4.56731e-09,0.3,-0.3,-0.133383,-0.731057,0.822316,172.213,-3.47525,0.807686,94.487,-21.1162,892.717
0.014,-0.192335,-0.00766602,0.330352,0.0664505,0.0622742,-0.10429,0.05778,-0.100347,-0.100647,0.327447,0.023022,-0.182809,1.98691e-08,-4.56731e-09,0.3,-0.3,-0.180144,-0.889262,0.835313,172.262,-3.5882,0.816765,94.4864,-21.1154,892.613
0.015,-0.192335,-0.00766602,0.330352,0.0664505,0.0622742,-0.10429,0.05778,-0.100347,-0.100647,0.327447,0.023022,-0.182809,1.98691e-08,-4.56731e-09,0.3,-0.3,-0.233299,-1.06175,0.848902,172.316,-3.71139,0.825993,94.4859,-21.1144,892.5
0.016,-0.192335,-0.00766602,0.330352,0.0664505,0.0622742,-0.10429,0.05778,-0.100347,-0.100647,0.327447,0.023022,-0.182809,1.98691e-08,-4.56731e-09,0.3,-0.3,-0.292663,-1.24812,0.862932,172.376,-3.84448,0.83522,94.4855,-21.1132,892.376
0.017,-0.192335,-0.00766602,0.330352,0.0664505,0.0622742,-0.10429,0.05778,-0.100347,-0.100647,0.327447,0.023022,-0.182809,1.98691e-08,-4.56731e-09,0.3,-0.3,-0.358037,-1.44792,0.877255,172.442,-3.98716,0.844315,94.4852,-21.1118,892.243
0.018,-0.192335,-0.00766602,0.330352,0.0664505,0.0622742,-0.10429,0.05778,-0.100347,-0.100647,0.327447,0.023022,-0.182809,1.98691e-08,-4.56731e-09,0.3,-0.3,-0.429228,-1.66072,0.891728,172.513,-4.13914,0.85313,94.4849,-21.1103,892.1
0.019,-0.192335,-0.00766602,0.330352,0.0664505,0.0622742,-0.10429,0.05778,-0.100347,-0.100647,0.327447,0.023022,-0.182809,1.98691e-08,-4.56731e-09,0.3,-0.3,-0.50605,-1.88609,0.906211,172.589,-4.30012,0.861538,94.4847,-21.1086,891.947
0.02,-0.192335,-0.00766602,0.330352,0.0664505,0.0622742,-0.10429,0.05778,-0.100347,-0.100647,0.327447,0.023022,-0.182809,1.98691e-08,-4.56731e-09,0.3,-0.3,-0.588332,-2.12359,0.920569,172.67,-4.46984,0.869408,94.4846,-21.1067,891.784
0.021,-0.192335,-0.00766602,0.330352,0.0664505,0.0622742,-0.10429,0.05778,-0.100347,-0.100647,0.327447,0.023022,-0.182809,1.98691e-08,-4.56731e-09,0.3,-0.3,-0.675914,-2.37279,0.93467,172.756,-4.64803,0.876616,94.4846,-21.1047,891.611
0.022,-0.192335,-0.00766602,0.330352,0.0664505,0.0622742,-0.10429,0.05778,-0.100347,-0.100647,0.327447,0.023022,-0.182809,1.98691e-08,-4.56731e-09,0.3,-0.3,-0.768653,-2.63326,0.948388,172.847,-4.83441,0.883034,94.4846,-21.1025,891.428
0.023,-0.192335,-0.00766602,0.330352,0.0664505,0.0622742,-0.10429,0.05778,-0.100347,-0.100647,0.327447,0.023022,-0.182809,1.98691e-08,-4.56731e-09,0.3,-0.3,-0.866417,-2.90459,0.961602,172.943,-5.02874,0.888538,94.4847,-21.1002,891.236
0.024,-0.192335,-0.00766602,0.330352,0.0664505,0.0622742,-0.10429,0.05778,-0.100347,-0.100647,0.327447,0.023022,-0.182809,1.98691e-08,-4.56731e-09,0.3,-0.3,-0.969088,-3.18636,0.974191,173.044,-5.23075,0.893005,94.4849,-21.0977,891.033
0.025,-0.192335,-0.00766602,0.330352,0.0664505,0.0622742,-0.10429,0.05778,-0.100347,-0.100647,0.327447,0.023022,-0.182809,1.98691e-08,-4.56731e-09,0.3,-0.3,-1.07656,-3.47818,0.98604,173.15,-5.44017,0.896313,94.4851,-21.0951,890.821
0.026,-0.192335,-0.00766602,0.330352,0.0664505,0.0622742,-0.10429,0.05778,-0.100347,-0.100647,0.327447,0.023022,-0.182809,1.98691e-08,-4.56731e-09,0.3,-0.3,-1.18872,-3.77964,0.997031,173.261,-5.65677,0.898329,94.4854,-21.0923,890.599
0.027,-0.192335,-0.00766602,0.330352,0.0664505,0.0622742,-0.10429,0.05778,-0.100347,-0.100647,0.327447,0.023022,-0.182809,1.98691e-08,-4.56731e-09,0.3,-0.3,-1.30549,-4.09037,1.00705,173.376,-5.88027,0.898932,94.4858,-21.0895,890.367
0.028,-0.192335,-0.00766602,0.330352,0.0664505,0.0622742,-0.10429,0.05778,-0.100347,-0.100647,0.327447,0.023022,-0.182809,1.98691e-08,-4.56731e-09,0.3,-0.3,-1.42677,-4.40997,1.01599,173.496,-6.11042,0.897991,94.4862,-21.0865,890.125
0.029,-0.192335,-0.00766602,0.330352,0.0664505,0.0622742,-0.10429,0.05778,-0.100347,-0.100647,0.327447,0.023022,-0.182809,1.98691e-08,-4.56731e-09,0.3,-0.3,-1.55248,-4.73808,1.02372,173.621,-6.34698,0.895376,94.4866,-21.0834,889.873
0.03,-0.192335,-0.00766602,0.330352,0.0664505,0.0622742,-0.10429,0.05778,-0.100347,-0.100647,0.327447,0.023022,-0.182809,1.98691e-08,-4.56731e-09,0.3,-0.3,-1.68253,-5.07432,1.03013,173.75,-6.58967,0.890951,94.4872,-21.0802,889.612
0.031,-0.192335,-0.00766602,0.330352,0.0664505,0.0622742,-0.10429,0.05778,-0.100347,-0.100647,0.327447,0.023022,-0.182809,1.98691e-08,-4.56731e-09,0.3,-0.3,-1.81683,-5.41833,1.03509,173.885,-6.83826,0.884579,94.4878,-21.0769,889.341
0.032,-0.192335,-0.00766602,0.330352,0.0664505,0.0622742,-0.10429,0.05778,-0.100347,-0.100647,0.327447,0.023022,-0.182809,1.98691e-08,-4.56731e-09,0.3,-0.3,-1.95531,-5.76973,1.03849,174.023,-7.09248,0.876116,94.4884,-21.0735,889.059
0.033,-0.192335,-0.00766602,0.330352,0.0664505,0.0622742,-0.10429,0.05778,-0.100347,-0.100647,0.327447,0.023022,-0.182809,1.98691e-08,-4.56731e-09,0.3,-0.3,-2.09799,-6.12801,1.04029,174.149,-7.29019,0.875788,94.4868,-21.0644,888.774
0.034,-0.192335,-0.00766602,0.330352,0.0664505,0.0622742,-0.10429,0.05778,-0.100347,-0.100647,0.327447,0.023022,-0.182809,1.98691e-08,-4.56731e-09,0.3,-0.3,-2.24169,-6.48883,1.04722,174.272,-7.47334,0.873756,94.4838,-21.0527,888.482
0.035,-0.192335,-0.00766602,0.330352,0.0664505,0.0622742,-0.10429,0.05778,-0.100347,-0.100647,0.327447,0.023022,-0.182809,1.98691e-08,-4.56731e-09,0.3,-0.3,-2.39152,-6.84699,1.05444,174.394,-7.65084,0.870892,94.4798,-21.0391,888.183
0.036,-0.192335,-0.00766602,0.330352,0.0664505,0.0622742,-0.10429,0.05778,-0.100347,-0.100647,0.327447,0.023022,-0.182809,1.98691e-08,-4.56731e-09,0.3,-0.3,-2.54931,-7.20057,1.06132,174.517,-7.82341,0.867298,94.4746,-21.0237,887.876
0.037,-0.192335,-0.00766602,0.330352,0.0664505,0.0622742,-0.10429,0.05778,-0.100347,-0.100647,0.327447,0.023022,-0.182809,1.98691e-08,-4.56731e-09,0.3,-0.3,-2.71577,-7.54822,1.06801,174.64,-7.99025,0.862921,94.4682,-21.0063,887.561
0.038,-0.192335,-0.00766602,0.330352,0.0664505,0.0622742,-0.10429,0.05778,-0.100347,-0.100647,0.327447,0.023022,-0.182809,1.98691e-08,-4.56731e-09,0.3,-0.3,-2.89136,-7.8889,1.07471,174.762,-8.15043,0.857683,94.4606,-20.9868,887.239
0.039,-0.192335,-0.00766602,0.330352,0.0664505,0.0622742,-0.10429,0.05778,-0.100347,-0.100647,0.327447,0.023022,-0.182809,1.98691e-08,-4.56731e-09,0.3,-0.3,-3.07642,-8.22176,1.08157,174.884,-8.30299,0.851501,94.4515,-20.9652,886.91
0.04,-0.192335,-0.00766602,0.330352,0.0664505,0.0622742,-0.10429,0.05778,-0.100347,-0.100647,0.327447,0.023022,-0.182809,1.98691e-08,-4.56731e-09,0.3,-0.3,-3.27123,-8.54611,1.08871,175.006,-8.44699,0.844294,94.441,-20.9413,886.574
0.041,-0.192335,-0.00766602,0.330352,0.0664505,0.0622742,-0.10429,0.05778,-0.100347,-0.100647,0.327447,0.023022,-0.182809,1.98691e-08,-4.56731e-09,0.3,-0.3,-3.47598,-8.8613,1.0962,175.126,-8.58145,0.835968,94.4289,-20.915,886.231
0.042,-0.192335,-0.00766602,0.330352,0.0664505,0.0622742,-0.10429,0.05778,-0.100347,-0.100647,0.327447,0.023022,-0.182809,1.98691e-08,-4.56731e-09,0.3,-0.3,-3.69081,-9.16673,1.10407,175.245,-8.70538,0.826445,94.4151,-20.8863,885.881
0.043,-0.192335,-0.00766602,0.330352,0.0664505,0.0622742,-0.10429,0.05778,-0.100347,-0.100647,0.327447,0.023022,-0.182809,1.98691e-08,-4.56731e-09,0.3,-0.3,-3.91582,-9.4618,1.11235,175.361,-8.81779,0.815619,94.3996,-20.855,885.525
0.044,-0.192335,-0.00766602,0.330352,0.0664505,0.0622742,-0.10429,0.05778,-0.100347,-0.100647,0.327447,0.023022,-0.182809,1.98691e-08,-4.56731e-09,0.3,-0.3,-4.15111,-9.74589,1.12101,175.475,-8.91761,0.8034,94.3823,-20.8211,885.162
0.045,-0.192335,-0.00766602,0.330352,0.0664505,0.0622742,-0.10429,0.05778,-0.100347,-0.100647,0.327447,0.023022,-0.182809,1.98691e-08,-4.56731e-09,0.3,-0.3,-4.39674,-10.0183,1.13001,175.587,-9.00381,0.789686,94.3631,-20.7844,884.793
0.046,-0.192335,-0.00766602,0.330352,0.0664505,0.0622742,-0.10429,0.05778,-0.100347,-0.100647,0.327447,0.023022,-0.182809,1.98691e-08,-4.56731e-09,0.3,-0.3,-4.65275,-10.2784,1.13928,175.695,-9.07526,0.774376,94.3418,-20.7448,884.417
0.047,-0.192335,-0.00766602,0.330352,0.0664505,0.0622742,-0.10429,0.05778,-0.100347,-0.100647,0.327447,0.023022,-0.182809,1.98691e-08,-4.56731e-09,0.3,-0.3,-4.91921,-10.5255,1.14875,175.8,-9.13084,0.757353,94.3185,-20.7022,884.036
0.048,-0.192335,-0.00766602,0.330352,0.0664505,0.0622742,-0.10429,0.05778,-0.100347,-0.100647,0.327447,0.023022,-0.182809,1.98691e-08,-4.56731e-09,0.3,-0.3,-5.19617,-10.7586,1.15838,175.903,-9.17717,0.739317,94.2932,-20.6574,883.649
0.049,-0.192335,-0.00766602,0.330352,0.0664505,0.0622742,-0.10429,0.05778,-0.100347,-0.100647,0.327447,0.023022,-0.182809,1.98691e-08,-4.56731e-09,0.3,-0.3,-5.48356,-10.9777,1.16887,176.005,-9.22365,0.721323,94.2661,-20.6117,883.258
0.05,-0.192335,-0.00766602,0.330352,0.0664505,0.0622742,-0.10429,0.05778,-0.100347,-0.100647,0.327447,0.023022,-0.182809,1.98691e-08,-4.56731e-09,0.3,-0.3,-5.78042,-11.1839,1.18146,176.109,-9.27013,0.703363,94.2372,-20.5654,882.864
0.051,-0.192335,-0.00766602,0.330352,0.0664505,0.0622742,-0.10429,0.05778,-0.100347,-0.100647,0.327447,0.023022,-0.182809,1.98691e-08,-4.56731e-09,0.3,-0.3,-6.08595,-11.3785,1.19651,176.212,-9.31661,0.685423,94.2064,-20.5187,882.466
0.052,-0.192335,-0.00766602,0.330352,0.0664505,0.0622742,-0.10429,0.05778,-0.100347,-0.100647,0.327447,0.023022,-0.182809,1.98691e-08,-4.56731e-09,0.3,-0.3,-6.39935,-11.5633,1.21398,176.316,-9.36307,0.667467,94.1739,-20.4718,882.066
0.053,-0.192335,-0.00766602,0.330352,0.0664505,0.0622742,-0.10429,0.05778,-0.100347,-0.100647,0.327447,0.023022,-0.182809,1.98691e-08,-4.56731e-09,0.3,-0.3,-6.7199,-11.7395,1.2337,176.419,-9.40944,0.649466,94.1395,-20.425,881.663
0.054,-0.192335,-0.00766602,0.330352,0.0664505,0.0622742,-0.10429,0.05778,-0.100347,-0.100647,0.327447,0.023022,-0.182809,1.98691e-08,-4.56731e-09,0.3,-0.3,-7.04684,-11.9086,1.25544,176.523,-9.45565,0.631392,94.1035,-20.3784,881.258
0.055,-0.192335,-0.00766602,0.330352,0.0664505,0.0622742,-0.10429,0.05778,-0.100347,-0.100647,0.327447,0.023022,-0.182809,1.98691e-08,-4.56731e-09,0.3,-0.3,-7.37948,-12.0718,1.27898,176.626,-9.50166,0.613207,94.0657,-20.3323,880.85
0.056,-0.192335,-0.00766602,0.330352,0.0664505,0.0622742,-0.10429,0.05778,-0.100347,-0.100647,0.327447,0.023022,-0.182809,1.98691e-08,-4.56731e-09,0.3,-0.3,-7.7171,-12.2304,1.30407,176.729,-9.5474,0.594891,94.0262,-20.2868,880.441
0.057,-0.192335,-0.00766602,0.330352,0.0664505,0.0622742,-0.10429,0.05778,-0.100347,-0.100647,0.327447,0.023022,-0.182809,1.98691e-08,-4.56731e-09,0.3,-0.3,-8.05969,-12.3856,1.33119,176.66,-9.58099,0.635906,93.9635,-20.2312,880.064
0.058,-0.192335,-0.00766602,0.330352,0.0664505,0.0622742,-0.10429,0.05778,-0.100347,-0.100647,0.327447,0.023022,-0.182809,1.98691e-08,-4.56731e-09,0.3,-0.3,-8.40802,-12.5225,1.40933,176.582,-9.61876,0.678337,93.8937,-20.1721,879.706
0.059,-0.192335,-0.00766602,0.330352,0.0664505,0.0622742,-0.10429,0.05778,-0.100347,-0.100647,0.327447,0.023022,-0.182809,1.98691e-08,-4.56731e-09,0.3,-0.3,-8.77772,-12.6396,1.50613,176.501,-9.6579,0.724764,93.8181,-20.111,879.362
0.06,-0.192335,-0.00766602,0.330352,0.0664505,0.0622742,-0.10429,0.05778,-0.100347,-0.100647,0.327447,0.023022,-0.182809,1.98691e-08,-4.56731e-09,0.3,-0.3,-9.17224,-12.7446,1.61879,176.42,-9.69753,0.769705,93.7375,-20.0484,879.022
0.061,-0.192335,-0.00766602,0.330352,0.0664505,0.0622742,-0.10429,0.05778,-0.100347,-0.100647,0.327447,0.023022,-0.182809,1.98691e-08,-4.56731e-09,0.3,-0.3,-9.59667,-12.8411,1.7342,176.339,-9.7369,0.813019,93.6527,-19.9849,878.682
0.062,-0.192335,-0.00766602,0.330352,0.0664505,0.0622742,-0.10429,0.05778,-0.100347,-0.100647,0.327447,0.023022,-0.182809,1.98691e-08,-4.56731e-09,0.3,-0.3,-10.0502,-12.9313,1.84949,176.26,-9.77587,0.854778,93.5639,-19.9209,878.341
0.063,-0.192335,-0.00766602,0.330352,0.0664505,0.0622742,-0.10429,0.05778,-0.100347,-0.100647,0.327447,0.023022,-0.182809,1.98691e-08,-4.56731e-09,0.3,-0.3,-10.5298,-13.0176,1.96468,176.181,-9.81439,0.895077,93.4714,-19.8563,877.999
0.064,-0.192335,-0.00766602,0.330352,0.0664505,0.0622742,-0.10429,0.05778,-0.100347,-0.100647,0.327447,0.023022,-0.182809,1.98691e-08,-4.56731e-09,0.3,-0.3,-11.0316,-13.1015,2.08029,176.103,-9.85249,0.934015,93.3754,-19.7912,877.657
0.065,-0.192335,-0.00766602,0.330352,0.0664505,0.0622742,-0.10429,0.05778,-0.100347,-0.100647,0.327447,0.023022,-0.182809,1.98691e-08,-4.56731e-09,0.3,-0.3,-11.5517,-13.1848,2.19652,176.026,-9.89025,0.971663,93.2761,-19.7258,877.315
0.066,-0.192335,-0.00766602,0.330352,0.0664505,0.0622742,-0.10429,0.05778,-0.100347,-0.100647,0.327447,0.023022,-0.182809,1.98691e-08,-4.56731e-09,0.3,-0.3,-12.0865,-13.2684,2.31342,175.949,-9.92764,1.00807,93.1738,-19.6602,876.974
0.067,-0.192335,-0.00766602,0.330352,0.0664505,0.0622742,-0.10429,0.05778,-0.100347,-0.100647,0.327447,0.023022,-0.182809,1.98691e-08,-4.56731e-09,0.3,-0.3,-12.6326,-13.3534,2.4308,175.874,-9.96464,1.0433,93.0687,-19.5943,876.634
0.068,-0.192335,-0.00766602,0.330352,0.0664505,0.0622742,-0.10429,0.05778,-0.100347,-0.100647,0.327447,0.023022,-0.182809,1.98691e-08,-4.56731e-09,0.3,-0.3,-13.1869,-13.4405,2.54832,175.8,-10.0012,1.07737,92.961,-19.5283,876.296
0.069,-0.192335,-0.00766602,0.330352,0.0664505,0.0622742,-0.10429,0.05778,-0.100347,-0.100647,0.327447,0.023022,-0.182809,1.98691e-08,-4.56731e-09,0.3,-0.3,-13.7464,-13.5304,2.6656,175.726,-10.0374,1.11032,92.851,-19.4623,875.959
0.07,-0.192335,-0.00766602,0.330352,0.0664505,0.0622742,-0.10429,0.05778,-0.100347,-0.100647,0.327447,0.023022,-0.182809,1.98691e-08,-4.56731e-09,0.3,-0.3,-14.3087,-13.6233,2.7822,175.654,-10.0731,1.14216,92.739,-19.3963,875.625
0.071,-0.192335,-0.00766602,0.330352,0.0664505,0.0622742,-0.10429,0.05778,-0.100347,-0.100647,0.327447,0.023022,-0.182809,1.98691e-08,-4.56731e-09,0.3,-0.3,-14.8714,-13.7198,2.89769,175.583,-10.1084,1.1729,92.6251,-19.3304,875.293
0.072,-0.192335,-0.00766602,0.330352,0.0664505,0.0622742,-0.10429,0.05778,-0.100347,-0.100647,0.327447,0.023022,-0.182809,1.98691e-08,-4.56731e-09,0.3,-0.3,-15.4324,-13.8197,3.01163,175.512,-10.1432,1.20254,92.5095,-19.2646,874.965
0.073,-0.192335,-0.00766602,0.330352,0.0664505,0.0622742,-0.10429,0.05778,-0.100347,-0.100647,0.327447,0.023022,-0.182809,1.98691e-08,-4.56731e-09,0.3,-0.3,-15.9899,-13.9233,3.12358,175.443,-10.1775,1.23107,92.3924,-19.199,874.639
0.074,-0.192335,-0.00766602,0.330352,0.0664505,0.0622742,-0.10429,0.05778,-0.100347,-0.100647,0.327447,0.023022,-0.182809,1.98691e-08,-4.56731e-09,0.3,-0.3,-16.5424,-14.0305,3.23315,175.375,-10.2113,1.25846,92.274,-19.1335,874.317
0.075,-0.192335,-0.00766602,0.330352,0.0664505,0.0622742,-0.10429,0.05778,-0.100347,-0.100647,0.327447,0.023022,-0.182809,1.98691e-08,-4.56731e-09,0.3,-0.3,-17.0883,-14.141,3.33996,175.308,-10.2445,1.28472,92.1544,-19.0681,874
0.076,-0.192335,-0.00766602,0.330352,0.0664505,0.0622742,-0.10429,0.05778,-0.100347,-0.100647,0.327447,0.023022,-0.182809,1.98691e-08,-4.56731e-09,0.3,-0.3,-17.6265,-14.2546,3.44364,175.243,-10.2772,1.3098,92.0337,-19.0029,873.686
0.077,-0.192335,-0.00766602,0.330352,0.0664505,0.0622742,-0.10429,0.05778,-0.100347,-0.100647,0.327447,0.023022,-0.182809,1.98691e-08,-4.56731e-09,0.3,-0.3,-18.1557,-14.371,3.54388,175.178,-10.3093,1.33369,91.9121,-18.9378,873.377
0.078,-0.192335,-0.00766602,0.330352,0.0664505,0.0622742,-0.10429,0.05778,-0.100347,-0.100647,0.327447,0.023022,-0.182809,1.98691e-08,-4.56731e-09,0.3,-0.3,-18.675,-14.4897,3.64038,175.115,-10.3407,1.35635,91.7897,-18.8728,873.073
0.079,-0.192335,-0.00766602,0.330352,0.0664505,0.0622742,-0.10429,0.05778,-0.100347,-0.100647,0.327447,0.023022,-0.182809,1.98691e-08,-4.56731e-09,0.3,-0.3,-19.1835,-14.6104,3.7329,175.054,-10.3715,1.37773,91.6665,-18.8079,872.775
0.08,-0.192335,-0.00766602,0.330352,0.0664505,0.0622742,-0.10429,0.05778,-0.100347,-0.100647,0.327447,0.023022,-0.182809,1.98691e-08,-4.56731e-09,0.3,-0.3,-19.6803,-14.7323,3.8212,174.994,-10.4016,1.3978,91.5426,-18.743,872.482
0.081,-0.192335,-0.00766602,0.330352,0.0664505,0.0622742,-0.10429,0.05778,-0.100347,-0.100647,0.327447,0.023022,-0.182809,1.98691e-08,-4.56731e-09,0.3,-0.3,-20.1646,-14.8551,3.90508,174.935,-10.431,1.41654,91.4181,-18.6781,872.196
0.082,-0.192335,-0.00766602,0.330352,0.0664505,0.0622742,-0.10429,0.05778,-0.100347,-0.100647,0.327447,0.023022,-0.182809,1.98691e-08,-4.56731e-09,0.3,-0.3,-20.6357,-14.9781,3.98436,174.878,-10.4597,1.43387,91.2931,-18.6132,871.917
0.083,-0.192335,-0.00766602,0.330352,0.0664505,0.0622742,-0.10429,0.05778,-0.100347,-0.100647,0.327447,0.023022,-0.182809,1.98691e-08,-4.56731e-09,0.3,-0.3,-21.0929,-15.1008,4.0589,174.822,-10.4877,1.44979,91.1675,-18.5481,871.645
0.084,-0.192335,-0.00766602,0.330352,0.0664505,0.0622742,-0.10429,0.05778,-0.100347,-0.100647,0.327447,0.023022,-0.182809,1.98691e-08,-4.56731e-09,0.3,-0.3,-21.5356,-15.2227,4.12855,174.768,-10.5148,1.46423,91.0414,-18.483,871.38
0.085,-0.192335,-0.00766602,0.330352,0.0664505,0.0622742,-0.10429,0.05778,-0.100347,-0.100647,0.327447,0.023022,-0.182809,1.98691e-08,-4.56731e-09,0.3,-0.3,-21.9632,-15.3431,4.19319,174.715,-10.5415,1.47746,90.9148,-18.4176,871.123
0.086,-0.192335,-0.00766602,0.330352,0.0664505,0.0622742,-0.10429,0.05778,-0.100347,-0.100647,0.327447,0.023022,-0.182809,1.98691e-08,-4.56731e-09,0.3,-0.3,-22.3749,-15.4615,4.25244,174.664,-10.5672,1.48864,90.7878,-18.3519,870.874
0.087,-0.192335,-0.00766602,0.330352,0.0664505,0.0622742,-0.10429,0.05778,-0.100347,-0.100647,0.327447,0.023022,-0.182809,1.98691e-08,-4.56731e-09,0.3,-0.3,-22.7706,-15.5773,4.30551,174.614,-10.5921,1.49756,90.6604,-18.286,870.632
0.088,-0.192335,-0.00766602,0.330352,0.0664505,0.0622742,-0.10429,0.05778,-0.100347,-0.100647,0.327447,0.023022,-0.182809,1.98691e-08,-4.56731e-09,0.3,-0.3,-23.15,-15.6897,4.35179,174.566,-10.6162,1.50411,90.5327,-18.2198,870.398
0.089,-0.192335,-0.00766602,0.330352,0.0664505,0.0622742,-0.10429,0.05778,-0.100347,-0.100647,0.327447,0.023022,-0.182809,1.98691e-08,-4.56731e-09,0.3,-0.3,-23.5128,-15.7979,4.39073,174.52,-10.6396,1.50814,90.4046,-18.1532,870.172
0.09,-0.192335,-0.00766602,0.330352,0.0664505,0.0622742,-0.10429,0.05778,-0.100347,-0.100647,0.327447,0.023022,-0.182809,1.98691e-08,-4.56731e-09,0.3,-0.3,-23.859,-15.9008,4.42183,174.475,-10.6621,1.5095,90.2762,-18.0862,869.955
0.091,-0.192335,-0.00766602,0.330352,0.0664505,0.0622742,-0.10429,0.05778,-0.100347,-0.100647,0.327447,0.023022,-0.182809,1.98691e-08,-4.56731e-09,0.3,-0.3,-24.1883,-15.9971,4.44469,174.431,-10.684,1.50804,90.1475,-18.0186,869.745
0.092,-0.192335,-0.00766602,0.330352,0.0664505,0.0622742,-0.10429,0.05778,-0.100347,-0.100647,0.327447,0.023022,-0.182809,1.98691e-08,-4.56731e-09,0.3,-0.3,-24.5003,-16.0858,4.45892,174.389,-10.7052,1.50361,90.0186,-17.9503,869.543
0.093,-0.192335,-0.00766602,0.330352,0.0664505,0.0622742,-0.10429,0.05778,-0.100347,-0.100647,0.327447,0.023022,-0.182809,1.98691e-08,-4.56731e-09,0.3,-0.3,-24.7946,-16.1654,4.46418,174.348,-10.7258,1.49604,89.8895,-17.8813,869.35
0.094,-0.192335,-0.00766602,0.330352,0.0664505,0.0622742,-0.10429,0.05778,-0.100347,-0.100647,0.327447,0.023022,-0.182809,1.98691e-08,-4.56731e-09,0.3,-0.3,-25.0709,-16.2349,4.46013,174.308,-10.7457,1.48517,89.7601,-17.8115,869.166
0.095,-0.192335,-0.00766602,0.330352,0.0664505,0.0622742,-0.10429,0.05778,-0.100347,-0.100647,0.327447,0.023022,-0.182809,1.98691e-08,-4.56731e-09,0.3,-0.3,-25.3287,-16.293,4.44643,174.27,-10.765,1.47085,89.6306,-17.7407,868.99
0.096,-0.192335,-0.00766602,0.330352,0.0664505,0.0622742,-0.10429,0.05778,-0.100347,-0.100647,0.327447,0.023022,-0.182809,1.98691e-08,-4.56731e-09,0.3,-0.3,-25.5675,-16.3385,4.42274,174.232,-10.7837,1.45291,89.5009,-17.6689,868.823
0.097,-0.192335,-0.00766602,0.330352,0.0664505,0.0622742,-0.10429,0.05778,-0.100347,-0.100647,0.327447,0.023022,-0.182809,1.98691e-08,-4.56731e-09,0.3,-0.3,-25.7869,-16.3705,4.38871,174.196,-10.8018,1.43119,89.3711,-17.596,868.666
0.098,-0.192335,-0.00766602,0.330352,0.0664505,0.0622742,-0.10429,0.05778,-0.100347,-0.100647,0.327447,0.023022,-0.182809,1.98691e-08,-4.56731e-09,0.3,-0.3,-25.9864,-16.3877,4.34398,174.16,-10.8193,1.40554,89.2412,-17.5219,868.517
0.099,-0.192335,-0.00766602,0.330352,0.0664505,0.0622742,-0.10429,0.05778,-0.100347,-0.100647,0.327447,0.023022,-0.182809,1.98691e-08,-4.56731e-09,0.3,-0.3,-26.1656,-16.3894,4.28819,174.126,-10.8363,1.37578,89.1112,-17.4466,868.378
0.1,-0.192335,-0.00766602,0.330352,0.0664505,0.0622742,-0.10429,0.05778,-0.100347,-0.100647,0.327447,0.023022,-0.182809,1.98691e-08,-4.56731e-09,0.3,-0.3,-26.324,-16.3745,4.22093,174.093,-10.8528,1.34178,88.9812,-17.3701,868.248
0.101,-0.192335,-0.00766602,0.330352,0.0664505,0.0622742,-0.10429,0.05778,-0.100347,-0.100647,0.327447,0.023022,-0.182809,1.98691e-08,-4.56731e-09,0.3,-0.3,-26.4612,-16.3419,4.14173,174.061,-10.8687,1.30337,88.8512,-17.2921,868.128
0.102,-0.192335,-0.00766602,0.330352,0.0664505,0.0622742,-0.10429,0.05778,-0.100347,-0.100647,0.327447,0.023022,-0.182809,1.98691e-08,-4.56731e-09,0.3,-0.3,-26.5767,-16.2909,4.05014,174.029,-10.8842,1.26042,88.7212,-17.2129,868.017
0.103,-0.192335,-0.00766602,0.330352,0.0664505,0.0622742,-0.10429,0.05778,-0.100347,-0.100647,0.327447,0.023022,-0.182809,1.98691e-08,-4.56731e-09,0.3,-0.3,-26.6701,-16.2208,3.94576,173.998,-10.8993,1.21277,88.5911,-17.1322,867.915
0.104,-0.192335,-0.00766602,0.330352,0.0664505,0.0622742,-0.10429,0.05778,-0.100347,-0.100647,0.327447,0.023022,-0.182809,1.98691e-08,-4.56731e-09,0.3,-0.3,-26.741,-16.1339,3.8317,173.969,-10.9137,1.16198,88.4608,-17.0504,867.823
0.105,-0.192335,-0.00766602,0.330352,0.0664505,0.0622742,-0.10429,0.05778,-0.100347,-0.100647,0.327447,0.023022,-0.182809,1.98691e-08,-4.56731e-09,0.3,-0.3,-26.7921,-16.0456,3.72779,173.941,-10.9275,1.11613,88.33,-16.9676,867.74
0.106,-0.192335,-0.00766602,0.330352,0.0664505,0.0622742,-0.10429,0.05778,-0.100347,-0.100647,0.327447,0.023022,-0.182809,1.98691e-08,-4.56731e-09,0.3,-0.3,-26.8251,-15.9613,3.63403,173.914,-10.941,1.07407,88.1986,-16.8841,867.665
0.107,-0.192335,-0.00766602,0.330352,0.0664505,0.0622742,-0.10429,0.05778,-0.100347,-0.100647,0.327447,0.023022,-0.182809,1.98691e-08,-4.56731e-09,0.3,-0.3,-26.842,-15.8846,3.54868,173.887,-10.954,1.03541,88.0666,-16.8001,867.598
0.108,-0.192335,-0.00766602,0.330352,0.0664505,0.0622742,-0.10429,0.05778,-0.100347,-0.100647,0.327447,0.023022,-0.182809,1.98691e-08,-4.56731e-09,0.3,-0.3,-26.8453,-15.8185,3.47102,173.862,-10.9667,0.999962,87.9336,-16.7159,867.538
0.109,-0.192335,-0.00766602,0.330352,0.0664505,0.0622742,-0.10429,0.05778,-0.100347,-0.100647,0.327447,0.023022,-0.182809,1.98691e-08,-4.56731e-09,0.3,-0.3,-26.8367,-15.7652,3.40059,173.837,-10.9792,0.96756,87.7997,-16.6317,867.485
0.11,-0.192335,-0.00766602,0.330352,0.0664505,0.0622742,-0.10429,0.05778,-0.100347,-0.100647,0.327447,0.023022,-0.182809,1.98691e-08,-4.56731e-09,0.3,-0.3,-26.8182,-15.7267,3.33702,173.813,-10.9913,0.938084,87.6647,-16.5475,867.439
0.111,-0.192335,-0.00766602,0.330352,0.0664505,0.0622742,-0.10429,0.05778,-0.100347,-0.100647,0.327447,0.023022,-0.182809,1.98691e-08,-4.56731e-09,0.3,-0.3,-26.7913,-15.7044,3.27998,173.789,-11.003,0.911428,87.5285,-16.4637,867.399
0.112,-0.192335,-0.00766602,0.330352,0.0664505,0.0622742,-0.10429,0.05778,-0.100347,-0.100647,0.327447,0.023022,-0.182809,1.98691e-08,-4.56731e-09,0.3,-0.3,-26.7572,-15.6991,3.22919,173.766,-11.0145,0.887512,87.391,-16.3802,867.365
0.113,-0.192335,-0.00766602,0.330352,0.0664505,0.0622742,-0.10429,0.05778,-0.100347,-0.100647,0.327447,0.023022,-0.182809,1.98691e-08,-4.56731e-09,0.3,-0.3,-26.7172,-15.7117,3.18444,173.744,-11.0256,0.866276,87.2521,-16.2971,867.336
0.114,-0.192335,-0.00766602,0.330352,0.0664505,0.0622742,-0.10429,0.05778,-0.100347,-0.100647,0.327447,0.023022,-0.182809,1.98691e-08,-4.56731e-09,0.3,-0.3,-26.6723,-15.7423,3.14556,173.723,-11.0363,0.847679,87.1117,-16.2146,867.314
0.115,-0.192335,-0.00766602,0.330352,0.0664505,0.0622742,-0.10429,0.05778,-0.100347,-0.100647,0.327447,0.023022,-0.182809,1.98691e-08,-4.56731e-09,0.3,-0.3,-26.6233,-15.7912,3.11241,173.702,-11.0467,0.831722,86.9697,-16.1325,867.298
0.116,-0.192335,-0.00766602,0.330352,0.0664505,0.0622742,-0.10429,0.05778,-0.100347,-0.100647,0.327447,0.023022,-0.182809,1.98691e-08,-4.56731e-09,0.3,-0.3,-26.571,-15.8581,3.08493,173.683,-11.0567,0.818577,86.8262,-16.051,867.287
0.117,-0.192335,-0.00766602,0.330352,0.0664505,0.0622742,-0.10429,0.05778,-0.100347,-0.100647,0.327447,0.023022,-0.182809,1.98691e-08,-4.56731e-09,0.3,-0.3,-26.5161,-15.9421,3.06299,173.664,-11.0662,0.805696,86.6812,-15.97,867.279
0.118,-0.192335,-0.00766602,0.330352,0.0664505,0.0622742,-0.10429,0.05778,-0.100347,-0.100647,0.327447,0.023022,-0.182809,1.98691e-08,-4.56731e-09,0.3,-0.3,-26.4619,-16.041,3.04132,173.645,-11.0754,0.792351,86.5351,-15.8894,867.27
0.119,-0.192335,-0.00766602,0.330352,0.0664505,0.0622742,-0.10429,0.05778,-0.100347,-0.100647,0.327447,0.023022,-0.182809,1.98691e-08,-4.56731e-09,0.3,-0.3,-26.4102,-16.1525,3.01619,173.627,-11.0846,0.778313,86.3879,-15.809,867.258
0.12,-0.192335,-0.00766602,0.330352,0.0664505,0.0622742,-0.10429,0.05778,-0.100347,-0.100647,0.327447,0.023022,-0.182809,1.98691e-08,-4.56731e-09,0.3,-0.3,-26.3611,-16.2741,2.98678,173.609,-11.0939,0.763485,86.2396,-15.7288,867.244
0.121,-0.192335,-0.00766602,0.330352,0.0664505,0.0622742,-0.10429,0.05778,-0.100347,-0.100647,0.327447,0.023022,-0.182809,1.98691e-08,-4.56731e-09,0.3,-0.3,-26.3148,-16.4034,2.95319,173.59,-11.1032,0.747828,86.09,-15.6483,867.228
0.122,-0.192335,-0.00766602,0.330352,0.0664505,0.0622742,-0.10429,0.05778,-0.100347,-0.100647,0.327447,0.023022,-0.182809,1.98691e-08,-4.56731e-09,0.3,-0.3,-26.2713,-16.5382,2.91624,173.605,-11.1094,0.742922,85.9423,-15.5703,867.215
0.123,-0.192335,-0.00766602,0.330352,0.0664505,0.0622742,-0.10429,0.05778,-0.100347,-0.100647,0.327447,0.023022,-0.182809,1.98691e-08,-4.56731e-09,0.3,-0.3,-26.2261,-16.6769,2.88197,173.622,-11.1163,0.738804,85.7937,-15.4944,867.205
0.124,-0.192335,-0.00766602,0.330352,0.0664505,0.0622742,-0.10429,0.05778,-0.100347,-0.100647,0.327447,0.023022,-0.182809,1.98691e-08,-4.56731e-09,0.3,-0.3,-26.1771,-16.8181,2.84796,173.64,-11.1237,0.735073,85.6441,-15.4199,867.194
0.125,-0.192335,-0.00766602,0.330352,0.0664505,0.0622742,-0.10429,0.05778,-0.100347,-0.100647,0.327447,0.023022,-0.182809,1.98691e-08,-4.56731e-09,0.3,-0.3,-26.126,-16.9608,2.81228,173.659,-11.1316,0.731686,85.4935,-15.3467,867.183
0.126,-0.192335,-0.00766602,0.330352,0.0664505,0.0622742,-0.10429,0.05778,-0.100347,-0.100647,0.327447,0.023022,-0.182809,1.98691e-08,-4.56731e-09,0.3,-0.3,-26.0738,-17.1037,2.77464,173.678,-11.1397,0.728621,85.3419,-15.2745,867.171
0.127,-0.192335,-0.00766602,0.330352,0.0664505,0.0622742,-0.10429,0.05778,-0.100347,-0.100647,0.327447,0.023022,-0.182809,1.98691e-08,-4.56731e-09,0.3,-0.3,-26.0212,-17.2456,2.7352,173.699,-11.1481,0.725845,85.1892,-15.2032,867.158
0.128,-0.192335,-0.00766602,0.330352,0.0664505,0.0622742,-0.10429,0.05778,-0.100347,-0.100647,0.327447,0.023022,-0.182809,1.98691e-08,-4.56731e-09,0.3,-0.3,-25.9688,-17.3852,2.69422,173.719,-11.1564,0.723297,85.0353,-15.1326,867.145
0.129,-0.192335,-0.00766602,0.330352,0.0664505,0.0622742,-0.10429,0.05778,-0.100347,-0.100647,0.327447,0.023022,-0.182809,1.98691e-08,-4.56731e-09,0.3,-0.3,-25.9174,-17.5213,2.65189,173.739,-11.1647,0.720964,84.8802,-15.0626,867.131
0.13,-0.192335,-0.00766602,0.330352,0.0664505,0.0622742,-0.10429,0.05778,-0.100347,-0.100647,0.327447,0.023022,-0.182809,1.98691e-08,-4.56731e-09,0.3,-0.3,-25.8675,-17.6528,2.60849,173.76,-11.1731,0.718847,84.7237,-14.9932,867.117
0.131,-0.192335,-0.00766602,0.330352,0.0664505,0.0622742,-0.10429,0.05778,-0.100347,-0.100647,0.327447,0.023022,-0.182809,1.98691e-08,-4.56731e-09,0.3,-0.3,-25.8196,-17.7792,2.56429,173.78,-11.1817,0.716925,84.5659,-14.9244,867.103
0.132,-0.192335,-0.00766602,0.330352,0.0664505,0.0622742,-0.10429,0.05778,-0.100347,-0.100647,0.327447,0.023022,-0.182809,1.98691e-08,-4.56731e-09,0.3,-0.3,-25.774,-17.8997,2.51951,173.802,-11.1904,0.715172,84.4067,-14.856,867.088
0.133,-0.192335,-0.00766602,0.330352,0.0664505,0.0622742,-0.10429,0.05778,-0.100347,-0.100647,0.327447,0.023022,-0.182809,1.98691e-08,-4.56731e-09,0.3,-0.3,-25.7308,-18.0143,2.47434,173.823,-11.1992,0.713556,84.2462,-14.7882,867.073
0.134,-0.192335,-0.00766602,0.330352,0.0664505,0.0622742,-0.10429,0.05778,-0.100347,-0.100647,0.327447,0.023022,-0.182809,1.98691e-08,-4.56731e-09,0.3,-0.3,-25.6903,-18.1227,2.42896,173.845,-11.2081,0.712048,84.0842,-14.7208,867.058
0.135,-0.192335,-0.00766602,0.330352,0.0664505,0.0622742,-0.10429,0.05778,-0.100347,-0.100647,0.327447,0.023022,-0.182809,1.98691e-08,-4.56731e-09,0.3,-0.3,-25.6526,-18.2249,2.38351,173.866,-11.2171,0.710615,83.9208,-14.654,867.043
0.136,-0.192335,-0.00766602,0.330352,0.0664505,0.0622742,-0.10429,0.05778,-0.100347,-0.100647,0.327447,0.023022,-0.182809,1.98691e-08,-4.56731e-09,0.3,-0.3,-25.6176,-18.3209,2.33812,173.888,-11.2262,0.709234,83.756,-14.5876,867.027
0.137,-0.192335,-0.00766602,0.330352,0.0664505,0.0622742,-0.10429,0.05778,-0.100347,-0.100647,0.327447,0.023022,-0.182809,1.98691e-08,-4.56731e-09,0.3,-0.3,-25.5854,-18.411,2.29289,173.911,-11.2353,0.707876,83.5897,-14.5218,867.011
0.138,-0.192335,-0.00766602,0.330352,0.0664505,0.0622742,-0.10429,0.05778,-0.100347,-0.100647,0.327447,0.023022,-0.182809,1.98691e-08,-4.56731e-09,0.3,-0.3,-25.5558,-18.4953,2.24787,173.933,-11.2444,0.70652,83.4219,-14.4566,866.995
0.139,-0.192335,-0.00766602,0.330352,0.0664505,0.0622742,-0.10429,0.05778,-0.100347,-0.100647,0.327447,0.023022,-0.182809,1.98691e-08,-4.56731e-09,0.3,-0.3,-25.5288,-18.5741,2.20312,173.955,-11.2536,0.705135,83.2527,-14.3919,866.979
0.14,-0.192335,-0.00766602,0.330352,0.0664505,0.0622742,-0.10429,0.05778,-0.100347,-0.100647,0.327447,0.023022,-0.182809,1.98691e-08,-4.56731e-09,0.3,-0.3,-25.5041,-18.6477,2.15868,173.977,-11.2628,0.703699,83.0821,-14.3279,866.963
0.141,-0.192335,-0.00766602,0.330352,0.0664505,0.0622742,-0.10429,0.05778,-0.100347,-0.100647,0.327447,0.023022,-0.182809,1.98691e-08,-4.56731e-09,0.3,-0.3,-25.4816,-18.7164,2.11456,174,-11.272,0.702188,82.9101,-14.2646,866.946
0.142,-0.192335,-0.00766602,0.330352,0.0664505,0.0622742,-0.10429,0.05778,-0.100347,-0.100647,0.327447,0.023022,-0.182809,1.98691e-08,-4.56731e-09,0.3,-0.3,-25.4611,-18.7807,2.07073,174.022,-11.2812,0.700584,82.7366,-14.202,866.929
0.143,-0.192335,-0.00766602,0.330352,0.0664505,0.0622742,-0.10429,0.05778,-0.100347,-0.100647,0.327447,0.023022,-0.182809,1.98691e-08,-4.56731e-09,0.3,-0.3,-25.4424,-18.8408,2.02718,174.044,-11.2904,0.698868,82.5618,-14.1402,866.911
0.144,-0.192335,-0.00766602,0.330352,0.0664505,0.0622742,-0.10429,0.05778,-0.100347,-0.100647,0.327447,0.023022,-0.182809,1.98691e-08,-4.56731e-09,0.3,-0.3,-25.4253,-18.8973,1.98387,174.067,-11.2995,0.697018,82.3855,-14.0793,866.894
0.145,-0.192335,-0.00766602,0.330352,0.0664505,0.0622742,-0.10429,0.05778,-0.100347,-0.100647,0.327447,0.023022,-0.182809,1.98691e-08,-4.56731e-09,0.3,-0.3,-25.4095,-18.9503,1.94074,174.089,-11.3086,0.695021,82.2079,-14.0192,866.876
0.146,-0.192335,-0.00766602,0.330352,0.0664505,0.0622742,-0.10429,0.05778,-0.100347,-0.100647,0.327447,0.023022,-0.182809,1.98691e-08,-4.56731e-09,0.3,-0.3,-25.3947,-19.0004,1.89775,174.111,-11.3177,0.692862,82.029,-13.96,866.858
0.147,-0.192335,-0.00766602,0.330352,0.0664505,0.0622742,-0.10429,0.05778,-0.100347,-0.100647,0.327447,0.023022,-0.182809,1.98691e-08,-4.56731e-09,0.3,-0.3,-25.3809,-19.048,1.85481,174.133,-11.3268,0.690529,81.8488,-13.9018,866.839
0.148,-0.192335,-0.00766602,0.330352,0.0664505,0.0622742,-0.10429,0.05778,-0.100347,-0.100647,0.327447,0.023022,-0.182809,1.98691e-08,-4.56731e-09,0.3,-0.3,-25.3677,-19.0933,1.81186,174.155,-11.3358,0.688005,81.6673,-13.8446,866.82
0.149,-0.192335,-0.00766602,0.330352,0.0664505,0.0622742,-0.10429,0.05778,-0.100347,-0.100647,0.327447,0.023022,-0.182809,1.98691e-08,-4.56731e-09,0.3,-0.3,-25.3549,-19.1369,1.76883,174.177,-11.3448,0.685284,81.4845,-13.7884,866.8
0.15,-0.192335,-0.00766602,0.330352,0.0664505,0.0622742,-0.10429,0.05778,-0.100347,-0.100647,0.327447,0.023022,-0.182809,1.98691e-08,-4.56731e-09,0.3,-0.3,-25.3424,-19.1789,1.72564,174.199,-11.3537,0.68236,81.3004,-13.7333,866.78
0.151,-0.192335,-0.00766602,0.330352,0.0664505,0.0622742,-0.10429,0.05778,-0.100347,-0.100647,0.327447,0.023022,-0.182809,1.98691e-08,-4.56731e-09,0.3,-0.3,-25.3298,-19.2199,1.68221,174.22,-11.3626,0.67922,81.1152,-13.6793,866.76
0.152,-0.192335,-0.00766602,0.330352,0.0664505,0.0622742,-0.10429,0.05778,-0.100347,-0.100647,0.327447,0.023022,-0.182809,1.98691e-08,-4.56731e-09,0.3,-0.3,-25.3171,-19.26,1.63848,174.242,-11.3714,0.675859,80.9287,-13.6265,866.739
0.153,-0.192335,-0.00766602,0.330352,0.0664505,0.0622742,-0.10429,0.05778,-0.100347,-0.100647,0.327447,0.023022,-0.182809,1.98691e-08,-4.56731e-09,0.3,-0.3,-25.3041,-19.2997,1.59437,174.263,-11.3802,0.672276,80.7411,-13.5748,866.718
0.154,-0.192335,-0.00766602,0.330352,0.0664505,0.0622742,-0.10429,0.05778,-0.100347,-0.100647,0.327447,0.023022,-0.182809,1.98691e-08,-4.56731e-09,0.3,-0.3,-25.2906,-19.3392,1.54981,174.285,-11.3889,0.668461,80.5522,-13.5244,866.696
0.155,-0.192335,-0.00766602,0.330352,0.0664505,0.0622742,-0.10429,0.05778,-0.100347,-0.100647,0.327447,0.023022,-0.182809,1.98691e-08,-4.56731e-09,0.3,-0.3,-25.2764,-19.3787,1.50475,174.306,-11.3977,0.664415,80.3623,-13.4751,866.674
0.156,-0.192335,-0.00766602,0.330352,0.0664505,0.0622742,-0.10429,0.05778,-0.100347,-0.100647,0.327447,0.023022,-0.182809,1.98691e-08,-4.56731e-09,0.3,-0.3,-25.2615,-19.4185,1.45912,174.327,-11.4064,0.660135,80.1712,-13.4271,866.651
0.157,-0.192335,-0.00766602,0.330352,0.0664505,0.0622742,-0.10429,0.05778,-0.100347,-0.100647,0.327447,0.023022,-0.182809,1.98691e-08,-4.56731e-09,0.3,-0.3,-25.2456,-19.4587,1.41286,174.348,-11.415,0.655617,79.979,-13.3803,866.628
0.158,-0.192335,-0.00766602,0.330352,0.0664505,0.0622742,-0.10429,0.05778,-0.100347,-0.100647,0.327447,0.023022,-0.182809,1.98691e-08,-4.56731e-09,0.3,-0.3,-25.2288,-19.4997,1.36594,174.369,-11.4237,0.650866,79.7857,-13.3348,866.605
0.159,-0.192335,-0.00766602,0.330352,0.0664505,0.0622742,-0.10429,0.05778,-0.100347,-0.100647,0.327447,0.023022,-0.182809,1.98691e-08,-4.56731e-09,0.3,-0.3,-25.2109,-19.5415,1.31831,174.391,-11.4323,0.645878,79.5912,-13.2906,866.58
0.16,-0.192335,-0.00766602,0.330352,0.0664505,0.0622742,-0.10429,0.05778,-0.100347,-0.100647,0.327447,0.023022,-0.182809,1.98691e-08,-4.56731e-09,0.3,-0.3,-25.1919,-19.5843,1.26993,174.412,-11.441,0.640652,79.3957,-13.2476,866.556
0.161,-0.192335,-0.00766602,0.330352,0.0664505,0.0622742,-0.10429,0.05778,-0.100347,-0.100647,0.327447,0.023022,-0.182809,1.98691e-08,-4.56731e-09,0.3,-0.3,-25.1717,-19.6282,1.22078,174.433,-11.4496,0.635191,79.1991,-13.206,866.531
0.162,-0.192335,-0.00766602,0.330352,0.0664505,0.0622742,-0.10429,0.05778,-0.100347,-0.100647,0.327447,0.023022,-0.182809,1.98691e-08,-4.56731e-09,0.3,-0.3,-25.1503,-19.6732,1.17082,174.454,-11.4582,0.629498,79.0015,-13.1656,866.505
0.163,-0.192335,-0.00766602,0.330352,0.0664505,0.0622742,-0.10429,0.05778,-0.100347,-0.100647,0.327447,0.023022,-0.182809,1.98691e-08,-4.56731e-09,0.3,-0.3,-25.1276,-19.7194,1.12005,174.475,-11.4669,0.623573,78.8027,-13.1265,866.479
0.164,-0.192335,-0.00766602,0.330352,0.0664505,0.0622742,-0.10429,0.05778,-0.100347,-0.100647,0.327447,0.023022,-0.182809,1.98691e-08,-4.56731e-09,0.3,-0.3,-25.1038,-19.7668,1.06845,174.497,-11.4755,0.617418,78.6029,-13.0887,866.452
0.165,-0.192335,-0.00766602,0.330352,0.0664505,0.0622742,-0.10429,0.05778,-0.100347,-0.100647,0.327447,0.023022,-0.182809,1.98691e-08,-4.56731e-09,0.3,-0.3,-25.0787,-19.8154,1.01601,174.518,-11.4842,0.611036,78.402,-13.0521,866.424
0.166,-0.192335,-0.00766602,0.330352,0.0664505,0.0622742,-0.10429,0.05778,-0.100347,-0.100647,0.327447,0.023022,-0.182809,1.98691e-08,-4.56731e-09,0.3,-0.3,-25.0524,-19.8652,0.962728,174.539,-11.4929,0.604431,78.2,-13.0169,866.397
0.167,-0.192335,-0.00766602,0.330352,0.0664505,0.0622742,-0.10429,0.05778,-0.100347,-0.100647,0.327447,0.023022,-0.182809,1.98691e-08,-4.56731e-09,0.3,-0.3,-25.0251,-19.9162,0.908609,174.561,-11.5016,0.597599,77.997,-12.9829,866.368
0.168,-0.192335,-0.00766602,0.330352,0.0664505,0.0622742,-0.10429,0.05778,-0.100347,-0.100647,0.327447,0.023022,-0.182809,1.98691e-08,-4.56731e-09,0.3,-0.3,-24.9966,-19.9683,0.853659,174.582,-11.5104,0.590551,77.7928,-12.9502,866.34
0.169,-0.192335,-0.00766602,0.330352,0.0664505,0.0622742,-0.10429,0.05778,-0.100347,-0.100647,0.327447,0.023022,-0.182809,1.98691e-08,-4.56731e-09,0.3,-0.3,-24.9671,-20.0215,0.797886,174.604,-11.5192,0.583284,77.5876,-12.9187,866.31
0.17,-0.192335,-0.00766602,0.330352,0.0664505,0.0622742,-0.10429,0.05778,-0.100347,-0.100647,0.327447,0.023022,-0.182809,1.98691e-08,-4.56731e-09,0.3,-0.3,-24.9367,-20.0756,0.741305,174.625,-11.528,0.575802,77.3812,-12.8885,866.28
0.171,-0.192335,-0.00766602,0.330352,0.0664505,0.0622742,-0.10429,0.05778,-0.100347,-0.100647,0.327447,0.023022,-0.182809,1.98691e-08,-4.56731e-09,0.3,-0.3,-24.9055,-20.1305,0.68393,174.647,-11.5368,0.56811,77.1737,-12.8595,866.25
0.172,-0.192335,-0.00766602,0.330352,0.0664505,0.0622742,-0.10429,0.05778,-0.100347,-0.100647,0.327447,0.023022,-0.182809,1.98691e-08,-4.56731e-09,0.3,-0.3,-24.8734,-20.1862,0.62578,174.669,-11.5456,0.560207,76.9651,-12.8317,866.219
0.173,-0.192335,-0.00766602,0.330352,0.0664505,0.0622742,-0.10429,0.05778,-0.100347,-0.100647,0.327447,0.023022,-0.182809,1.98691e-08,-4.56731e-09,0.3,-0.3,-24.8408,-20.2425,0.566875,174.691,-11.5545,0.552097,76.7554,-12.8051,866.188
0.174,-0.192335,-0.00766602,0.330352,0.0664505,0.0622742,-0.10429,0.05778,-0.100347,-0.100647,0.327447,0.023022,-0.182809,1.98691e-08,-4.56731e-09,0.3,-0.3,-24.8075,-20.2993,0.507237,174.713,-11.5634,0.543781,76.5444,-12.7798,866.156
0.175,-0.192335,-0.00766602,0.330352,0.0664505,0.0622742,-0.10429,0.05778,-0.100347,-0.100647,0.327447,0.023022,-0.182809,1.98691e-08,-4.56731e-09,0.3,-0.3,-24.7738,-20.3565,0.446887,174.735,-11.5724,0.535263,76.3324,-12.7556,866.124
0.176,-0.192335,-0.00766602,0.330352,0.0664505,0.0622742,-0.10429,0.05778,-0.100347,-0.100647,0.327447,0.023022,-0.182809,1.98691e-08,-4.56731e-09,0.3,-0.3,-24.7397,-20.4139,0.385847,174.757,-11.5813,0.526548,76.1191,-12.7326,866.091
0.177,-0.192335,-0.00766602,0.330352,0.0664505,0.0622742,-0.10429,0.05778,-0.100347,-0.100647,0.327447,0.023022,-0.182809,1.98691e-08,-4.56731e-09,0.3,-0.3,-24.7087,-20.4088,0.380963,174.776,-11.571,0.551352,75.909,-12.7081,866.091
0.178,-0.192335,-0.00766602,0.330352,0.0664505,0.0622742,-0.10429,0.05778,-0.100347,-0.100647,0.327447,0.023022,-0.182809,1.98691e-08,-4.56731e-09,0.3,-0.3,-24.6871,-20.3981,0.399626,174.783,-11.562,0.599377,75.7017,-12.6851,866.117
0.179,-0.192335,-0.00766602,0.330352,0.0664505,0.0622742,-0.10429,0.05778,-0.100347,-0.100647,0.327447,0.023022,-0.182809,1.98691e-08,-4.56731e-09,0.3,-0.3,-24.6692,-20.3845,0.422355,174.783,-11.5539,0.661201,75.4964,-12.6634,866.159
0.18,-0.192335,-0.00766602,0.330352,0.0664505,0.0622742,-0.10429,0.05778,-0.100347,-0.100647,0.327447,0.023022,-0.182809,1.98691e-08,-4.56731e-09,0.3,-0.3,-24.6523,-20.3704,0.441802,174.781,-11.5448,0.727201,75.293,-12.6431,866.207
0.181,-0.192335,-0.00766602,0.330352,0.0664505,0.0622742,-0.10429,0.05778,-0.100347,-0.100647,0.327447,0.023022,-0.182809,1.98691e-08,-4.56731e-09,0.3,-0.3,-24.639,-20.3401,0.457566,174.78,-11.5336,0.7934,75.0915,-12.6239,866.255
0.182,-0.192335,-0.00766602,0.330352,0.0664505,0.0622742,-0.10429,0.05778,-0.100347,-0.100647,0.327447,0.023022,-0.182809,1.98691e-08,-4.56731e-09,0.3,-0.3,-24.6375,-20.2971,0.479963,174.78,-11.5193,0.858677,74.8919,-12.6059,866.302
0.183,-0.192335,-0.00766602,0.330352,0.0664505,0.0622742,-0.10429,0.05778,-0.100347,-0.100647,0.327447,0.023022,-0.182809,1.98691e-08,-4.56731e-09,0.3,-0.3,-24.635,-20.2596,0.504613,174.781,-11.5015,0.922863,74.6942,-12.5887,866.347
0.184,-0.192335,-0.00766602,0.330352,0.0664505,0.0622742,-0.10429,0.05778,-0.100347,-0.100647,0.327447,0.023022,-0.182809,1.98691e-08,-4.56731e-09,0.3,-0.3,-24.63,-20.2294,0.526969,174.783,-11.4799,0.985868,74.4982,-12.5725,866.391
0.185,-0.192335,-0.00766602,0.330352,0.0664505,0.0622742,-0.10429,0.05778,-0.100347,-0.100647,0.327447,0.023022,-0.182809,1.98691e-08,-4.56731e-09,0.3,-0.3,-24.6221,-20.2063,0.545705,174.786,-11.4547,1.04774,74.304,-12.5573,866.433
0.186,-0.192335,-0.00766602,0.330352,0.0664505,0.0622742,-0.10429,0.05778,-0.100347,-0.100647,0.327447,0.023022,-0.182809,1.98691e-08,-4.56731e-09,0.3,-0.3,-24.6139,-20.1858,0.556957,174.79,-11.4259,1.10864,74.1115,-12.543,866.474
0.187,-0.192335,-0.00766602,0.330352,0.0664505,0.0622742,-0.10429,0.05778,-0.100347,-0.100647,0.327447,0.023022,-0.182809,1.98691e-08,-4.56731e-09,0.3,-0.3,-24.5983,-20.1815,0.570056,174.795,-11.3938,1.16885,73.9208,-12.5296,866.514
0.188,-0.192335,-0.00766602,0.330352,0.0664505,0.0622742,-0.10429,0.05778,-0.100347,-0.100647,0.327447,0.023022,-0.182809,1.98691e-08,-4.56731e-09,0.3,-0.3,-24.5702,-20.1931,0.586777,174.801,-11.3587,1.22867,73.7319,-12.5171,866.553
0.189,-0.192335,-0.00766602,0.330352,0.0664505,0.0622742,-0.10429,0.05778,-0.100347,-0.100647,0.327447,0.023022,-0.182809,1.98691e-08,-4.56731e-09,0.3,-0.3,-24.5393,-20.2038,0.604513,174.807,-11.3206,1.28824,73.5446,-12.5054,866.592
0.19,-0.192335,-0.00766602,0.330352,0.0664505,0.0622742,-0.10429,0.05778,-0.100347,-0.100647,0.327447,0.023022,-0.182809,1.98691e-08,-4.56731e-09,0.3,-0.3,-24.5114,-20.2112,0.622602,174.815,-11.2797,1.34756,73.359,-12.4945,866.63
0.191,-0.192335,-0.00766602,0.330352,0.0664505,0.0622742,-0.10429,0.05778,-0.100347,-0.100647,0.327447,0.023022,-0.182809,1.98691e-08,-4.56731e-09,0.3,-0.3,-24.486,-20.216,0.640701,174.822,-11.2365,1.40663,73.175,-12.4843,866.668
0.192,-0.192335,-0.00766602,0.330352,0.0664505,0.0622742,-0.10429,0.05778,-0.100347,-0.100647,0.327447,0.023022,-0.182809,1.98691e-08,-4.56731e-09,0.3,-0.3,-24.4628,-20.2186,0.658553,174.83,-11.1913,1.46541,72.9925,-12.4748,866.706
0.193,-0.192335,-0.00766602,0.330352,0.0664505,0.0622742,-0.10429,0.05778,-0.100347,-0.100647,0.327447,0.023022,-0.182809,1.98691e-08,-4.56731e-09,0.3,-0.3,-24.4414,-20.2195,0.675975,174.839,-11.1445,1.52387,72.8116,-12.4661,866.743
0.194,-0.192335,-0.00766602,0.330352,0.0664505,0.0622742,-0.10429,0.05778,-0.100347,-0.100647,0.327447,0.023022,-0.182809,1.98691e-08,-4.56731e-09,0.3,-0.3,-24.4216,-20.2189,0.692838,174.848,-11.0966,1.58198,72.6323,-12.4582,866.78
0.195,-0.192335,-0.00766602,0.330352,0.0664505,0.0622742,-0.10429,0.05778,-0.100347,-0.100647,0.327447,0.023022,-0.182809,1.98691e-08,-4.56731e-09,0.3,-0.3,-24.4032,-20.2173,0.70906,174.858,-11.0478,1.63971,72.4545,-12.4512,866.817
0.196,-0.192335,-0.00766602,0.330352,0.0664505,0.0622742,-0.10429,0.05778,-0.100347,-0.100647,0.327447,0.023022,-0.182809,1.98691e-08,-4.56731e-09,0.3,-0.3,-24.3861,-20.2141,0.724584,174.868,-10.9988,1.69702,72.2781,-12.445,866.853
0.197,-0.192335,-0.00766602,0.330352,0.0664505,0.0622742,-0.10429,0.05778,-0.100347,-0.100647,0.327447,0.023022,-0.182809,1.98691e-08,-4.56731e-09,0.3,-0.3,-24.3695,-20.21,0.739445,174.879,-10.9497,1.7539,72.1033,-12.4398,866.888
0.198,-0.192335,-0.00766602,0.330352,0.0664505,0.0622742,-0.10429,0.05778,-0.100347,-0.100647,0.327447,0.023022,-0.182809,1.98691e-08,-4.56731e-09,0.3,-0.3,-24.3532,-20.2052,0.753518,174.891,-10.901,1.81034,71.93,-12.4355,866.923
0.199,-0.192335,-0.00766602,0.330352,0.0664505,0.0622742,-0.10429,0.05778,-0.100347,-0.100647,0.327447,0.023022,-0.182809,1.98691e-08,-4.56731e-09,0.3,-0.3,-24.3373,-20.1999,0.76695,174.903,-10.8531,1.86633,71.7581,-12.4323,866.958
0.2,-0.192335,-0.00766602,0.330352,0.0664505,0.0622742,-0.10429,0.05778,-0.100347,-0.100647,0.327447,0.023022,-0.182809,1.98691e-08,-4.56731e-09,0.3,-0.3,-24.3219,-20.1941,0.779771,174.916,-10.806,1.92185,71.5878,-12.4302,866.992
0.201,-0.192335,-0.00766602,0.330352,0.0664505,0.0622742,-0.10429,0.05778,-0.100347,-0.100647,0.327447,0.023022,-0.182809,1.98691e-08,-4.56731e-09,0.3,-0.3,-24.3067,-20.1879,0.792017,174.929,-10.7602,1.97689,71.4189,-12.4292,867.025
0.202,-0.192335,-0.00766602,0.330352,0.0664505,0.0622742,-0.10429,0.05778,-0.100347,-0.100647,0.327447,0.023022,-0.182809,1.98691e-08,-4.56731e-09,0.3,-0.3,-24.2916,-20.1814,0.803729,174.944,-10.7158,2.03143,71.2516,-12.4293,867.058
0.203,-0.192335,-0.00766602,0.330352,0.0664505,0.0622742,-0.10429,0.05778,-0.100347,-0.100647,0.327447,0.023022,-0.182809,1.98691e-08,-4.56731e-09,0.3,-0.3,-24.2767,-20.1745,0.814949,174.959,-10.6729,2.08547,71.0857,-12.4306,867.09
0.204,-0.192335,-0.00766602,0.330352,0.0664505,0.0622742,-0.10429,0.05778,-0.100347,-0.100647,0.327447,0.023022,-0.182809,1.98691e-08,-4.56731e-09,0.3,-0.3,-24.2618,-20.1675,0.825538,174.973,-10.6336,2.13772,70.9209,-12.4333,867.121
0.205,-0.192335,-0.00766602,0.330352,0.0664505,0.0622742,-0.10429,0.05778,-0.100347,-0.100647,0.327447,0.023022,-0.182809,1.98691e-08,-4.56731e-09,0.3,-0.3,-24.247,-20.1605,0.835013,174.986,-10.5974,2.18846,70.7573,-12.4374,867.151
0.206,-0.192335,-0.00766602,0.330352,0.0664505,0.0622742,-0.10429,0.05778,-0.100347,-0.100647,0.327447,0.023022,-0.182809,1.98691e-08,-4.56731e-09,0.3,-0.3,-24.2319,-20.1532,0.843976,174.998,-10.5642,2.23801,70.5949,-12.4427,867.179
0.207,-0.192335,-0.00766602,0.330352,0.0664505,0.0622742,-0.10429,0.05778,-0.100347,-0.100647,0.327447,0.023022,-0.182809,1.98691e-08,-4.56731e-09,0.3,-0.3,-24.2168,-20.1458,0.852579,175.009,-10.5334,2.2866,70.4337,-12.4494,867.207
0.208,-0.192335,-0.00766602,0.330352,0.0664505,0.0622742,-0.10429,0.05778,-0.100347,-0.100647,0.327447,0.023022,-0.182809,1.98691e-08,-4.56731e-09,0.3,-0.3,-24.2016,-20.1381,0.86085,175.019,-10.5049,2.33437,70.2737,-12.4573,867.234
0.209,-0.192335,-0.00766602,0.330352,0.0664505,0.0622742,-0.10429,0.05778,-0.100347,-0.100647,0.327447,0.023022,-0.182809,1.98691e-08,-4.56731e-09,0.3,-0.3,-24.1863,-20.1302,0.868799,175.028,-10.4782,2.3814,70.115,-12.4665,867.26
0.21,-0.192335,-0.00766602,0.330352,0.0664505,0.0622742,-0.10429,0.05778,-0.100347,-0.100647,0.327447,0.023022,-0.182809,1.98691e-08,-4.56731e-09,0.3,-0.3,-24.1709,-20.1222,0.876437,175.036,-10.4531,2.42773,69.9575,-12.4769,867.286
0.211,-0.192335,-0.00766602,0.330352,0.0664505,0.0622742,-0.10429,0.05778,-0.100347,-0.100647,0.327447,0.023022,-0.182809,1.98691e-08,-4.56731e-09,0.3,-0.3,-24.1554,-20.1141,0.883789,175.044,-10.4293,2.47342,69.8014,-12.4885,867.312
0.212,-0.192335,-0.00766602,0.330352,0.0664505,0.0622742,-0.10429,0.05778,-0.100347,-0.100647,0.327447,0.023022,-0.182809,1.98691e-08,-4.56731e-09,0.3,-0.3,-24.1397,-20.1058,0.890879,175.051,-10.4064,2.51849,69.6466,-12.5012,867.337
0.213,-0.192335,-0.00766602,0.330352,0.0664505,0.0622742,-0.10429,0.05778,-0.100347,-0.100647,0.327447,0.023022,-0.182809,1.98691e-08,-4.56731e-09,0.3,-0.3,-24.124,-20.0975,0.897736,175.058,-10.3842,2.56299,69.4932,-12.5151,867.362
0.214,-0.192335,-0.00766602,0.330352,0.0664505,0.0622742,-0.10429,0.05778,-0.100347,-0.100647,0.327447,0.023022,-0.182809,1.98691e-08,-4.56731e-09,0.3,-0.3,-24.1082,-20.0891,0.904383,175.065,-10.3624,2.60694,69.3411,-12.5301,867.386
0.215,-0.192335,-0.00766602,0.330352,0.0664505,0.0622742,-0.10429,0.05778,-0.100347,-0.100647,0.327447,0.023022,-0.182809,1.98691e-08,-4.56731e-09,0.3,-0.3,-24.0924,-20.0807,0.91084,175.072,-10.3406,2.65037,69.1905,-12.5462,867.41
0.216,-0.192335,-0.00766602,0.330352,0.0664505,0.0622742,-0.10429,0.05778,-0.100347,-0.100647,0.327447,0.023022,-0.182809,1.98691e-08,-4.56731e-09,0.3,-0.3,-24.0767,-20.0724,0.917118,175.079,-10.3189,2.69331,69.0413,-12.5633,867.433
0.217,-0.192335,-0.00766602,0.330352,0.0664505,0.0622742,-0.10429,0.05778,-0.100347,-0.100647,0.327447,0.023022,-0.182809,1.98691e-08,-4.56731e-09,0.3,-0.3,-24.0607,-20.0633,0.923254,175.086,-10.2968,2.73576,68.8936,-12.5814,867.456
0.218,-0.192335,-0.00766602,0.330352,0.0664505,0.0622742,-0.10429,0.05778,-0.100347,-0.100647,0.327447,0.023022,-0.182809,1.98691e-08,-4.56731e-09,0.3,-0.3,-24.0444,-20.0542,0.92923,175.093,-10.2743,2.77777,68.7473,-12.6005,867.479
0.219,-0.192335,-0.00766602,0.330352,0.0664505,0.0622742,-0.10429,0.05778,-0.100347,-0.100647,0.327447,0.023022,-0.182809,1.98691e-08,-4.56731e-09,0.3,-0.3,-24.0282,-20.0453,0.93496,175.1,-10.2511,2.81933,68.6025,-12.6206,867.501
0.22,-0.192335,-0.00766602,0.330352,0.0664505,0.0622742,-0.10429,0.05778,-0.100347,-0.100647,0.327447,0.023022,-0.182809,1.98691e-08,-4.56731e-09,0.3,-0.3,-24.012,-20.0365,0.940564,175.108,-10.2273,2.86047,68.4592,-12.6416,867.524
0.221,-0.192335,-0.00766602,0.330352,0.0664505,0.0622742,-0.10429,0.05778,-0.100347,-0.100647,0.327447,0.023022,-0.182809,1.98691e-08,-4.56731e-09,0.3,-0.3,-23.9958,-20.0278,0.946039,175.116,-10.2027,2.9012,68.3174,-12.6637,867.545
0.222,-0.192335,-0.00766602,0.330352,0.0664505,0.0622742,-0.10429,0.05778,-0.100347,-0.100647,0.327447,0.023022,-0.182809,1.98691e-08,-4.56731e-09,0.3,-0.3,-23.9797,-20.0192,0.951379,175.125,-10.1773,2.94153,68.1771,-12.6866,867.567
0.223,-0.192335,-0.00766602,0.330352,0.0664505,0.0622742,-0.10429,0.05778,-0.100347,-0.100647,0.327447,0.023022,-0.182809,1.98691e-08,-4.56731e-09,0.3,-0.3,-23.9637,-20.0107,0.956579,175.134,-10.151,2.98146,68.0383,-12.7105,867.588
0.224,-0.192335,-0.00766602,0.330352,0.0664505,0.0622742,-0.10429,0.05778,-0.100347,-0.100647,0.327447,0.023022,-0.182809,1.98691e-08,-4.56731e-09,0.3,-0.3,-23.9478,-20.0023,0.961633,175.143,-10.1239,3.02098,67.901,-12.7354,867.609
0.225,-0.192335,-0.00766602,0.330352,0.0664505,0.0622742,-0.10429,0.05778,-0.100347,-0.100647,0.327447,0.023022,-0.182809,1.98691e-08,-4.56731e-09,0.3,-0.3,-23.9321,-19.9941,0.966533,175.153,-10.096,3.06011,67.7652,-12.7612,867.63
0.226,-0.192335,-0.00766602,0.330352,0.0664505,0.0622742,-0.10429,0.05778,-0.100347,-0.100647,0.327447,0.023022,-0.182809,1.98691e-08,-4.56731e-09,0.3,-0.3,-23.9165,-19.9859,0.97127,175.164,-10.0672,3.09885,67.6309,-12.7879,867.65
0.227,-0.192335,-0.00766602,0.330352,0.0664505,0.0622742,-0.10429,0.05778,-0.100347,-0.100647,0.327447,0.023022,-0.182809,1.98691e-08,-4.56731e-09,0.3,-0.3,-23.9013,-19.9779,0.975827,175.175,-10.0376,3.13717,67.4981,-12.8156,867.67
0.228,-0.192335,-0.00766602,0.330352,0.0664505,0.0622742,-0.10429,0.05778,-0.100347,-0.100647,0.327447,0.023022,-0.182809,1.98691e-08,-4.56731e-09,0.3,-0.3,-23.8863,-19.97,0.980238,175.186,-10.0073,3.17508,67.3668,-12.8442,867.69
0.229,-0.192335,-0.00766602,0.330352,0.0664505,0.0622742,-0.10429,0.05778,-0.100347,-0.100647,0.327447,0.023022,-0.182809,1.98691e-08,-4.56731e-09,0.3,-0.3,-23.8714,-19.9618,0.984477,175.198,-9.97633,3.21258,67.237,-12.8738,867.71
0.23,-0.192335,-0.00766602,0.330352,0.0664505,0.0622742,-0.10429,0.05778,-0.100347,-0.100647,0.327447,0.023022,-0.182809,1.98691e-08,-4.56731e-09,0.3,-0.3,-23.8562,-19.9535,0.988422,175.21,-9.94473,3.24966,67.1087,-12.9043,867.729
0.231,-0.192335,-0.00766602,0.330352,0.0664505,0.0622742,-0.10429,0.05778,-0.100347,-0.100647,0.327447,0.023022,-0.182809,1.98691e-08,-4.56731e-09,0.3,-0.3,-23.841,-19.9453,0.992178,175.223,-9.91255,3.28633,66.9818,-12.9358,867.748
0.232,-0.192335,-0.00766602,0.330352,0.0664505,0.0622742,-0.10429,0.05778,-0.100347,-0.100647,0.327447,0.023022,-0.182809,1.98691e-08,-4.56731e-09,0.3,-0.3,-23.8259,-19.9372,0.995732,175.236,-9.87988,3.32255,66.8565,-12.9683,867.766
0.233,-0.192335,-0.00766602,0.330352,0.0664505,0.0622742,-0.10429,0.05778,-0.100347,-0.100647,0.327447,0.023022,-0.182809,1.98691e-08,-4.56731e-09,0.3,-0.3,-23.8109,-19.9292,0.999075,175.249,-9.84678,3.35834,66.7326,-13.0018,867.785
0.234,-0.192335,-0.00766602,0.330352,0.0664505,0.0622742,-0.10429,0.05778,-0.100347,-0.100647,0.327447,0.023022,-0.182809,1.98691e-08,-4.56731e-09,0.3,-0.3,-23.7959,-19.9212,1.0022,175.263,-9.81331,3.39366,66.6101,-13.0363,867.802
0.235,-0.192335,-0.00766602,0.330352,0.0664505,0.0622742,-0.10429,0.05778,-0.100347,-0.100647,0.327447,0.023022,-0.182809,1.98691e-08,-4.56731e-09,0.3,-0.3,-23.7809,-19.9133,1.0051,175.278,-9.77953,3.42852,66.4892,-13.0717,867.82
0.236,-0.192335,-0.00766602,0.330352,0.0664505,0.0622742,-0.10429,0.05778,-0.100347,-0.100647,0.327447,0.023022,-0.182809,1.98691e-08,-4.56731e-09,0.3,-0.3,-23.7661,-19.9054,1.00777,175.293,-9.74551,3.4629,66.3697,-13.1082,867.837
0.237,-0.192335,-0.00766602,0.330352,0.0664505,0.0622742,-0.10429,0.05778,-0.100347,-0.100647,0.327447,0.023022,-0.182809,1.98691e-08,-4.56731e-09,0.3,-0.3,-23.7513,-19.8976,1.0102,175.308,-9.7113,3.49679,66.2516,-13.1457,867.854
0.238,-0.192335,-0.00766602,0.330352,0.0664505,0.0622742,-0.10429,0.05778,-0.100347,-0.100647,0.327447,0.023022,-0.182809,1.98691e-08,-4.56731e-09,0.3,-0.3,-23.7366,-19.8899,1.01239,175.324,-9.67696,3.53019,66.1349,-13.1842,867.871
0.239,-0.192335,-0.00766602,0.330352,0.0664505,0.0622742,-0.10429,0.05778,-0.100347,-0.100647,0.327447,0.023022,-0.182809,1.98691e-08,-4.56731e-09,0.3,-0.3,-23.7219,-19.8822,1.01434,175.34,-9.64252,3.56307,66.0197,-13.2237,867.887
0.24,-0.192335,-0.00766602,0.330352,0.0664505,0.0622742,-0.10429,0.05778,-0.100347,-0.100647,0.327447,0.023022,-0.182809,1.98691e-08,-4.56731e-09,0.3,-0.3,-23.7073,-19.8745,1.01603,175.356,-9.60805,3.59545,65.9058,-13.2643,867.902
0.241,-0.192335,-0.00766602,0.330352,0.0664505,0.0622742,-0.10429,0.05778,-0.100347,-0.100647,0.327447,0.023022,-0.182809,1.98691e-08,-4.56731e-09,0.3,-0.3,-23.6927,-19.8669,1.01747,175.372,-9.57357,3.6273,65.7934,-13.3059,867.918
0.242,-0.192335,-0.00766602,0.330352,0.0664505,0.0622742,-0.10429,0.05778,-0.100347,-0.100647,0.327447,0.023022,-0.182809,1.98691e-08,-4.56731e-09,0.3,-0.3,-23.6782,-19.8593,1.01866,175.389,-9.53913,3.65862,65.6824,-13.3486,867.933
0.243,-0.192335,-0.00766602,0.330352,0.0664505,0.0622742,-0.10429,0.05778,-0.100347,-0.100647,0.327447,0.023022,-0.182809,1.98691e-08,-4.56731e-09,0.3,-0.3,-23.6638,-19.8517,1.01958,175.406,-9.50474,3.6894,65.5728,-13.3923,867.947
0.244,-0.192335,-0.00766602,0.330352,0.0664505,0.0622742,-0.10429,0.05778,-0.100347,-0.100647,0.327447,0.023022,-0.182809,1.98691e-08,-4.56731e-09,0.3,-0.3,-23.6494,-19.8442,1.02025,175.422,-9.47044,3.71964,65.4645,-13.437,867.961
0.245,-0.192335,-0.00766602,0.330352,0.0664505,0.0622742,-0.10429,0.05778,-0.100347,-0.100647,0.327447,0.023022,-0.182809,1.98691e-08,-4.56731e-09,0.3,-0.3,-23.635,-19.8366,1.02065,175.439,-9.43624,3.74933,65.3576,-13.4828,867.975
0.246,-0.192335,-0.00766602,0.330352,0.0664505,0.0622742,-0.10429,0.05778,-0.100347,-0.100647,0.327447,0.023022,-0.182809,1.98691e-08,-4.56731e-09,0.3,-0.3,-23.6207,-19.8291,1.02079,175.457,-9.40217,3.77847,65.2521,-13.5297,867.988
0.247,-0.192335,-0.00766602,0.330352,0.0664505,0.0622742,-0.10429,0.05778,-0.100347,-0.100647,0.327447,0.023022,-0.182809,1.98691e-08,-4.56731e-09,0.3,-0.3,-23.6064,-19.8216,1.02067,175.474,-9.36822,3.80705,65.148,-13.5776,868.001
0.248,-0.192335,-0.00766602,0.330352,0.0664505,0.0622742,-0.10429,0.05778,-0.100347,-0.100647,0.327447,0.023022,-0.182809,1.98691e-08,-4.56731e-09,0.3,-0.3,-23.5921,-19.8141,1.02028,175.491,-9.33442,3.83507,65.0452,-13.6265,868.014
0.249,-0.192335,-0.00766602,0.330352,0.0664505,0.0622742,-0.10429,0.05778,-0.100347,-0.100647,0.327447,0.023022,-0.182809,1.98691e-08,-4.56731e-09,0.3,-0.3,-23.5779,-19.8067,1.01963,175.508,-9.30077,3.86252,64.9438,-13.6765,868.026
0.25,-0.192335,-0.00766602,0.330352,0.0664505,0.0622742,-0.10429,0.05778,-0.100347,-0.100647,0.327447,0.023022,-0.182809,1.98691e-08,-4.56731e-09,0.3,-0.3,-23.5637,-19.7992,1.01871,175.525,-9.26727,3.88941,64.8438,-13.7276,868.037
0.251,-0.192335,-0.00766602,0.330352,0.0664505,0.0622742,-0.10429,0.05778,-0.100347,-0.100647,0.327447,0.023022,-0.182809,1.98691e-08,-4.56731e-09,0.3,-0.3,-23.5495,-19.7917,1.01753,175.543,-9.23391,3.91574,64.7451,-13.7797,868.049
0.252,-0.192335,-0.00766602,0.330352,0.0664505,0.0622742,-0.10429,0.05778,-0.100347,-0.100647,0.327447,0.023022,-0.182809,1.98691e-08,-4.56731e-09,0.3,-0.3,-23.5353,-19.7843,1.01609,175.56,-9.20071,3.94149,64.6477,-13.8329,868.06
0.253,-0.192335,-0.00766602,0.330352,0.0664505,0.0622742,-0.10429,0.05778,-0.100347,-0.100647,0.327447,0.023022,-0.182809,1.98691e-08,-4.56731e-09,0.3,-0.3,-23.5212,-19.7768,1.01439,175.577,-9.16766,3.96667,64.5517,-13.8871,868.07
0.254,-0.192335,-0.00766602,0.330352,0.0664505,0.0622742,-0.10429,0.05778,-0.100347,-0.100647,0.327447,0.023022,-0.182809,1.98691e-08,-4.56731e-09,0.3,-0.3,-23.5071,-19.7694,1.01243,175.594,-9.13475,3.99129,64.457,-13.9424,868.08
0.255,-0.192335,-0.00766602,0.330352,0.0664505,0.0622742,-0.10429,0.05778,-0.100347,-0.100647,0.327447,0.023022,-0.182809,1.98691e-08,-4.56731e-09,0.3,-0.3,-23.493,-19.762,1.01021,175.611,-9.10198,4.01534,64.3637,-13.9987,868.089
0.256,-0.192335,-0.00766602,0.330352,0.0664505,0.0622742,-0.10429,0.05778,-0.100347,-0.100647,0.327447,0.023022,-0.182809,1.98691e-08,-4.56731e-09,0.3,-0.3,-23.4789,-19.7545,1.00774,175.627,-9.06934,4.03882,64.2717,-14.0561,868.099
0.257,-0.192335,-0.00766602,0.330352,0.0664505,0.0622742,-0.10429,0.05778,-0.100347,-0.100647,0.327447,0.023022,-0.182809,1.98691e-08,-4.56731e-09,0.3,-0.3,-23.4649,-19.7471,1.005,175.644,-9.03683,4.06173,64.181,-14.1145,868.107
0.258,-0.192335,-0.00766602,0.330352,0.0664505,0.0622742,-0.10429,0.05778,-0.100347,-0.100647,0.327447,0.023022,-0.182809,1.98691e-08,-4.56731e-09,0.3,-0.3,-23.4509,-19.7397,1.00201,175.661,-9.00445,4.08407,64.0917,-14.174,868.116
0.259,-0.192335,-0.00766602,0.330352,0.0664505,0.0622742,-0.10429,0.05778,-0.100347,-0.100647,0.327447,0.023022,-0.182809,1.98691e-08,-4.56731e-09,0.3,-0.3,-23.4369,-19.7322,0.998766,175.677,-8.97218,4.10585,64.0037,-14.2346,868.124
0.26,-0.192335,-0.00766602,0.330352,0.0664505,0.0622742,-0.10429,0.05778,-0.100347,-0.100647,0.327447,0.023022,-0.182809,1.98691e-08,-4.56731e-09,0.3,-0.3,-23.4233,-19.725,0.995296,175.693,-8.94002,4.12705,63.9171,-14.2961,868.131
0.261,-0.192335,-0.00766602,0.330352,0.0664505,0.0622742,-0.10429,0.05778,-0.100347,-0.100647,0.327447,0.023022,-0.182809,1.98691e-08,-4.56731e-09,0.3,-0.3,-23.4095,-19.7176,0.991569,175.709,-8.90798,4.14768,63.8317,-14.3588,868.138
0.262,-0.192335,-0.00766602,0.330352,0.0664505,0.0622742,-0.10429,0.05778,-0.100347,-0.100647,0.327447,0.023022,-0.182809,1.98691e-08,-4.56731e-09,0.3,-0.3,-23.3955,-19.71,0.987536,175.725,-8.87603,4.16776,63.7477,-14.4224,868.145
0.263,-0.192335,-0.00766602,0.330352,0.0664505,0.0622742,-0.10429,0.05778,-0.100347,-0.100647,0.327447,0.023022,-0.182809,1.98691e-08,-4.56731e-09,0.3,-0.3,-23.3819,-19.7026,0.9833,175.741,-8.84419,4.18727,63.6651,-14.4871,868.151
0.264,-0.192335,-0.00766602,0.330352,0.0664505,0.0622742,-0.10429,0.05778,-0.100347,-0.100647,0.327447,0.023022,-0.182809,1.98691e-08,-4.56731e-09,0.3,-0.3,-23.3678,-19.695,0.978776,175.757,-8.81243,4.20624,63.5837,-14.5529,868.157
0.265,-0.192335,-0.00766602,0.330352,0.0664505,0.0622742,-0.10429,0.05778,-0.100347,-0.100647,0.327447,0.023022,-0.182809,1.98691e-08,-4.56731e-09,0.3,-0.3,-23.3537,-19.6876,0.974018,175.772,-8.78076,4.22464,63.5037,-14.6197,868.162
0.266,-0.192335,-0.00766602,0.330352,0.0664505,0.0622742,-0.10429,0.05778,-0.100347,-0.100647,0.327447,0.023022,-0.182809,1.98691e-08,-4.56731e-09,0.3,-0.3,-23.3399,-19.6797,0.969034,175.788,-8.74916,4.24249,63.4251,-14.6876,868.168
0.267,-0.192335,-0.00766602,0.330352,0.0664505,0.0622742,-0.10429,0.05778,-0.100347,-0.100647,0.327447,0.023022,-0.182809,1.98691e-08,-4.56731e-09,0.3,-0.3,-23.3263,-19.6719,0.96377,175.803,-8.71763,4.25976,63.3478,-14.7564,868.172
0.268,-0.192335,-0.00766602,0.330352,0.0664505,0.0622742,-0.10429,0.05778,-0.100347,-0.100647,0.327447,0.023022,-0.182809,1.98691e-08,-4.56731e-09,0.3,-0.3,-23.3124,-19.6642,0.958176,175.818,-8.68618,4.27648,63.2717,-14.8264,868.176
0.269,-0.192335,-0.00766602,0.330352,0.0664505,0.0622742,-0.10429,0.05778,-0.100347,-0.100647,0.327447,0.023022,-0.182809,1.98691e-08,-4.56731e-09,0.3,-0.3,-23.3395,-19.6532,0.966465,175.826,-8.65419,4.30359,63.1955,-14.8935,868.191
0.27,-0.192335,-0.00766602,0.330352,0.0664505,0.0622742,-0.10429,0.05778,-0.100347,-0.100647,0.327447,0.023022,-0.182809,1.98691e-08,-4.56731e-09,0.3,-0.3,-23.3527,-19.6515,0.992182,175.828,-8.62094,4.33691,63.1201,-14.9594,868.214
0.271,-0.192335,-0.00766602,0.330352,0.0664505,0.0622742,-0.10429,0.05778,-0.100347,-0.100647,0.327447,0.023022,-0.182809,1.98691e-08,-4.56731e-09,0.3,-0.3,-23.3669,-19.6499,1.01058,175.827,-8.58636,4.37159,63.0455,-15.0243,868.239
0.272,-0.192335,-0.00766602,0.330352,0.0664505,0.0622742,-0.10429,0.05778,-0.100347,-0.100647,0.327447,0.023022,-0.182809,1.98691e-08,-4.56731e-09,0.3,-0.3,-23.3812,-19.6481,1.0224,175.823,-8.55046,4.40553,62.9718,-15.088,868.264
0.273,-0.192335,-0.00766602,0.330352,0.0664505,0.0622742,-0.10429,0.05778,-0.100347,-0.100647,0.327447,0.023022,-0.182809,1.98691e-08,-4.56731e-09,0.3,-0.3,-23.395,-19.6462,1.03004,175.818,-8.51341,4.43813,62.899,-15.1506,868.288
0.274,-0.192335,-0.00766602,0.330352,0.0664505,0.0622742,-0.10429,0.05778,-0.100347,-0.100647,0.327447,0.023022,-0.182809,1.98691e-08,-4.56731e-09,0.3,-0.3,-23.4087,-19.6439,1.03541,175.811,-8.47544,4.46943,62.8272,-15.2119,868.31
0.275,-0.192335,-0.00766602,0.330352,0.0664505,0.0622742,-0.10429,0.05778,-0.100347,-0.100647,0.327447,0.023022,-0.182809,1.98691e-08,-4.56731e-09,0.3,-0.3,-23.4225,-19.6412,1.0398,175.803,-8.43683,4.49966,62.7565,-15.2718,868.332
0.276,-0.192335,-0.00766602,0.330352,0.0664505,0.0622742,-0.10429,0.05778,-0.100347,-0.100647,0.327447,0.023022,-0.182809,1.98691e-08,-4.56731e-09,0.3,-0.3,-23.4362,-19.6382,1.04404,175.793,-8.39787,4.52903,62.6868,-15.3304,868.353
0.277,-0.192335,-0.00766602,0.330352,0.0664505,0.0622742,-0.10429,0.05778,-0.100347,-0.100647,0.327447,0.023022,-0.182809,1.98691e-08,-4.56731e-09,0.3,-0.3,-23.4502,-19.6349,1.04862,175.782,-8.35883,4.55769,62.6182,-15.3875,868.373
0.278,-0.192335,-0.00766602,0.330352,0.0664505,0.0622742,-0.10429,0.05778,-0.100347,-0.100647,0.327447,0.023022,-0.182809,1.98691e-08,-4.56731e-09,0.3,-0.3,-23.4636,-19.6314,1.0539,175.77,-8.31999,4.58573,62.5507,-15.4433,868.393
0.279,-0.192335,-0.00766602,0.330352,0.0664505,0.0622742,-0.10429,0.05778,-0.100347,-0.100647,0.327447,0.023022,-0.182809,1.98691e-08,-4.56731e-09,0.3,-0.3,-23.4759,-19.6285,1.06003,175.757,-8.28163,4.61324,62.4844,-15.4976,868.413
0.28,-0.192335,-0.00766602,0.330352,0.0664505,0.0622742,-0.10429,0.05778,-0.100347,-0.100647,0.327447,0.023022,-0.182809,1.98691e-08,-4.56731e-09,0.3,-0.3,-23.488,-19.6255,1.06714,175.744,-8.24403,4.64021,62.4192,-15.5507,868.432
0.281,-0.192335,-0.00766602,0.330352,0.0664505,0.0622742,-0.10429,0.05778,-0.100347,-0.100647,0.327447,0.023022,-0.182809,1.98691e-08,-4.56731e-09,0.3,-0.3,-23.5,-19.622,1.07529,175.73,-8.20738,4.6667,62.3552,-15.6024,868.45
0.282,-0.192335,-0.00766602,0.330352,0.0664505,0.0622742,-0.10429,0.05778,-0.100347,-0.100647,0.327447,0.023022,-0.182809,1.98691e-08,-4.56731e-09,0.3,-0.3,-23.5118,-19.6183,1.08446,175.716,-8.17188,4.69269,62.2924,-15.6528,868.469
0.283,-0.192335,-0.00766602,0.330352,0.0664505,0.0622742,-0.10429,0.05778,-0.100347,-0.100647,0.327447,0.023022,-0.182809,1.98691e-08,-4.56731e-09,0.3,-0.3,-23.5236,-19.6143,1.09459,175.702,-8.13767,4.71817,62.2309,-15.702,868.487
0.284,-0.192335,-0.00766602,0.330352,0.0664505,0.0622742,-0.10429,0.05778,-0.100347,-0.100647,0.327447,0.023022,-0.182809,1.98691e-08,-4.56731e-09,0.3,-0.3,-23.5352,-19.6102,1.10558,175.688,-8.10486,4.74314,62.1705,-15.75,868.505
0.285,-0.192335,-0.00766602,0.330352,0.0664505,0.0622742,-0.10429,0.05778,-0.100347,-0.100647,0.327447,0.023022,-0.182809,1.98691e-08,-4.56731e-09,0.3,-0.3,-23.5467,-19.6058,1.1173,175.674,-8.07351,4.76758,62.1114,-15.7967,868.523
0.286,-0.192335,-0.00766602,0.330352,0.0664505,0.0622742,-0.10429,0.05778,-0.100347,-0.100647,0.327447,0.023022,-0.182809,1.98691e-08,-4.56731e-09,0.3,-0.3,-23.5583,-19.6012,1.1296,175.66,-8.04367,4.79147,62.0535,-15.8424,868.54
0.287,-0.192335,-0.00766602,0.330352,0.0664505,0.0622742,-0.10429,0.05778,-0.100347,-0.100647,0.327447,0.023022,-0.182809,1.98691e-08,-4.56731e-09,0.3,-0.3,-23.5699,-19.5965,1.14234,175.646,-8.01532,4.81481,61.9968,-15.8869,868.557
0.288,-0.192335,-0.00766602,0.330352,0.0664505,0.0622742,-0.10429,0.05778,-0.100347,-0.100647,0.327447,0.023022,-0.182809,1.98691e-08,-4.56731e-09,0.3,-0.3,-23.5818,-19.5916,1.15538,175.633,-7.98844,4.83757,61.9413,-15.9304,868.573
0.289,-0.192335,-0.00766602,0.330352,0.0664505,0.0622742,-0.10429,0.05778,-0.100347,-0.100647,0.327447,0.023022,-0.182809,1.98691e-08,-4.56731e-09,0.3,-0.3,-23.5932,-19.5871,1.16859,175.619,-7.96296,4.85973,61.887,-15.9727,868.589
0.29,-0.192335,-0.00766602,0.330352,0.0664505,0.0622742,-0.10429,0.05778,-0.100347,-0.100647,0.327447,0.023022,-0.182809,1.98691e-08,-4.56731e-09,0.3,-0.3,-23.6046,-19.5824,1.18178,175.606,-7.9388,4.88129,61.8339,-16.014,868.605
0.291,-0.192335,-0.00766602,0.330352,0.0664505,0.0622742,-0.10429,0.05778,-0.100347,-0.100647,0.327447,0.023022,-0.182809,1.98691e-08,-4.56731e-09,0.3,-0.3,-23.6161,-19.5776,1.19484,175.592,-7.91585,4.90225,61.7821,-16.0543,868.62
0.292,-0.192335,-0.00766602,0.330352,0.0664505,0.0622742,-0.10429,0.05778,-0.100347,-0.100647,0.327447,0.023022,-0.182809,1.98691e-08,-4.56731e-09,0.3,-0.3,-23.6279,-19.5726,1.20768,175.579,-7.89402,4.9226,61.7314,-16.0934,868.634
0.293,-0.192335,-0.00766602,0.330352,0.0664505,0.0622742,-0.10429,0.05778,-0.100347,-0.100647,0.327447,0.023022,-0.182809,1.98691e-08,-4.56731e-09,0.3,-0.3,-23.64,-19.5676,1.22022,175.566,-7.87315,4.94231,61.682,-16.1315,868.649
0.294,-0.192335,-0.00766602,0.330352,0.0664505,0.0622742,-0.10429,0.05778,-0.100347,-0.100647,0.327447,0.023022,-0.182809,1.98691e-08,-4.56731e-09,0.3,-0.3,-23.6523,-19.5626,1.23242,175.553,-7.85312,4.9614,61.6337,-16.1686,868.663
0.295,-0.192335,-0.00766602,0.330352,0.0664505,0.0622742,-0.10429,0.05778,-0.100347,-0.100647,0.327447,0.023022,-0.182809,1.98691e-08,-4.56731e-09,0.3,-0.3,-23.6637,-19.5581,1.24414,175.541,-7.83378,4.97987,61.5866,-16.2046,868.676
0.296,-0.192335,-0.00766602,0.330352,0.0664505,0.0622742,-0.10429,0.05778,-0.100347,-0.100647,0.327447,0.023022,-0.182809,1.98691e-08,-4.56731e-09,0.3,-0.3,-23.6755,-19.5536,1.2554,175.528,-7.81504,4.99771,61.5406,-16.2394,868.689
0.297,-0.192335,-0.00766602,0.330352,0.0664505,0.0622742,-0.10429,0.05778,-0.100347,-0.100647,0.327447,0.023022,-0.182809,1.98691e-08,-4.56731e-09,0.3,-0.3,-23.6874,-19.549,1.26613,175.515,-7.79674,5.01494,61.4959,-16.2732,868.701
0.298,-0.192335,-0.00766602,0.330352,0.0664505,0.0622742,-0.10429,0.05778,-0.100347,-0.100647,0.327447,0.023022,-0.182809,1.98691e-08,-4.56731e-09,0.3,-0.3,-23.6995,-19.5442,1.27636,175.502,-7.77877,5.03156,61.4523,-16.3059,868.714
0.299,-0.192335,-0.00766602,0.330352,0.0664505,0.0622742,-0.10429,0.05778,-0.100347,-0.100647,0.327447,0.023022,-0.182809,1.98691e-08,-4.56731e-09,0.3,-0.3,-23.7117,-19.5394,1.28608,175.489,-7.76099,5.04757,61.4099,-16.3374,868.725
0.3,-0.192335,-0.00766602,0.330352,0.0664505,0.0622742,-0.10429,0.05778,-0.100347,-0.100647,0.327447,0.023022,-0.182809,1.98691e-08,-4.56731e-09,0.3,-0.3,-23.7239,-19.5346,1.2953,175.476,-7.74331,5.06298,61.3686,-16.3677,868.737
0.301,-0.192335,-0.00766602,0.330352,0.0664505,0.0622742,-0.10429,0.05778,-0.100347,-0.100647,0.327447,0.023022,-0.182809,1.98691e-08,-4.56731e-09,0.3,-0.3,-23.7363,-19.5298,1.30403,175.463,-7.72563,5.07779,61.3285,-16.3969,868.747
0.302,-0.192335,-0.00766602,0.330352,0.0664505,0.0622742,-0.10429,0.05778,-0.100347,-0.100647,0.327447,0.023022,-0.182809,1.98691e-08,-4.56731e-09,0.3,-0.3,-23.7487,-19.525,1.31228,175.45,-7.70786,5.09202,61.2895,-16.4249,868.758
0.303,-0.192335,-0.00766602,0.330352,0.0664505,0.0622742,-0.10429,0.05778,-0.100347,-0.100647,0.327447,0.023022,-0.182809,1.98691e-08,-4.56731e-09,0.3,-0.3,-23.7611,-19.5201,1.32009,175.437,-7.68994,5.10567,61.2517,-16.4518,868.767
0.304,-0.192335,-0.00766602,0.330352,0.0664505,0.0622742,-0.10429,0.05778,-0.100347,-0.100647,0.327447,0.023022,-0.182809,1.98691e-08,-4.56731e-09,0.3,-0.3,-23.7735,-19.5153,1.32737,175.423,-7.67256,5.11851,61.215,-16.4775,868.777
0.305,-0.192335,-0.00766602,0.330352,0.0664505,0.0622742,-0.10429,0.05778,-0.100347,-0.100647,0.327447,0.023022,-0.182809,1.98691e-08,-4.56731e-09,0.3,-0.3,-23.7857,-19.5105,1.33415,175.408,-7.65556,5.13058,61.1793,-16.5021,868.786
0.306,-0.192335,-0.00766602,0.330352,0.0664505,0.0622742,-0.10429,0.05778,-0.100347,-0.100647,0.327447,0.023022,-0.182809,1.98691e-08,-4.56731e-09,0.3,-0.3,-23.7979,-19.5057,1.34057,175.392,-7.63882,5.14196,61.1447,-16.5255,868.794
0.307,-0.192335,-0.00766602,0.330352,0.0664505,0.0622742,-0.10429,0.05778,-0.100347,-0.100647,0.327447,0.023022,-0.182809,1.98691e-08,-4.56731e-09,0.3,-0.3,-23.8103,-19.5009,1.34666,175.375,-7.62221,5.15272,61.1111,-16.5478,868.802
0.308,-0.192335,-0.00766602,0.330352,0.0664505,0.0622742,-0.10429,0.05778,-0.100347,-0.100647,0.327447,0.023022,-0.182809,1.98691e-08,-4.56731e-09,0.3,-0.3,-23.8226,-19.4963,1.35247,175.358,-7.60562,5.16288,61.0786,-16.5689,868.81
0.309,-0.192335,-0.00766602,0.330352,0.0664505,0.0622742,-0.10429,0.05778,-0.100347,-0.100647,0.327447,0.023022,-0.182809,1.98691e-08,-4.56731e-09,0.3,-0.3,-23.8344,-19.4922,1.35792,175.341,-7.58897,5.17252,61.0472,-16.5888,868.817
0.31,-0.192335,-0.00766602,0.330352,0.0664505,0.0622742,-0.10429,0.05778,-0.100347,-0.100647,0.327447,0.023022,-0.182809,1.98691e-08,-4.56731e-09,0.3,-0.3,-23.8463,-19.4882,1.36311,175.323,-7.57221,5.18161,61.017,-16.6074,868.824
0.311,-0.192335,-0.00766602,0.330352,0.0664505,0.0622742,-0.10429,0.05778,-0.100347,-0.100647,0.327447,0.023022,-0.182809,1.98691e-08,-4.56731e-09,0.3,-0.3,-23.8581,-19.484,1.36803,175.305,-7.55524,5.19021,60.9878,-16.6249,868.83
0.312,-0.192335,-0.00766602,0.330352,0.0664505,0.0622742,-0.10429,0.05778,-0.100347,-0.100647,0.327447,0.023022,-0.182809,1.98691e-08,-4.56731e-09,0.3,-0.3,-23.8698,-19.4799,1.3727,175.286,-7.53802,5.19832,60.9598,-16.6411,868.836
0.313,-0.192335,-0.00766602,0.330352,0.0664505,0.0622742,-0.10429,0.05778,-0.100347,-0.100647,0.327447,0.023022,-0.182809,1.98691e-08,-4.56731e-09,0.3,-0.3,-23.8816,-19.4757,1.37716,175.268,-7.52051,5.20595,60.933,-16.656,868.842
0.314,-0.192335,-0.00766602,0.330352,0.0664505,0.0622742,-0.10429,0.05778,-0.100347,-0.100647,0.327447,0.023022,-0.182809,1.98691e-08,-4.56731e-09,0.3,-0.3,-23.8933,-19.4715,1.38139,175.25,-7.50267,5.21311,60.9073,-16.6697,868.848
0.315,-0.192335,-0.00766602,0.330352,0.0664505,0.0622742,-0.10429,0.05778,-0.100347,-0.100647,0.327447,0.023022,-0.182809,1.98691e-08,-4.56731e-09,0.3,-0.3,-23.905,-19.4673,1.38542,175.232,-7.4845,5.21981,60.8828,-16.6822,868.853
0.316,-0.192335,-0.00766602,0.330352,0.0664505,0.0622742,-0.10429,0.05778,-0.100347,-0.100647,0.327447,0.023022,-0.182809,1.98691e-08,-4.56731e-09,0.3,-0.3,-23.9166,-19.4631,1.38924,175.214,-7.46596,5.22605,60.8596,-16.6934,868.858
0.317,-0.192335,-0.00766602,0.330352,0.0664505,0.0622742,-0.10429,0.05778,-0.100347,-0.100647,0.327447,0.023022,-0.182809,1.98691e-08,-4.56731e-09,0.3,-0.3,-23.9283,-19.4588,1.39286,175.196,-7.44707,5.23183,60.8375,-16.7033,868.863
0.318,-0.192335,-0.00766602,0.330352,0.0664505,0.0622742,-0.10429,0.05778,-0.100347,-0.100647,0.327447,0.023022,-0.182809,1.98691e-08,-4.56731e-09,0.3,-0.3,-23.9399,-19.4546,1.39629,175.179,-7.42782,5.23714,60.8166,-16.712,868.867
0.319,-0.192335,-0.00766602,0.330352,0.0664505,0.0622742,-0.10429,0.05778,-0.100347,-0.100647,0.327447,0.023022,-0.182809,1.98691e-08,-4.56731e-09,0.3,-0.3,-23.9516,-19.4503,1.39951,175.162,-7.40822,5.242,60.797,-16.7194,868.871
0.32,-0.192335,-0.00766602,0.330352,0.0664505,0.0622742,-0.10429,0.05778,-0.100347,-0.100647,0.327447,0.023022,-0.182809,1.98691e-08,-4.56731e-09,0.3,-0.3,-23.9632,-19.446,1.40253,175.145,-7.38829,5.24639,60.7786,-16.7256,868.874
0.321,-0.192335,-0.00766602,0.330352,0.0664505,0.0622742,-0.10429,0.05778,-0.100347,-0.100647,0.327447,0.023022,-0.182809,1.98691e-08,-4.56731e-09,0.3,-0.3,-23.9748,-19.4417,1.40533,175.129,-7.36804,5.25031,60.7614,-16.7306,868.878
0.322,-0.192335,-0.00766602,0.330352,0.0664505,0.0622742,-0.10429,0.05778,-0.100347,-0.100647,0.327447,0.023022,-0.182809,1.98691e-08,-4.56731e-09,0.3,-0.3,-23.9864,-19.4373,1.40793,175.113,-7.34749,5.25376,60.7455,-16.7343,868.881
0.323,-0.192335,-0.00766602,0.330352,0.0664505,0.0622742,-0.10429,0.05778,-0.100347,-0.100647,0.327447,0.023022,-0.182809,1.98691e-08,-4.56731e-09,0.3,-0.3,-23.998,-19.433,1.4103,175.098,-7.32666,5.25673,60.7308,-16.7367,868.883
0.324,-0.192335,-0.00766602,0.330352,0.0664505,0.0622742,-0.10429,0.05778,-0.100347,-0.100647,0.327447,0.023022,-0.182809,1.98691e-08,-4.56731e-09,0.3,-0.3,-24.0096,-19.4286,1.41244,175.083,-7.30558,5.25922,60.7173,-16.738,868.885
0.325,-0.192335,-0.00766602,0.330352,0.0664505,0.0622742,-0.10429,0.05778,-0.100347,-0.100647,0.327447,0.023022,-0.182809,1.98691e-08,-4.56731e-09,0.3,-0.3,-24.0212,-19.4243,1.41436,175.069,-7.28426,5.26123,60.7051,-16.738,868.887
0.326,-0.192335,-0.00766602,0.330352,0.0664505,0.0622742,-0.10429,0.05778,-0.100347,-0.100647,0.327447,0.023022,-0.182809,1.98691e-08,-4.56731e-09,0.3,-0.3,-24.0327,-19.4199,1.41603,175.055,-7.26272,5.26274,60.6941,-16.7367,868.889
0.327,-0.192335,-0.00766602,0.330352,0.0664505,0.0622742,-0.10429,0.05778,-0.100347,-0.100647,0.327447,0.023022,-0.182809,1.98691e-08,-4.56731e-09,0.3,-0.3,-24.0443,-19.4155,1.41746,175.041,-7.24099,5.26376,60.6843,-16.7343,868.89
0.328,-0.192335,-0.00766602,0.330352,0.0664505,0.0622742,-0.10429,0.05778,-0.100347,-0.100647,0.327447,0.023022,-0.182809,1.98691e-08,-4.56731e-09,0.3,-0.3,-24.0558,-19.4111,1.41864,175.028,-7.21909,5.26427,60.6757,-16.7306,868.891
0.329,-0.192335,-0.00766602,0.330352,0.0664505,0.0622742,-0.10429,0.05778,-0.100347,-0.100647,0.327447,0.023022,-0.182809,1.98691e-08,-4.56731e-09,0.3,-0.3,-24.0674,-19.4067,1.41957,175.015,-7.19703,5.26428,60.6684,-16.7258,868.892
0.33,-0.192335,-0.00766602,0.330352,0.0664505,0.0622742,-0.10429,0.05778,-0.100347,-0.100647,0.327447,0.023022,-0.182809,1.98691e-08,-4.56731e-09,0.3,-0.3,-24.0789,-19.4023,1.42024,175.003,-7.17483,5.26378,60.6622,-16.7197,868.892
0.331,-0.192335,-0.00766602,0.330352,0.0664505,0.0622742,-0.10429,0.05778,-0.100347,-0.100647,0.327447,0.023022,-0.182809,1.98691e-08,-4.56731e-09,0.3,-0.3,-24.0904,-19.3979,1.42065,174.991,-7.15251,5.26277,60.6573,-16.7124,868.891
0.332,-0.192335,-0.00766602,0.330352,0.0664505,0.0622742,-0.10429,0.05778,-0.100347,-0.100647,0.327447,0.023022,-0.182809,1.98691e-08,-4.56731e-09,0.3,-0.3,-24.1019,-19.3935,1.4208,174.979,-7.13007,5.26124,60.6536,-16.704,868.891
0.333,-0.192335,-0.00766602,0.330352,0.0664505,0.0622742,-0.10429,0.05778,-0.100347,-0.100647,0.327447,0.023022,-0.182809,1.98691e-08,-4.56731e-09,0.3,-0.3,-24.1134,-19.3891,1.42068,174.967,-7.10754,5.25919,60.651,-16.6943,868.89
0.334,-0.192335,-0.00766602,0.330352,0.0664505,0.0622742,-0.10429,0.05778,-0.100347,-0.100647,0.327447,0.023022,-0.182809,1.98691e-08,-4.56731e-09,0.3,-0.3,-24.1248,-19.3847,1.4203,174.956,-7.08493,5.25661,60.6497,-16.6834,868.888
0.335,-0.192335,-0.00766602,0.330352,0.0664505,0.0622742,-0.10429,0.05778,-0.100347,-0.100647,0.327447,0.023022,-0.182809,1.98691e-08,-4.56731e-09,0.3,-0.3,-24.1363,-19.3802,1.41966,174.945,-7.06224,5.25351,60.6495,-16.6713,868.887
0.336,-0.192335,-0.00766602,0.330352,0.0664505,0.0622742,-0.10429,0.05778,-0.100347,-0.100647,0.327447,0.023022,-0.182809,1.98691e-08,-4.56731e-09,0.3,-0.3,-24.1478,-19.3758,1.41875,174.934,-7.03949,5.24988,60.6506,-16.6581,868.885
0.337,-0.192335,-0.00766602,0.330352,0.0664505,0.0622742,-0.10429,0.05778,-0.100347,-0.100647,0.327447,0.023022,-0.182809,1.98691e-08,-4.56731e-09,0.3,-0.3,-24.1592,-19.3714,1.41758,174.923,-7.01669,5.24572,60.6528,-16.6436,868.882
0.338,-0.192335,-0.00766602,0.330352,0.0664505,0.0622742,-0.10429,0.05778,-0.100347,-0.100647,0.327447,0.023022,-0.182809,1.98691e-08,-4.56731e-09,0.3,-0.3,-24.1706,-19.367,1.41614,174.912,-6.99385,5.24103,60.6561,-16.628,868.88
0.339,-0.192335,-0.00766602,0.330352,0.0664505,0.0622742,-0.10429,0.05778,-0.100347,-0.100647,0.327447,0.023022,-0.182809,1.98691e-08,-4.56731e-09,0.3,-0.3,-24.1821,-19.3626,1.41444,174.902,-6.97097,5.23581,60.6607,-16.6111,868.876
0.34,-0.192335,-0.00766602,0.330352,0.0664505,0.0622742,-0.10429,0.05778,-0.100347,-0.100647,0.327447,0.023022,-0.182809,1.98691e-08,-4.56731e-09,0.3,-0.3,-24.1935,-19.3582,1.41248,174.891,-6.94806,5.23005,60.6664,-16.5931,868.873
0.341,-0.192335,-0.00766602,0.330352,0.0664505,0.0622742,-0.10429,0.05778,-0.100347,-0.100647,0.327447,0.023022,-0.182809,1.98691e-08,-4.56731e-09,0.3,-0.3,-24.2049,-19.3538,1.41026,174.881,-6.92513,5.22375,60.6732,-16.5739,868.869
0.342,-0.192335,-0.00766602,0.330352,0.0664505,0.0622742,-0.10429,0.05778,-0.100347,-0.100647,0.327447,0.023022,-0.182809,1.98691e-08,-4.56731e-09,0.3,-0.3,-24.2163,-19.3494,1.40778,174.87,-6.9022,5.21693,60.6812,-16.5535,868.865
0.343,-0.192335,-0.00766602,0.330352,0.0664505,0.0622742,-0.10429,0.05778,-0.100347,-0.100647,0.327447,0.023022,-0.182809,1.98691e-08,-4.56731e-09,0.3,-0.3,-24.2277,-19.345,1.40504,174.86,-6.87925,5.20957,60.6904,-16.5319,868.86
0.344,-0.192335,-0.00766602,0.330352,0.0664505,0.0622742,-0.10429,0.05778,-0.100347,-0.100647,0.327447,0.023022,-0.182809,1.98691e-08,-4.56731e-09,0.3,-0.3,-24.2392,-19.3405,1.40205,174.849,-6.85631,5.20167,60.7007,-16.5092,868.855
0.345,-0.192335,-0.00766602,0.330352,0.0664505,0.0622742,-0.10429,0.05778,-0.100347,-0.100647,0.327447,0.023022,-0.182809,1.98691e-08,-4.56731e-09,0.3,-0.3,-24.2506,-19.3361,1.39881,174.839,-6.83338,5.19324,60.7122,-16.4852,868.849
0.346,-0.192335,-0.00766602,0.330352,0.0664505,0.0622742,-0.10429,0.05778,-0.100347,-0.100647,0.327447,0.023022,-0.182809,1.98691e-08,-4.56731e-09,0.3,-0.3,-24.262,-19.3317,1.39532,174.828,-6.81045,5.18427,60.7248,-16.4601,868.844
0.347,-0.192335,-0.00766602,0.330352,0.0664505,0.0622742,-0.10429,0.05778,-0.100347,-0.100647,0.327447,0.023022,-0.182809,1.98691e-08,-4.56731e-09,0.3,-0.3,-24.2734,-19.3273,1.39157,174.818,-6.78755,5.17476,60.7385,-16.4338,868.838
0.348,-0.192335,-0.00766602,0.330352,0.0664505,0.0622742,-0.10429,0.05778,-0.100347,-0.100647,0.327447,0.023022,-0.182809,1.98691e-08,-4.56731e-09,0.3,-0.3,-24.2848,-19.3228,1.38758,174.807,-6.76467,5.16473,60.7534,-16.4063,868.831
0.349,-0.192335,-0.00766602,0.330352,0.0664505,0.0622742,-0.10429,0.05778,-0.100347,-0.100647,0.327447,0.023022,-0.182809,1.98691e-08,-4.56731e-09,0.3,-0.3,-24.2962,-19.3184,1.38334,174.797,-6.74181,5.15415,60.7695,-16.3776,868.824
0.35,-0.192335,-0.00766602,0.330352,0.0664505,0.0622742,-0.10429,0.05778,-0.100347,-0.100647,0.327447,0.023022,-0.182809,1.98691e-08,-4.56731e-09,0.3,-0.3,-24.3076,-19.3139,1.37885,174.786,-6.71899,5.14305,60.7867,-16.3477,868.817
0.351,-0.192335,-0.00766602,0.330352,0.0664505,0.0622742,-0.10429,0.05778,-0.100347,-0.100647,0.327447,0.023022,-0.182809,1.98691e-08,-4.56731e-09,0.3,-0.3,-24.3191,-19.3095,1.37411,174.775,-6.6962,5.13141,60.805,-16.3167,868.809
0.352,-0.192335,-0.00766602,0.330352,0.0664505,0.0622742,-0.10429,0.05778,-0.100347,-0.100647,0.327447,0.023022,-0.182809,1.98691e-08,-4.56731e-09,0.3,-0.3,-24.3305,-19.305,1.36913,174.765,-6.67344,5.11924,60.8245,-16.2845,868.801
0.353,-0.192335,-0.00766602,0.330352,0.0664505,0.0622742,-0.10429,0.05778,-0.100347,-0.100647,0.327447,0.023022,-0.182809,1.98691e-08,-4.56731e-09,0.3,-0.3,-24.3419,-19.3005,1.3639,174.754,-6.65073,5.10653,60.8451,-16.251,868.793
0.354,-0.192335,-0.00766602,0.330352,0.0664505,0.0622742,-0.10429,0.05778,-0.100347,-0.100647,0.327447,0.023022,-0.182809,1.98691e-08,-4.56731e-09,0.3,-0.3,-24.3533,-19.296,1.35842,174.743,-6.62806,5.09329,60.8669,-16.2165,868.784
0.355,-0.192335,-0.00766602,0.330352,0.0664505,0.0622742,-0.10429,0.05778,-0.100347,-0.100647,0.327447,0.023022,-0.182809,1.98691e-08,-4.56731e-09,0.3,-0.3,-24.3648,-19.2915,1.3527,174.732,-6.60542,5.07952,60.8898,-16.1807,868.775
0.356,-0.192335,-0.00766602,0.330352,0.0664505,0.0622742,-0.10429,0.05778,-0.100347,-0.100647,0.327447,0.023022,-0.182809,1.98691e-08,-4.56731e-09,0.3,-0.3,-24.3762,-19.287,1.34674,174.721,-6.58284,5.06521,60.9139,-16.1438,868.766
0.357,-0.192335,-0.00766602,0.330352,0.0664505,0.0622742,-0.10429,0.05778,-0.100347,-0.100647,0.327447,0.023022,-0.182809,1.98691e-08,-4.56731e-09,0.3,-0.3,-24.3877,-19.2825,1.34053,174.71,-6.56029,5.05037,60.9391,-16.1056,868.756
0.358,-0.192335,-0.00766602,0.330352,0.0664505,0.0622742,-0.10429,0.05778,-0.100347,-0.100647,0.327447,0.023022,-0.182809,1.98691e-08,-4.56731e-09,0.3,-0.3,-24.3991,-19.278,1.33408,174.699,-6.53778,5.035,60.9654,-16.0663,868.746
0.359,-0.192335,-0.00766602,0.330352,0.0664505,0.0622742,-0.10429,0.05778,-0.100347,-0.100647,0.327447,0.023022,-0.182809,1.98691e-08,-4.56731e-09,0.3,-0.3,-24.4106,-19.2734,1.32737,174.688,-6.51532,5.0191,60.9929,-16.0259,868.735
0.36,-0.192335,-0.00766602,0.330352,0.0664505,0.0622742,-0.10429,0.05778,-0.100347,-0.100647,0.327447,0.023022,-0.182809,1.98691e-08,-4.56731e-09,0.3,-0.3,-24.4222,-19.2688,1.32043,174.677,-6.49289,5.00267,61.0215,-15.9842,868.724
0.361,-0.192335,-0.00766602,0.330352,0.0664505,0.0622742,-0.10429,0.05778,-0.100347,-0.100647,0.327447,0.023022,-0.182809,1.98691e-08,-4.56731e-09,0.3,-0.3,-24.4339,-19.2643,1.31323,174.666,-6.4705,4.98569,61.0513,-15.9413,868.713
0.362,-0.192335,-0.00766602,0.330352,0.0664505,0.0622742,-0.10429,0.05778,-0.100347,-0.100647,0.327447,0.023022,-0.182809,1.98691e-08,-4.56731e-09,0.3,-0.3,-24.4456,-19.2597,1.30582,174.655,-6.44812,4.96818,61.0822,-15.8973,868.701
0.363,-0.192335,-0.00766602,0.330352,0.0664505,0.0622742,-0.10429,0.05778,-0.100347,-0.100647,0.327447,0.023022,-0.182809,1.98691e-08,-4.56731e-09,0.3,-0.3,-24.4568,-19.2553,1.29809,174.644,-6.42578,4.95014,61.1143,-15.8521,868.689
0.364,-0.192335,-0.00766602,0.330352,0.0664505,0.0622742,-0.10429,0.05778,-0.100347,-0.100647,0.327447,0.023022,-0.182809,1.98691e-08,-4.56731e-09,0.3,-0.3,-24.4682,-19.2513,1.29013,174.633,-6.40348,4.93156,61.1475,-15.8058,868.677
0.365,-0.192335,-0.00766602,0.330352,0.0664505,0.0622742,-0.10429,0.05778,-0.100347,-0.100647,0.327447,0.023022,-0.182809,1.98691e-08,-4.56731e-09,0.3,-0.3,-24.4795,-19.2472,1.2819,174.622,-6.38122,4.91245,61.1819,-15.7582,868.664
0.366,-0.192335,-0.00766602,0.330352,0.0664505,0.0622742,-0.10429,0.05778,-0.100347,-0.100647,0.327447,0.023022,-0.182809,1.98691e-08,-4.56731e-09,0.3,-0.3,-24.4908,-19.2431,1.27344,174.611,-6.35901,4.89282,61.2174,-15.7095,868.651
0.367,-0.192335,-0.00766602,0.330352,0.0664505,0.0622742,-0.10429,0.05778,-0.100347,-0.100647,0.327447,0.023022,-0.182809,1.98691e-08,-4.56731e-09,0.3,-0.3,-24.5021,-19.2389,1.26474,174.599,-6.33684,4.87265,61.2541,-15.6596,868.637
0.368,-0.192335,-0.00766602,0.330352,0.0664505,0.0622742,-0.10429,0.05778,-0.100347,-0.100647,0.327447,0.023022,-0.182809,1.98691e-08,-4.56731e-09,0.3,-0.3,-24.5133,-19.2347,1.25578,174.588,-6.31471,4.85196,61.2919,-15.6085,868.623
0.369,-0.192335,-0.00766602,0.330352,0.0664505,0.0622742,-0.10429,0.05778,-0.100347,-0.100647,0.327447,0.023022,-0.182809,1.98691e-08,-4.56731e-09,0.3,-0.3,-24.5246,-19.2306,1.24659,174.577,-6.29263,4.83073,61.3309,-15.5562,868.609
0.37,-0.192335,-0.00766602,0.330352,0.0664505,0.0622742,-0.10429,0.05778,-0.100347,-0.100647,0.327447,0.023022,-0.182809,1.98691e-08,-4.56731e-09,0.3,-0.3,-24.5358,-19.2264,1.23714,174.566,-6.27059,4.80897,61.3711,-15.5028,868.594
0.371,-0.192335,-0.00766602,0.330352,0.0664505,0.0622742,-0.10429,0.05778,-0.100347,-0.100647,0.327447,0.023022,-0.182809,1.98691e-08,-4.56731e-09,0.3,-0.3,-24.5471,-19.2222,1.22745,174.555,-6.24858,4.78668,61.4123,-15.4482,868.579
0.372,-0.192335,-0.00766602,0.330352,0.0664505,0.0622742,-0.10429,0.05778,-0.100347,-0.100647,0.327447,0.023022,-0.182809,1.98691e-08,-4.56731e-09,0.3,-0.3,-24.5583,-19.2179,1.21751,174.544,-6.22661,4.76386,61.4548,-15.3924,868.564
0.373,-0.192335,-0.00766602,0.330352,0.0664505,0.0622742,-0.10429,0.05778,-0.100347,-0.100647,0.327447,0.023022,-0.182809,1.98691e-08,-4.56731e-09,0.3,-0.3,-24.5695,-19.2137,1.20733,174.533,-6.20467,4.74051,61.4984,-15.3354,868.548
0.374,-0.192335,-0.00766602,0.330352,0.0664505,0.0622742,-0.10429,0.05778,-0.100347,-0.100647,0.327447,0.023022,-0.182809,1.98691e-08,-4.56731e-09,0.3,-0.3,-24.5807,-19.2095,1.19689,174.522,-6.18277,4.71662,61.5431,-15.2773,868.532
0.375,-0.192335,-0.00766602,0.330352,0.0664505,0.0622742,-0.10429,0.05778,-0.100347,-0.100647,0.327447,0.023022,-0.182809,1.98691e-08,-4.56731e-09,0.3,-0.3,-24.5918,-19.2053,1.1862,174.511,-6.16089,4.6922,61.589,-15.2179,868.516
0.376,-0.192335,-0.00766602,0.330352,0.0664505,0.0622742,-0.10429,0.05778,-0.100347,-0.100647,0.327447,0.023022,-0.182809,1.98691e-08,-4.56731e-09,0.3,-0.3,-24.603,-19.201,1.17527,174.5,-6.13905,4.66724,61.6361,-15.1574,868.499
0.377,-0.192335,-0.00766602,0.330352,0.0664505,0.0622742,-0.10429,0.05778,-0.100347,-0.100647,0.327447,0.023022,-0.182809,1.98691e-08,-4.56731e-09,0.3,-0.3,-24.6141,-19.1968,1.16408,174.488,-6.11723,4.64175,61.6843,-15.0957,868.481
0.378,-0.192335,-0.00766602,0.330352,0.0664505,0.0622742,-0.10429,0.05778,-0.100347,-0.100647,0.327447,0.023022,-0.182809,1.98691e-08,-4.56731e-09,0.3,-0.3,-24.6252,-19.1925,1.15265,174.477,-6.09544,4.61572,61.7336,-15.0329,868.464
0.379,-0.192335,-0.00766602,0.330352,0.0664505,0.0622742,-0.10429,0.05778,-0.100347,-0.100647,0.327447,0.023022,-0.182809,1.98691e-08,-4.56731e-09,0.3,-0.3,-24.6363,-19.1883,1.14096,174.466,-6.07368,4.58917,61.7841,-14.9688,868.445
0.38,-0.192335,-0.00766602,0.330352,0.0664505,0.0622742,-0.10429,0.05778,-0.100347,-0.100647,0.327447,0.023022,-0.182809,1.98691e-08,-4.56731e-09,0.3,-0.3,-24.6473,-19.184,1.12902,174.455,-6.05194,4.56207,61.8357,-14.9036,868.427
0.381,-0.192335,-0.00766602,0.330352,0.0664505,0.0622742,-0.10429,0.05778,-0.100347,-0.100647,0.327447,0.023022,-0.182809,1.98691e-08,-4.56731e-09,0.3,-0.3,-24.6584,-19.1797,1.11684,174.444,-6.03023,4.53444,61.8885,-14.8372,868.408
0.382,-0.192335,-0.00766602,0.330352,0.0664505,0.0622742,-0.10429,0.05778,-0.100347,-0.100647,0.327447,0.023022,-0.182809,1.98691e-08,-4.56731e-09,0.3,-0.3,-24.6694,-19.1755,1.1044,174.433,-6.00854,4.50628,61.9425,-14.7696,868.389
0.383,-0.192335,-0.00766602,0.330352,0.0664505,0.0622742,-0.10429,0.05778,-0.100347,-0.100647,0.327447,0.023022,-0.182809,1.98691e-08,-4.56731e-09,0.3,-0.3,-24.6804,-19.1712,1.09171,174.422,-5.98688,4.47758,61.9976,-14.7009,868.37
0.384,-0.192335,-0.00766602,0.330352,0.0664505,0.0622742,-0.10429,0.05778,-0.100347,-0.100647,0.327447,0.023022,-0.182809,1.98691e-08,-4.56731e-09,0.3,-0.3,-24.6914,-19.1669,1.07877,174.411,-5.96524,4.44834,62.0538,-14.6309,868.35
0.385,-0.192335,-0.00766602,0.330352,0.0664505,0.0622742,-0.10429,0.05778,-0.100347,-0.100647,0.327447,0.023022,-0.182809,1.98691e-08,-4.56731e-09,0.3,-0.3,-24.7024,-19.1626,1.06558,174.4,-5.94363,4.41857,62.1111,-14.5598,868.329
0.386,-0.192335,-0.00766602,0.330352,0.0664505,0.0622742,-0.10429,0.05778,-0.100347,-0.100647,0.327447,0.023022,-0.182809,1.98691e-08,-4.56731e-09,0.3,-0.3,-24.7133,-19.1582,1.05214,174.389,-5.92204,4.38826,62.1697,-14.4875,868.309
0.387,-0.192335,-0.00766602,0.330352,0.0664505,0.0622742,-0.10429,0.05778,-0.100347,-0.100647,0.327447,0.023022,-0.182809,1.98691e-08,-4.56731e-09,0.3,-0.3,-24.7243,-19.1539,1.03844,174.378,-5.90048,4.35742,62.2293,-14.414,868.287
0.388,-0.192335,-0.00766602,0.330352,0.0664505,0.0622742,-0.10429,0.05778,-0.100347,-0.100647,0.327447,0.023022,-0.182809,1.98691e-08,-4.56731e-09,0.3,-0.3,-24.7353,-19.1495,1.0245,174.367,-5.87895,4.32604,62.2902,-14.3394,868.266
0.389,-0.192335,-0.00766602,0.330352,0.0664505,0.0622742,-0.10429,0.05778,-0.100347,-0.100647,0.327447,0.023022,-0.182809,1.98691e-08,-4.56731e-09,0.3,-0.3,-24.7462,-19.1452,1.01031,174.356,-5.85745,4.29412,62.3521,-14.2635,868.244
0.39,-0.192335,-0.00766602,0.330352,0.0664505,0.0622742,-0.10429,0.05778,-0.100347,-0.100647,0.327447,0.023022,-0.182809,1.98691e-08,-4.56731e-09,0.3,-0.3,-24.7572,-19.1408,0.995866,174.345,-5.83597,4.26167,62.4152,-14.1865,868.222
0.391,-0.192335,-0.00766602,0.330352,0.0664505,0.0622742,-0.10429,0.05778,-0.100347,-0.100647,0.327447,0.023022,-0.182809,1.98691e-08,-4.56731e-09,0.3,-0.3,-24.7682,-19.1363,0.981174,174.333,-5.81452,4.22868,62.4795,-14.1083,868.199
0.392,-0.192335,-0.00766602,0.330352,0.0664505,0.0622742,-0.10429,0.05778,-0.100347,-0.100647,0.327447,0.023022,-0.182809,1.98691e-08,-4.56731e-09,0.3,-0.3,-24.7792,-19.1319,0.966231,174.322,-5.7931,4.19515,62.5448,-14.0289,868.176
0.393,-0.192335,-0.00766602,0.330352,0.0664505,0.0622742,-0.10429,0.05778,-0.100347,-0.100647,0.327447,0.023022,-0.182809,1.98691e-08,-4.56731e-09,0.3,-0.3,-24.7904,-19.1274,0.951038,174.311,-5.77171,4.16108,62.6114,-13.9483,868.153
0.394,-0.192335,-0.00766602,0.330352,0.0664505,0.0622742,-0.10429,0.05778,-0.100347,-0.100647,0.327447,0.023022,-0.182809,1.98691e-08,-4.56731e-09,0.3,-0.3,-24.8018,-19.1229,0.9356,174.3,-5.75034,4.12647,62.679,-13.8666,868.129
0.395,-0.192335,-0.00766602,0.330352,0.0664505,0.0622742,-0.10429,0.05778,-0.100347,-0.100647,0.327447,0.023022,-0.182809,1.98691e-08,-4.56731e-09,0.3,-0.3,-24.8132,-19.1184,0.919937,174.288,-5.72899,4.09131,62.7478,-13.7837,868.105
0.396,-0.192335,-0.00766602,0.330352,0.0664505,0.0622742,-0.10429,0.05778,-0.100347,-0.100647,0.327447,0.023022,-0.182809,1.98691e-08,-4.56731e-09,0.3,-0.3,-24.8238,-19.1142,0.903991,174.277,-5.70764,4.05562,62.8178,-13.6995,868.08
0.397,-0.192335,-0.00766602,0.330352,0.0664505,0.0622742,-0.10429,0.05778,-0.100347,-0.100647,0.327447,0.023022,-0.182809,1.98691e-08,-4.56731e-09,0.3,-0.3,-24.8351,-19.1098,0.887799,174.266,-5.68634,4.01938,62.8888,-13.6143,868.055
0.398,-0.192335,-0.00766602,0.330352,0.0664505,0.0622742,-0.10429,0.05778,-0.100347,-0.100647,0.327447,0.023022,-0.182809,1.98691e-08,-4.56731e-09,0.3,-0.3,-24.8461,-19.1055,0.871373,174.254,-5.66505,3.9826,62.961,-13.5278,868.03
0.399,-0.192335,-0.00766602,0.330352,0.0664505,0.0622742,-0.10429,0.05778,-0.100347,-0.100647,0.327447,0.023022,-0.182809,1.98691e-08,-4.56731e-09,0.3,-0.3,-24.8566,-19.1013,0.854642,174.243,-5.6438,3.94529,63.0344,-13.4401,868.004
0.4,-0.192335,-0.00766602,0.330352,0.0664505,0.0622742,-0.10429,0.05778,-0.100347,-0.100647,0.327447,0.023022,-0.182809,1.98691e-08,-4.56731e-09,0.3,-0.3,-24.8672,-19.097,0.83767,174.231,-5.62262,3.90745,63.1089,-13.3513,867.978
0.401,-0.192335,-0.00766602,0.330352,0.0664505,0.0622742,-0.10429,0.05778,-0.100347,-0.100647,0.327447,0.023022,-0.182809,1.98691e-08,-4.56731e-09,0.3,-0.3,-24.8648,-19.1012,0.840105,174.218,-5.60473,3.87801,63.1872,-13.2644,867.958
0.402,-0.192335,-0.00766602,0.330352,0.0664505,0.0622742,-0.10429,0.05778,-0.100347,-0.100647,0.327447,0.023022,-0.182809,1.98691e-08,-4.56731e-09,0.3,-0.3,-24.854,-19.0948,0.851728,174.205,-5.58799,3.85501,63.2669,-13.1788,867.946
0.403,-0.192335,-0.00766602,0.330352,0.0664505,0.0622742,-0.10429,0.05778,-0.100347,-0.100647,0.327447,0.023022,-0.182809,1.98691e-08,-4.56731e-09,0.3,-0.3,-24.8469,-19.0882,0.859926,174.193,-5.5729,3.83481,63.3485,-13.0941,867.937
0.404,-0.192335,-0.00766602,0.330352,0.0664505,0.0622742,-0.10429,0.05778,-0.100347,-0.100647,0.327447,0.023022,-0.182809,1.98691e-08,-4.56731e-09,0.3,-0.3,-24.8404,-19.0814,0.863879,174.182,-5.56082,3.81522,63.432,-13.0108,867.929
0.405,-0.192335,-0.00766602,0.330352,0.0664505,0.0622742,-0.10429,0.05778,-0.100347,-0.100647,0.327447,0.023022,-0.182809,1.98691e-08,-4.56731e-09,0.3,-0.3,-24.8338,-19.0747,0.8649,174.174,-5.55158,3.79525,63.5173,-12.929,867.922
0.406,-0.192335,-0.00766602,0.330352,0.0664505,0.0622742,-0.10429,0.05778,-0.100347,-0.100647,0.327447,0.023022,-0.182809,1.98691e-08,-4.56731e-09,0.3,-0.3,-24.8266,-19.0681,0.864325,174.168,-5.54495,3.77465,63.6046,-12.8487,867.913
0.407,-0.192335,-0.00766602,0.330352,0.0664505,0.0622742,-0.10429,0.05778,-0.100347,-0.100647,0.327447,0.023022,-0.182809,1.98691e-08,-4.56731e-09,0.3,-0.3,-24.819,-19.0601,0.863127,174.164,-5.54062,3.75347,63.6937,-12.7699,867.904
0.408,-0.192335,-0.00766602,0.330352,0.0664505,0.0622742,-0.10429,0.05778,-0.100347,-0.100647,0.327447,0.023022,-0.182809,1.98691e-08,-4.56731e-09,0.3,-0.3,-24.8119,-19.0482,0.861745,174.163,-5.53819,3.73183,63.7847,-12.6928,867.895
0.409,-0.192335,-0.00766602,0.330352,0.0664505,0.0622742,-0.10429,0.05778,-0.100347,-0.100647,0.327447,0.023022,-0.182809,1.98691e-08,-4.56731e-09,0.3,-0.3,-24.8041,-19.0367,0.860614,174.163,-5.53721,3.70984,63.8776,-12.6171,867.885
0.41,-0.192335,-0.00766602,0.330352,0.0664505,0.0622742,-0.10429,0.05778,-0.100347,-0.100647,0.327447,0.023022,-0.182809,1.98691e-08,-4.56731e-09,0.3,-0.3,-24.7947,-19.0285,0.860128,174.166,-5.53724,3.68754,63.9722,-12.5429,867.876
0.411,-0.192335,-0.00766602,0.330352,0.0664505,0.0622742,-0.10429,0.05778,-0.100347,-0.100647,0.327447,0.023022,-0.182809,1.98691e-08,-4.56731e-09,0.3,-0.3,-24.7831,-19.0248,0.860223,174.17,-5.53782,3.66497,64.0684,-12.47,867.865
0.412,-0.192335,-0.00766602,0.330352,0.0664505,0.0622742,-0.10429,0.05778,-0.100347,-0.100647,0.327447,0.023022,-0.182809,1.98691e-08,-4.56731e-09,0.3,-0.3,-24.7709,-19.0206,0.860778,174.176,-5.53851,3.64214,64.1664,-12.3985,867.855
0.413,-0.192335,-0.00766602,0.330352,0.0664505,0.0622742,-0.10429,0.05778,-0.100347,-0.100647,0.327447,0.023022,-0.182809,1.98691e-08,-4.56731e-09,0.3,-0.3,-24.7583,-19.0153,0.861692,174.184,-5.53888,3.61905,64.2659,-12.3281,867.845
0.414,-0.192335,-0.00766602,0.330352,0.0664505,0.0622742,-0.10429,0.05778,-0.100347,-0.100647,0.327447,0.023022,-0.182809,1.98691e-08,-4.56731e-09,0.3,-0.3,-24.7461,-19.0099,0.86295,174.192,-5.53855,3.59566,64.3669,-12.2589,867.834
0.415,-0.192335,-0.00766602,0.330352,0.0664505,0.0622742,-0.10429,0.05778,-0.100347,-0.100647,0.327447,0.023022,-0.182809,1.98691e-08,-4.56731e-09,0.3,-0.3,-24.7335,-19.0044,0.86428,174.201,-5.53723,3.57197,64.4694,-12.1908,867.823
0.416,-0.192335,-0.00766602,0.330352,0.0664505,0.0622742,-0.10429,0.05778,-0.100347,-0.100647,0.327447,0.023022,-0.182809,1.98691e-08,-4.56731e-09,0.3,-0.3,-24.7209,-18.9989,0.865735,174.211,-5.53465,3.54795,64.5733,-12.1237,867.812
0.417,-0.192335,-0.00766602,0.330352,0.0664505,0.0622742,-0.10429,0.05778,-0.100347,-0.100647,0.327447,0.023022,-0.182809,1.98691e-08,-4.56731e-09,0.3,-0.3,-24.7084,-18.9933,0.867208,174.221,-5.53063,3.5236,64.6787,-12.0575,867.8
0.418,-0.192335,-0.00766602,0.330352,0.0664505,0.0622742,-0.10429,0.05778,-0.100347,-0.100647,0.327447,0.023022,-0.182809,1.98691e-08,-4.56731e-09,0.3,-0.3,-24.696,-18.9878,0.868603,174.231,-5.52501,3.49889,64.7853,-11.9923,867.789
0.419,-0.192335,-0.00766602,0.330352,0.0664505,0.0622742,-0.10429,0.05778,-0.100347,-0.100647,0.327447,0.023022,-0.182809,1.98691e-08,-4.56731e-09,0.3,-0.3,-24.6839,-18.9823,0.869837,174.241,-5.5177,3.47381,64.8933,-11.9279,867.777
0.42,-0.192335,-0.00766602,0.330352,0.0664505,0.0622742,-0.10429,0.05778,-0.100347,-0.100647,0.327447,0.023022,-0.182809,1.98691e-08,-4.56731e-09,0.3,-0.3,-24.672,-18.9768,0.870843,174.252,-5.50867,3.44835,65.0025,-11.8644,867.765
0.421,-0.192335,-0.00766602,0.330352,0.0664505,0.0622742,-0.10429,0.05778,-0.100347,-0.100647,0.327447,0.023022,-0.182809,1.98691e-08,-4.56731e-09,0.3,-0.3,-24.6605,-18.9714,0.871566,174.262,-5.49792,3.42249,65.113,-11.8018,867.752
0.422,-0.192335,-0.00766602,0.330352,0.0664505,0.0622742,-0.10429,0.05778,-0.100347,-0.100647,0.327447,0.023022,-0.182809,1.98691e-08,-4.56731e-09,0.3,-0.3,-24.6494,-18.966,0.871966,174.273,-5.48549,3.39624,65.2248,-11.74,867.739
0.423,-0.192335,-0.00766602,0.330352,0.0664505,0.0622742,-0.10429,0.05778,-0.100347,-0.100647,0.327447,0.023022,-0.182809,1.98691e-08,-4.56731e-09,0.3,-0.3,-24.6386,-18.9608,0.872014,174.283,-5.47145,3.36959,65.3377,-11.6791,867.726
0.424,-0.192335,-0.00766602,0.330352,0.0664505,0.0622742,-0.10429,0.05778,-0.100347,-0.100647,0.327447,0.023022,-0.182809,1.98691e-08,-4.56731e-09,0.3,-0.3,-24.6283,-18.9557,0.871692,174.292,-5.45591,3.34253,65.4519,-11.619,867.713
0.425,-0.192335,-0.00766602,0.330352,0.0664505,0.0622742,-0.10429,0.05778,-0.100347,-0.100647,0.327447,0.023022,-0.182809,1.98691e-08,-4.56731e-09,0.3,-0.3,-24.6184,-18.9507,0.870991,174.302,-5.43899,3.31506,65.5674,-11.5598,867.699
0.426,-0.192335,-0.00766602,0.330352,0.0664505,0.0622742,-0.10429,0.05778,-0.100347,-0.100647,0.327447,0.023022,-0.182809,1.98691e-08,-4.56731e-09,0.3,-0.3,-24.6089,-18.9458,0.86991,174.311,-5.42083,3.28717,65.684,-11.5015,867.686
0.427,-0.192335,-0.00766602,0.330352,0.0664505,0.0622742,-0.10429,0.05778,-0.100347,-0.100647,0.327447,0.023022,-0.182809,1.98691e-08,-4.56731e-09,0.3,-0.3,-24.5998,-18.941,0.868451,174.32,-5.40158,3.25887,65.8019,-11.4442,867.671
0.428,-0.192335,-0.00766602,0.330352,0.0664505,0.0622742,-0.10429,0.05778,-0.100347,-0.100647,0.327447,0.023022,-0.182809,1.98691e-08,-4.56731e-09,0.3,-0.3,-24.5911,-18.9364,0.866624,174.329,-5.38138,3.23015,65.921,-11.3877,867.657
0.429,-0.192335,-0.00766602,0.330352,0.0664505,0.0622742,-0.10429,0.05778,-0.100347,-0.100647,0.327447,0.023022,-0.182809,1.98691e-08,-4.56731e-09,0.3,-0.3,-24.5827,-18.9319,0.864439,174.337,-5.36039,3.20099,66.0413,-11.3322,867.642
