TheMarex/ba-thesis/notebook/stabilized_logs/2014-10-13-17:46:55_trajectory.csv
"Timestamp","Trajectory_LeftLeg_Joint6","Trajectory_LeftLeg_Joint5","Trajectory_LeftLeg_Joint4","Trajectory_LeftLeg_Joint3","Trajectory_LeftLeg_Joint2","Trajectory_LeftLeg_Joint1","Trajectory_RightLeg_Joint1","Trajectory_RightLeg_Joint2","Trajectory_RightLeg_Joint3","Trajectory_RightLeg_Joint4","Trajectory_RightLeg_Joint5","Trajectory_RightLeg_Joint6","Trajectory_Torso_Joint1","Trajectory_Torso_Joint2","Trajectory_LeftArm_Joint3","Trajectory_RightArm_Joint3","Actual_LeftFootX","Actual_LeftFootY","Actual_LeftFootZ","Actual_RightFootX","Actual_RightFootY","Actual_RightFootZ","Target_LeftFootX","Target_LeftFootY","Target_LeftFootZ","Target_RightFootX","Target_RightFootY","Target_RightFootZ","Target_CoMX","Target_CoMY","Target_CoMZ","Actual_CoMX","Actual_CoMY","Actual_CoMZ"
0.001,-0.192335,-0.00766602,0.330352,0.0664505,0.0622742,-0.10429,0.05778,-0.100347,-0.100647,0.327447,0.023022,-0.182809,1.98691e-08,-4.56731e-09,0.3,-0.3,0,0,0,172.018,-2.98923,-0.0121975,-13.8699,-0.680533,0,185.888,-2.3087,0.000486374,0.000121615,1.28272e-05,0.86,94.498,-21.111,892.433
0.002,-0.192335,-0.00766602,0.330352,0.0664505,0.0622742,-0.10429,0.05778,-0.100347,-0.100647,0.327447,0.023022,-0.182809,1.98691e-08,-4.56731e-09,0.3,-0.3,0,0,-0.00932412,172.01,-2.98604,0.0283928,-13.8699,-0.680533,0,185.888,-2.3087,0.000486374,0.000121615,1.28272e-05,0.86,94.4961,-21.121,892.442
0.003,-0.192335,-0.00766602,0.330352,0.0664505,0.0622742,-0.10429,0.05778,-0.100347,-0.100647,0.327447,0.023022,-0.182809,1.98691e-08,-4.56731e-09,0.3,-0.3,0.00617119,-0.00965472,-0.00201103,172.01,-2.98597,0.0892944,-13.8699,-0.680533,0,185.888,-2.3087,0.000486374,0.000121615,1.28272e-05,0.86,94.4914,-21.1307,892.475
0.004,-0.192335,-0.00766602,0.330352,0.0664505,0.0622742,-0.10429,0.05778,-0.100347,-0.100647,0.327447,0.023022,-0.182809,1.98691e-08,-4.56731e-09,0.3,-0.3,0.029633,-0.0311485,0.0384705,172.007,-2.98491,0.14394,-13.8699,-0.680533,0,185.888,-2.3087,0.000486374,0.000121615,1.28272e-05,0.86,94.4854,-21.1416,892.513
0.005,-0.192335,-0.00766602,0.330352,0.0664505,0.0622742,-0.10429,0.05778,-0.100347,-0.100647,0.327447,0.023022,-0.182809,1.98691e-08,-4.56731e-09,0.3,-0.3,0.0542114,-0.0622674,0.0825318,172.006,-2.98427,0.19935,-13.8699,-0.680533,0,185.888,-2.3087,0.000486374,0.000121615,1.28272e-05,0.86,94.4779,-21.1528,892.554
0.006,-0.192335,-0.00766602,0.330352,0.0664505,0.0622742,-0.10429,0.05778,-0.100347,-0.100647,0.327447,0.023022,-0.182809,1.98691e-08,-4.56731e-09,0.3,-0.3,0.078991,-0.100298,0.131565,172.006,-2.9846,0.256847,-13.8699,-0.680533,0,185.888,-2.3087,0.000486374,0.000121615,1.28272e-05,0.86,94.469,-21.1641,892.597
0.007,-0.192335,-0.00766602,0.330352,0.0664505,0.0622742,-0.10429,0.05778,-0.100347,-0.100647,0.327447,0.023022,-0.182809,1.98691e-08,-4.56731e-09,0.3,-0.3,0.103146,-0.142503,0.185898,172.009,-2.9857,0.316893,-13.8699,-0.680533,0,185.888,-2.3087,0.000486374,0.000121615,1.28272e-05,0.86,94.4584,-21.1755,892.644
0.008,-0.192335,-0.00766602,0.330352,0.0664505,0.0622742,-0.10429,0.05778,-0.100347,-0.100647,0.327447,0.023022,-0.182809,1.98691e-08,-4.56731e-09,0.3,-0.3,0.125613,-0.186159,0.245364,172.013,-2.98768,0.375376,-13.8699,-0.680533,0,185.888,-2.3087,0.000486374,0.000121615,1.28272e-05,0.86,94.4466,-21.1866,892.689
0.009,-0.192335,-0.00766602,0.330352,0.0664505,0.0622742,-0.10429,0.05778,-0.100347,-0.100647,0.327447,0.023022,-0.182809,1.98691e-08,-4.56731e-09,0.3,-0.3,0.142657,-0.228859,0.303743,172.02,-2.99284,0.424988,-13.8699,-0.680533,0,185.888,-2.3087,0.000486374,0.000121615,1.28272e-05,0.86,94.4341,-21.197,892.726
0.01,-0.192335,-0.00766602,0.330352,0.0664505,0.0622742,-0.10429,0.05778,-0.100347,-0.100647,0.327447,0.023022,-0.182809,1.98691e-08,-4.56731e-09,0.3,-0.3,0.151008,-0.268916,0.353586,172.032,-3.00994,0.467844,-13.8699,-0.680533,0,185.888,-2.3087,0.000486374,0.000121615,1.28272e-05,0.86,94.4216,-21.2075,892.753
0.011,-0.192335,-0.00766602,0.330352,0.0664505,0.0622742,-0.10429,0.05778,-0.100347,-0.100647,0.327447,0.023022,-0.182809,1.98691e-08,-4.56731e-09,0.3,-0.3,0.151018,-0.306862,0.395436,172.049,-3.03603,0.50432,-13.8699,-0.680533,0,185.888,-2.3087,0.000486374,0.000121615,1.28272e-05,0.86,94.4088,-21.2181,892.77
0.012,-0.192335,-0.00766602,0.330352,0.0664505,0.0622742,-0.10429,0.05778,-0.100347,-0.100647,0.327447,0.023022,-0.182809,1.98691e-08,-4.56731e-09,0.3,-0.3,0.14398,-0.343731,0.429848,172.069,-3.06699,0.534683,-13.8699,-0.680533,0,185.888,-2.3087,0.000486374,0.000121615,1.28272e-05,0.86,94.396,-21.2285,892.777
0.013,-0.192335,-0.00766602,0.330352,0.0664505,0.0622742,-0.10429,0.05778,-0.100347,-0.100647,0.327447,0.023022,-0.182809,1.98691e-08,-4.56731e-09,0.3,-0.3,0.131264,-0.380657,0.457266,172.09,-3.09588,0.559612,-13.8699,-0.680533,0,185.888,-2.3087,0.000486374,0.000121615,1.28272e-05,0.86,94.3827,-21.2382,892.775
0.014,-0.192335,-0.00766602,0.330352,0.0664505,0.0622742,-0.10429,0.05778,-0.100347,-0.100647,0.327447,0.023022,-0.182809,1.98691e-08,-4.56731e-09,0.3,-0.3,0.114354,-0.418188,0.478562,172.109,-3.11769,0.579456,-13.8699,-0.680533,0,185.888,-2.3087,0.000486374,0.000121615,1.28272e-05,0.86,94.3688,-21.2468,892.765
0.015,-0.192335,-0.00766602,0.330352,0.0664505,0.0622742,-0.10429,0.05778,-0.100347,-0.100647,0.327447,0.023022,-0.182809,1.98691e-08,-4.56731e-09,0.3,-0.3,0.0940523,-0.456175,0.494357,172.126,-3.12906,0.594538,-13.8699,-0.680533,0,185.888,-2.3087,0.000486374,0.000121615,1.28272e-05,0.86,94.3541,-21.2539,892.746
0.016,-0.192335,-0.00766602,0.330352,0.0664505,0.0622742,-0.10429,0.05778,-0.100347,-0.100647,0.327447,0.023022,-0.182809,1.98691e-08,-4.56731e-09,0.3,-0.3,0.0706433,-0.49396,0.505095,172.141,-3.13649,0.606052,-13.8699,-0.680533,0,185.888,-2.3087,0.000486374,0.000121615,1.28272e-05,0.86,94.3387,-21.2602,892.72
0.017,-0.192335,-0.00766602,0.330352,0.0664505,0.0622742,-0.10429,0.05778,-0.100347,-0.100647,0.327447,0.023022,-0.182809,1.98691e-08,-4.56731e-09,0.3,-0.3,0.0443743,-0.531182,0.512078,172.157,-3.14397,0.614891,-13.8699,-0.680533,0,185.888,-2.3087,0.000486374,0.000121615,1.28272e-05,0.86,94.3226,-21.2663,892.689
0.018,-0.192335,-0.00766602,0.330352,0.0664505,0.0622742,-0.10429,0.05778,-0.100347,-0.100647,0.327447,0.023022,-0.182809,1.98691e-08,-4.56731e-09,0.3,-0.3,0.015866,-0.56809,0.516442,172.174,-3.15172,0.621466,-13.8699,-0.680533,0,185.888,-2.3087,0.000486374,0.000121615,1.28272e-05,0.86,94.3058,-21.2725,892.652
0.019,-0.192335,-0.00766602,0.330352,0.0664505,0.0622742,-0.10429,0.05778,-0.100347,-0.100647,0.327447,0.023022,-0.182809,1.98691e-08,-4.56731e-09,0.3,-0.3,-0.014486,-0.605008,0.518868,172.191,-3.15974,0.626091,-13.8699,-0.680533,0,185.888,-2.3087,0.000486374,0.000121615,1.28272e-05,0.86,94.2884,-21.2787,892.61
0.02,-0.192335,-0.00766602,0.330352,0.0664505,0.0622742,-0.10429,0.05778,-0.100347,-0.100647,0.327447,0.023022,-0.182809,1.98691e-08,-4.56731e-09,0.3,-0.3,-0.0464409,-0.642221,0.519724,172.209,-3.16807,0.629026,-13.8699,-0.680533,0,185.888,-2.3087,0.000486374,0.000121615,1.28272e-05,0.86,94.2702,-21.2851,892.564
0.021,-0.192335,-0.00766602,0.330352,0.0664505,0.0622742,-0.10429,0.05778,-0.100347,-0.100647,0.327447,0.023022,-0.182809,1.98691e-08,-4.56731e-09,0.3,-0.3,-0.0798353,-0.679958,0.519222,172.227,-3.17668,0.630482,-13.8699,-0.680533,0,185.888,-2.3087,0.000486374,0.000121615,1.28272e-05,0.86,94.2513,-21.2916,892.513
0.022,-0.192335,-0.00766602,0.330352,0.0664505,0.0622742,-0.10429,0.05778,-0.100347,-0.100647,0.327447,0.023022,-0.182809,1.98691e-08,-4.56731e-09,0.3,-0.3,-0.114495,-0.718274,0.517552,172.246,-3.18552,0.630627,-13.8699,-0.680533,0,185.888,-2.3087,0.000486374,0.000121615,1.28272e-05,0.86,94.2317,-21.2983,892.459
0.023,-0.192335,-0.00766602,0.330352,0.0664505,0.0622742,-0.10429,0.05778,-0.100347,-0.100647,0.327447,0.023022,-0.182809,1.98691e-08,-4.56731e-09,0.3,-0.3,-0.150596,-0.757515,0.514845,172.265,-3.19465,0.629612,-13.8699,-0.680533,0,185.888,-2.3087,0.000486374,0.000121615,1.28272e-05,0.86,94.2112,-21.3053,892.401
0.024,-0.192335,-0.00766602,0.330352,0.0664505,0.0622742,-0.10429,0.05778,-0.100347,-0.100647,0.327447,0.023022,-0.182809,1.98691e-08,-4.56731e-09,0.3,-0.3,-0.188042,-0.797651,0.51121,172.285,-3.20404,0.627554,-13.8699,-0.680533,0,185.888,-2.3087,0.000486374,0.000121615,1.28272e-05,0.86,94.1899,-21.3126,892.339
0.025,-0.192335,-0.00766602,0.330352,0.0664505,0.0622742,-0.10429,0.05778,-0.100347,-0.100647,0.327447,0.023022,-0.182809,1.98691e-08,-4.56731e-09,0.3,-0.3,-0.22686,-0.838735,0.506735,172.305,-3.2137,0.624554,-13.8699,-0.680533,0,185.888,-2.3087,0.000486374,0.000121615,1.28272e-05,0.86,94.1678,-21.3203,892.273
0.026,-0.192335,-0.00766602,0.330352,0.0664505,0.0622742,-0.10429,0.05778,-0.100347,-0.100647,0.327447,0.023022,-0.182809,1.98691e-08,-4.56731e-09,0.3,-0.3,-0.267094,-0.880809,0.50149,172.326,-3.22361,0.620701,-13.8699,-0.680533,0,185.888,-2.3087,0.000486374,0.000121615,1.28272e-05,0.86,94.1449,-21.3282,892.204
0.027,-0.192335,-0.00766602,0.330352,0.0664505,0.0622742,-0.10429,0.05778,-0.100347,-0.100647,0.327447,0.023022,-0.182809,1.98691e-08,-4.56731e-09,0.3,-0.3,-0.308792,-0.923902,0.495535,172.348,-3.2338,0.61606,-13.8699,-0.680533,0,185.888,-2.3087,0.000486374,0.000121615,1.28272e-05,0.86,94.1211,-21.3366,892.132
0.028,-0.192335,-0.00766602,0.330352,0.0664505,0.0622742,-0.10429,0.05778,-0.100347,-0.100647,0.327447,0.023022,-0.182809,1.98691e-08,-4.56731e-09,0.3,-0.3,-0.35201,-0.968047,0.488922,172.37,-3.24426,0.610704,-13.8699,-0.680533,0,185.888,-2.3087,0.000486374,0.000121615,1.28272e-05,0.86,94.0964,-21.3453,892.056
0.029,-0.192335,-0.00766602,0.330352,0.0664505,0.0622742,-0.10429,0.05778,-0.100347,-0.100647,0.327447,0.023022,-0.182809,1.98691e-08,-4.56731e-09,0.3,-0.3,-0.3968,-1.01328,0.481695,172.393,-3.255,0.604679,-13.8699,-0.680533,0,185.888,-2.3087,0.000486374,0.000121615,1.28272e-05,0.86,94.0708,-21.3544,891.977
0.03,-0.192335,-0.00766602,0.330352,0.0664505,0.0622742,-0.10429,0.05778,-0.100347,-0.100647,0.327447,0.023022,-0.182809,1.98691e-08,-4.56731e-09,0.3,-0.3,-0.44321,-1.05963,0.473894,172.417,-3.26604,0.59803,-13.8699,-0.680533,0,185.888,-2.3087,0.000486374,0.000121615,1.28272e-05,0.86,94.0444,-21.364,891.895
0.031,-0.192335,-0.00766602,0.330352,0.0664505,0.0622742,-0.10429,0.05778,-0.100347,-0.100647,0.327447,0.023022,-0.182809,1.98691e-08,-4.56731e-09,0.3,-0.3,-0.491283,-1.10714,0.465552,172.441,-3.27737,0.590797,-13.8699,-0.680533,0,185.888,-2.3087,0.000486374,0.000121615,1.28272e-05,0.86,94.017,-21.3741,891.809
0.032,-0.192335,-0.00766602,0.330352,0.0664505,0.0622742,-0.10429,0.05778,-0.100347,-0.100647,0.327447,0.023022,-0.182809,1.98691e-08,-4.56731e-09,0.3,-0.3,-0.541053,-1.15588,0.456701,172.466,-3.28901,0.583019,-13.8699,-0.680533,0,185.888,-2.3087,0.000486374,0.000121615,1.28272e-05,0.86,93.9887,-21.3846,891.721
0.033,-0.192335,-0.00766602,0.330352,0.0664505,0.0622742,-0.10429,0.05778,-0.100347,-0.100647,0.327447,0.023022,-0.182809,1.98691e-08,-4.56731e-09,0.3,-0.3,-0.592548,-1.20589,0.447368,172.491,-3.30096,0.57472,-13.8699,-0.680533,0,185.888,-2.3087,0.000486374,0.000121615,1.28272e-05,0.86,93.9594,-21.3957,891.63
0.034,-0.192335,-0.00766602,0.330352,0.0664505,0.0622742,-0.10429,0.05778,-0.100347,-0.100647,0.327447,0.023022,-0.182809,1.98691e-08,-4.56731e-09,0.3,-0.3,-0.645786,-1.25723,0.437574,172.517,-3.31323,0.565929,-13.8699,-0.680533,0,185.888,-2.3087,0.000486374,0.000121615,1.28272e-05,0.86,93.9293,-21.4073,891.536
0.035,-0.192335,-0.00766602,0.330352,0.0664505,0.0622742,-0.10429,0.05778,-0.100347,-0.100647,0.327447,0.023022,-0.182809,1.98691e-08,-4.56731e-09,0.3,-0.3,-0.700778,-1.30998,0.427341,172.544,-3.32583,0.556665,-13.8699,-0.680533,0,185.888,-2.3087,0.000486374,0.000121615,1.28272e-05,0.86,93.8982,-21.4194,891.438
0.036,-0.192335,-0.00766602,0.330352,0.0664505,0.0622742,-0.10429,0.05778,-0.100347,-0.100647,0.327447,0.023022,-0.182809,1.98691e-08,-4.56731e-09,0.3,-0.3,-0.757527,-1.36418,0.416684,172.572,-3.33875,0.546951,-13.8699,-0.680533,0,185.888,-2.3087,0.000486374,0.000121615,1.28272e-05,0.86,93.8661,-21.432,891.339
0.037,-0.192335,-0.00766602,0.330352,0.0664505,0.0622742,-0.10429,0.05778,-0.100347,-0.100647,0.327447,0.023022,-0.182809,1.98691e-08,-4.56731e-09,0.3,-0.3,-0.81603,-1.41991,0.405618,172.6,-3.352,0.536802,-13.8699,-0.680533,0,185.888,-2.3087,0.000486374,0.000121615,1.28272e-05,0.86,93.833,-21.4453,891.236
0.038,-0.192335,-0.00766602,0.330352,0.0664505,0.0622742,-0.10429,0.05778,-0.100347,-0.100647,0.327447,0.023022,-0.182809,1.98691e-08,-4.56731e-09,0.3,-0.3,-0.87628,-1.47722,0.394152,172.629,-3.36558,0.526234,-13.8699,-0.680533,0,185.888,-2.3087,0.000486374,0.000121615,1.28272e-05,0.86,93.7991,-21.4591,891.13
0.039,-0.192335,-0.00766602,0.330352,0.0664505,0.0622742,-0.10429,0.05778,-0.100347,-0.100647,0.327447,0.023022,-0.182809,1.98691e-08,-4.56731e-09,0.3,-0.3,-0.938261,-1.53616,0.382296,172.659,-3.37949,0.515261,-13.8699,-0.680533,0,185.888,-2.3087,0.000486374,0.000121615,1.28272e-05,0.86,93.7641,-21.4735,891.022
0.04,-0.192335,-0.00766602,0.330352,0.0664505,0.0622742,-0.10429,0.05778,-0.100347,-0.100647,0.327447,0.023022,-0.182809,1.98691e-08,-4.56731e-09,0.3,-0.3,-1.00196,-1.59678,0.370056,172.689,-3.39372,0.503891,-13.8699,-0.680533,0,185.888,-2.3087,0.000486374,0.000121615,1.28272e-05,0.86,93.7281,-21.4886,890.911
0.041,-0.192335,-0.00766602,0.330352,0.0664505,0.0622742,-0.10429,0.05778,-0.100347,-0.100647,0.327447,0.023022,-0.182809,1.98691e-08,-4.56731e-09,0.3,-0.3,-1.06735,-1.65912,0.357437,172.72,-3.40829,0.49214,-13.8699,-0.680533,0,185.888,-2.3087,0.000486374,0.000121615,1.28272e-05,0.86,93.6912,-21.5043,890.797
0.042,-0.192335,-0.00766602,0.330352,0.0664505,0.0622742,-0.10429,0.05778,-0.100347,-0.100647,0.327447,0.023022,-0.182809,1.98691e-08,-4.56731e-09,0.3,-0.3,-1.09124,-1.68194,0.352811,172.732,-3.41359,0.487823,-13.8699,-0.680533,0,185.888,-2.3087,0.000486374,0.000121615,1.28272e-05,0.86,93.6777,-21.5101,890.756
0.043,-0.192335,-0.00766602,0.330352,0.0664505,0.0622742,-0.10429,0.05778,-0.100347,-0.100647,0.327447,0.023022,-0.182809,1.98691e-08,-4.56731e-09,0.3,-0.3,-1.1589,-1.74666,0.339683,172.764,-3.4286,0.475567,-13.8699,-0.680533,0,185.888,-2.3087,0.000486374,0.000121615,1.28272e-05,0.86,93.6395,-21.5266,890.638
0.044,-0.192335,-0.00766602,0.330352,0.0664505,0.0622742,-0.10429,0.05778,-0.100347,-0.100647,0.327447,0.023022,-0.182809,1.98691e-08,-4.56731e-09,0.3,-0.3,-1.22821,-1.81315,0.326181,172.797,-3.44391,0.462942,-13.8699,-0.680533,0,185.888,-2.3087,0.000486374,0.000121615,1.28272e-05,0.86,93.6003,-21.5438,890.518
0.045,-0.192335,-0.00766602,0.330352,0.0664505,0.0622742,-0.10429,0.05778,-0.100347,-0.100647,0.327447,0.023022,-0.182809,1.98691e-08,-4.56731e-09,0.3,-0.3,-1.29916,-1.88142,0.312305,172.83,-3.45947,0.449953,-13.8699,-0.680533,0,185.888,-2.3087,0.000486374,0.000121615,1.28272e-05,0.86,93.5601,-21.5617,890.396
0.046,-0.192335,-0.00766602,0.330352,0.0664505,0.0622742,-0.10429,0.05778,-0.100347,-0.100647,0.327447,0.023022,-0.182809,1.98691e-08,-4.56731e-09,0.3,-0.3,-1.37175,-1.95143,0.298053,172.864,-3.47525,0.436596,-13.8699,-0.680533,0,185.888,-2.3087,0.000486374,0.000121615,1.28272e-05,0.86,93.5188,-21.5802,890.271
0.047,-0.192335,-0.00766602,0.330352,0.0664505,0.0622742,-0.10429,0.05778,-0.100347,-0.100647,0.327447,0.023022,-0.182809,1.98691e-08,-4.56731e-09,0.3,-0.3,-1.44602,-2.0231,0.283426,172.898,-3.49127,0.422884,-13.8699,-0.680533,0,185.888,-2.3087,0.000486374,0.000121615,1.28272e-05,0.86,93.4766,-21.5994,890.143
0.048,-0.192335,-0.00766602,0.330352,0.0664505,0.0622742,-0.10429,0.05778,-0.100347,-0.100647,0.327447,0.023022,-0.182809,1.98691e-08,-4.56731e-09,0.3,-0.3,-1.52196,-2.09636,0.268426,172.934,-3.5076,0.408834,-13.8699,-0.680533,0,185.888,-2.3087,0.000486374,0.000121615,1.28272e-05,0.86,93.4333,-21.6193,890.013
0.049,-0.192335,-0.00766602,0.330352,0.0664505,0.0622742,-0.10429,0.05778,-0.100347,-0.100647,0.327447,0.023022,-0.182809,1.98691e-08,-4.56731e-09,0.3,-0.3,-1.58845,-2.15374,0.261212,172.968,-3.52353,0.400618,-13.8699,-0.680533,0,185.888,-2.3087,0.000486374,0.000121615,1.28272e-05,0.86,93.3911,-21.6368,889.886
0.05,-0.192335,-0.00766602,0.330352,0.0664505,0.0622742,-0.10429,0.05778,-0.100347,-0.100647,0.327447,0.023022,-0.182809,1.98691e-08,-4.56731e-09,0.3,-0.3,-1.62678,-2.16134,0.276871,173,-3.53649,0.410929,-13.8699,-0.680533,0,185.888,-2.3087,0.000486374,0.000121615,1.28272e-05,0.86,93.3537,-21.6469,889.776
0.051,-0.192335,-0.00766602,0.330352,0.0664505,0.0622742,-0.10429,0.05778,-0.100347,-0.100647,0.327447,0.023022,-0.182809,1.98691e-08,-4.56731e-09,0.3,-0.3,-1.65616,-2.14455,0.301939,173.034,-3.54318,0.433577,-13.8699,-0.680533,0,185.888,-2.3087,0.000486374,0.000121615,1.28272e-05,0.86,93.3186,-21.6544,889.675
0.052,-0.192335,-0.00766602,0.330352,0.0664505,0.0622742,-0.10429,0.05778,-0.100347,-0.100647,0.327447,0.023022,-0.182809,1.98691e-08,-4.56731e-09,0.3,-0.3,-1.68607,-2.12931,0.324094,173.075,-3.54266,0.46072,-13.8699,-0.680533,0,185.888,-2.3087,0.000486374,0.000121615,1.28272e-05,0.86,93.2857,-21.6594,889.578
0.053,-0.192335,-0.00766602,0.330352,0.0664505,0.0622742,-0.10429,0.05778,-0.100347,-0.100647,0.327447,0.023022,-0.182809,1.98691e-08,-4.56731e-09,0.3,-0.3,-1.71579,-2.11471,0.343608,173.122,-3.5343,0.489098,-13.8699,-0.680533,0,185.888,-2.3087,0.000486374,0.000121615,1.28272e-05,0.86,93.2552,-21.6619,889.48
0.054,-0.192335,-0.00766602,0.330352,0.0664505,0.0622742,-0.10429,0.05778,-0.100347,-0.100647,0.327447,0.023022,-0.182809,1.98691e-08,-4.56731e-09,0.3,-0.3,-1.7458,-2.1024,0.362249,173.178,-3.51785,0.517633,-13.8699,-0.680533,0,185.888,-2.3087,0.000486374,0.000121615,1.28272e-05,0.86,93.2272,-21.6618,889.379
0.055,-0.192335,-0.00766602,0.330352,0.0664505,0.0622742,-0.10429,0.05778,-0.100347,-0.100647,0.327447,0.023022,-0.182809,1.98691e-08,-4.56731e-09,0.3,-0.3,-1.77661,-2.09494,0.381106,173.242,-3.49331,0.546219,-13.8699,-0.680533,0,185.888,-2.3087,0.000486374,0.000121615,1.28272e-05,0.86,93.2016,-21.6593,889.275
0.056,-0.192335,-0.00766602,0.330352,0.0664505,0.0622742,-0.10429,0.05778,-0.100347,-0.100647,0.327447,0.023022,-0.182809,1.98691e-08,-4.56731e-09,0.3,-0.3,-1.80617,-2.08592,0.401509,173.315,-3.46091,0.574972,-13.8699,-0.680533,0,185.888,-2.3087,0.000486374,0.000121615,1.28272e-05,0.86,93.1785,-21.6543,889.169
0.057,-0.192335,-0.00766602,0.330352,0.0664505,0.0622742,-0.10429,0.05778,-0.100347,-0.100647,0.327447,0.023022,-0.182809,1.98691e-08,-4.56731e-09,0.3,-0.3,-1.83323,-2.07178,0.424008,173.396,-3.42101,0.604013,-13.8699,-0.680533,0,185.888,-2.3087,0.000486374,0.000121615,1.28272e-05,0.86,93.1578,-21.6469,889.061
0.058,-0.192335,-0.00766602,0.330352,0.0664505,0.0622742,-0.10429,0.05778,-0.100347,-0.100647,0.327447,0.023022,-0.182809,1.98691e-08,-4.56731e-09,0.3,-0.3,-1.85922,-2.05645,0.447929,173.485,-3.37405,0.633411,-13.8699,-0.680533,0,185.888,-2.3087,0.000486374,0.000121615,1.28272e-05,0.86,93.1394,-21.6372,888.951
0.059,-0.192335,-0.00766602,0.330352,0.0664505,0.0622742,-0.10429,0.05778,-0.100347,-0.100647,0.327447,0.023022,-0.182809,1.98691e-08,-4.56731e-09,0.3,-0.3,-1.88483,-2.04188,0.472949,173.581,-3.32057,0.663158,-13.8699,-0.680533,0,185.888,-2.3087,0.000486374,0.000121615,1.28272e-05,0.86,93.1234,-21.6254,888.839
0.06,-0.192335,-0.00766602,0.330352,0.0664505,0.0622742,-0.10429,0.05778,-0.100347,-0.100647,0.327447,0.023022,-0.182809,1.98691e-08,-4.56731e-09,0.3,-0.3,-1.91002,-2.02797,0.49882,173.686,-3.26112,0.693218,-13.8699,-0.680533,0,185.888,-2.3087,0.000486374,0.000121615,1.28272e-05,0.86,93.1096,-21.6116,888.724
0.061,-0.192335,-0.00766602,0.330352,0.0664505,0.0622742,-0.10429,0.05778,-0.100347,-0.100647,0.327447,0.023022,-0.182809,1.98691e-08,-4.56731e-09,0.3,-0.3,-1.93478,-2.01462,0.525302,173.797,-3.19625,0.723528,-13.8699,-0.680533,0,185.888,-2.3087,0.000486374,0.000121615,1.28272e-05,0.86,93.0979,-21.5958,888.608
0.062,-0.192335,-0.00766602,0.330352,0.0664505,0.0622742,-0.10429,0.05778,-0.100347,-0.100647,0.327447,0.023022,-0.182809,1.98691e-08,-4.56731e-09,0.3,-0.3,-1.9537,-2.00458,0.546089,173.888,-3.14294,0.747141,-13.8699,-0.680533,0,185.888,-2.3087,0.000486374,0.000121615,1.28272e-05,0.86,93.0902,-21.5824,888.517
0.063,-0.192335,-0.00766602,0.330352,0.0664505,0.0622742,-0.10429,0.05778,-0.100347,-0.100647,0.327447,0.023022,-0.182809,1.98691e-08,-4.56731e-09,0.3,-0.3,-1.97772,-1.99206,0.573131,174.011,-3.06988,0.777725,-13.8699,-0.680533,0,185.888,-2.3087,0.000486374,0.000121615,1.28272e-05,0.86,93.0822,-21.5635,888.398
0.064,-0.192335,-0.00766602,0.330352,0.0664505,0.0622742,-0.10429,0.05778,-0.100347,-0.100647,0.327447,0.023022,-0.182809,1.98691e-08,-4.56731e-09,0.3,-0.3,-2.00136,-1.97991,0.600213,174.141,-2.99305,0.808359,-13.8699,-0.680533,0,185.888,-2.3087,0.000486374,0.000121615,1.28272e-05,0.86,93.0761,-21.543,888.277
0.065,-0.192335,-0.00766602,0.330352,0.0664505,0.0622742,-0.10429,0.05778,-0.100347,-0.100647,0.327447,0.023022,-0.182809,1.98691e-08,-4.56731e-09,0.3,-0.3,-2.02468,-1.9681,0.627176,174.276,-2.91297,0.838976,-13.8699,-0.680533,0,185.888,-2.3087,0.000486374,0.000121615,1.28272e-05,0.86,93.0719,-21.521,888.153
0.066,-0.192335,-0.00766602,0.330352,0.0664505,0.0622742,-0.10429,0.05778,-0.100347,-0.100647,0.327447,0.023022,-0.182809,1.98691e-08,-4.56731e-09,0.3,-0.3,-2.04773,-1.95658,0.653888,174.415,-2.83018,0.869511,-13.8699,-0.680533,0,185.888,-2.3087,0.000486374,0.000121615,1.28272e-05,0.86,93.0693,-21.4976,888.028
0.067,-0.192335,-0.00766602,0.330352,0.0664505,0.0622742,-0.10429,0.05778,-0.100347,-0.100647,0.327447,0.023022,-0.182809,1.98691e-08,-4.56731e-09,0.3,-0.3,-2.07055,-1.94531,0.680244,174.559,-2.74513,0.899906,-13.8699,-0.680533,0,185.888,-2.3087,0.000486374,0.000121615,1.28272e-05,0.86,93.0685,-21.4728,887.9
0.068,-0.192335,-0.00766602,0.330352,0.0664505,0.0622742,-0.10429,0.05778,-0.100347,-0.100647,0.327447,0.023022,-0.182809,1.98691e-08,-4.56731e-09,0.3,-0.3,-2.09321,-1.93426,0.706168,174.708,-2.65827,0.930111,-13.8699,-0.680533,0,185.888,-2.3087,0.000486374,0.000121615,1.28272e-05,0.86,93.0692,-21.4469,887.771
0.069,-0.192335,-0.00766602,0.330352,0.0664505,0.0622742,-0.10429,0.05778,-0.100347,-0.100647,0.327447,0.023022,-0.182809,1.98691e-08,-4.56731e-09,0.3,-0.3,-2.11575,-1.9234,0.731605,174.859,-2.57001,0.960083,-13.8699,-0.680533,0,185.888,-2.3087,0.000486374,0.000121615,1.28272e-05,0.86,93.0714,-21.4197,887.64
0.07,-0.192335,-0.00766602,0.330352,0.0664505,0.0622742,-0.10429,0.05778,-0.100347,-0.100647,0.327447,0.023022,-0.182809,1.98691e-08,-4.56731e-09,0.3,-0.3,-2.13823,-1.91269,0.756526,175.014,-2.48069,0.989779,-13.8699,-0.680533,0,185.888,-2.3087,0.000486374,0.000121615,1.28272e-05,0.86,93.075,-21.3914,887.507
0.071,-0.192335,-0.00766602,0.330352,0.0664505,0.0622742,-0.10429,0.05778,-0.100347,-0.100647,0.327447,0.023022,-0.182809,1.98691e-08,-4.56731e-09,0.3,-0.3,-2.16068,-1.90211,0.780922,175.171,-2.39065,1.01917,-13.8699,-0.680533,0,185.888,-2.3087,0.000486374,0.000121615,1.28272e-05,0.86,93.0799,-21.3621,887.371
0.072,-0.192335,-0.00766602,0.330352,0.0664505,0.0622742,-0.10429,0.05778,-0.100347,-0.100647,0.327447,0.023022,-0.182809,1.98691e-08,-4.56731e-09,0.3,-0.3,-2.18316,-1.89162,0.804799,175.331,-2.30018,1.04822,-13.8699,-0.680533,0,185.888,-2.3087,0.000486374,0.000121615,1.28272e-05,0.86,93.0862,-21.3317,887.234
0.073,-0.192335,-0.00766602,0.330352,0.0664505,0.0622742,-0.10429,0.05778,-0.100347,-0.100647,0.327447,0.023022,-0.182809,1.98691e-08,-4.56731e-09,0.3,-0.3,-2.2057,-1.88119,0.828178,175.492,-2.20954,1.07692,-13.8699,-0.680533,0,185.888,-2.3087,0.000486374,0.000121615,1.28272e-05,0.86,93.0936,-21.3003,887.095
0.074,-0.192335,-0.00766602,0.330352,0.0664505,0.0622742,-0.10429,0.05778,-0.100347,-0.100647,0.327447,0.023022,-0.182809,1.98691e-08,-4.56731e-09,0.3,-0.3,-2.22832,-1.87078,0.851092,175.655,-2.11897,1.10523,-13.8699,-0.680533,0,185.888,-2.3087,0.000486374,0.000121615,1.28272e-05,0.86,93.1023,-21.268,886.954
0.075,-0.192335,-0.00766602,0.330352,0.0664505,0.0622742,-0.10429,0.05778,-0.100347,-0.100647,0.327447,0.023022,-0.182809,1.98691e-08,-4.56731e-09,0.3,-0.3,-2.25108,-1.86035,0.873581,175.82,-2.02867,1.13315,-13.8699,-0.680533,0,185.888,-2.3087,0.000486374,0.000121615,1.28272e-05,0.86,93.1121,-21.2348,886.811
0.076,-0.192335,-0.00766602,0.330352,0.0664505,0.0622742,-0.10429,0.05778,-0.100347,-0.100647,0.327447,0.023022,-0.182809,1.98691e-08,-4.56731e-09,0.3,-0.3,-2.27401,-1.84985,0.895692,175.985,-1.93882,1.16067,-13.8699,-0.680533,0,185.888,-2.3087,0.000486374,0.000121615,1.28272e-05,0.86,93.1231,-21.2006,886.666
0.077,-0.192335,-0.00766602,0.330352,0.0664505,0.0622742,-0.10429,0.05778,-0.100347,-0.100647,0.327447,0.023022,-0.182809,1.98691e-08,-4.56731e-09,0.3,-0.3,-2.29717,-1.83922,0.91747,176.151,-1.84955,1.18777,-13.8699,-0.680533,0,185.888,-2.3087,0.000486374,0.000121615,1.28272e-05,0.86,93.1351,-21.1655,886.519
0.078,-0.192335,-0.00766602,0.330352,0.0664505,0.0622742,-0.10429,0.05778,-0.100347,-0.100647,0.327447,0.023022,-0.182809,1.98691e-08,-4.56731e-09,0.3,-0.3,-2.32072,-1.8284,0.938963,176.317,-1.76101,1.21445,-13.8699,-0.680533,0,185.888,-2.3087,0.000486374,0.000121615,1.28272e-05,0.86,93.1482,-21.1295,886.371
0.079,-0.192335,-0.00766602,0.330352,0.0664505,0.0622742,-0.10429,0.05778,-0.100347,-0.100647,0.327447,0.023022,-0.182809,1.98691e-08,-4.56731e-09,0.3,-0.3,-2.34486,-1.81755,0.960221,176.484,-1.67329,1.24069,-13.8699,-0.680533,0,185.888,-2.3087,0.000486374,0.000121615,1.28272e-05,0.86,93.1623,-21.0927,886.22
0.08,-0.192335,-0.00766602,0.330352,0.0664505,0.0622742,-0.10429,0.05778,-0.100347,-0.100647,0.327447,0.023022,-0.182809,1.98691e-08,-4.56731e-09,0.3,-0.3,-2.36885,-1.80725,0.981313,176.652,-1.58648,1.2665,-13.8699,-0.680533,0,185.888,-2.3087,0.000486374,0.000121615,1.28272e-05,0.86,93.1774,-21.0549,886.068
0.081,-0.192335,-0.00766602,0.330352,0.0664505,0.0622742,-0.10429,0.05778,-0.100347,-0.100647,0.327447,0.023022,-0.182809,1.98691e-08,-4.56731e-09,0.3,-0.3,-2.39283,-1.79684,1.0022,176.819,-1.50066,1.29188,-13.8699,-0.680533,0,185.888,-2.3087,0.000486374,0.000121615,1.28272e-05,0.86,93.1936,-21.0163,885.914
0.082,-0.192335,-0.00766602,0.330352,0.0664505,0.0622742,-0.10429,0.05778,-0.100347,-0.100647,0.327447,0.023022,-0.182809,1.98691e-08,-4.56731e-09,0.3,-0.3,-2.42102,-1.78444,1.02625,177.013,-1.40248,1.32076,-13.8699,-0.680533,0,185.888,-2.3087,0.000486374,0.000121615,1.28272e-05,0.86,93.2138,-20.9705,885.733
0.083,-0.192335,-0.00766602,0.330352,0.0664505,0.0622742,-0.10429,0.05778,-0.100347,-0.100647,0.327447,0.023022,-0.182809,1.98691e-08,-4.56731e-09,0.3,-0.3,-2.44562,-1.77353,1.0469,177.181,-1.31897,1.34522,-13.8699,-0.680533,0,185.888,-2.3087,0.000486374,0.000121615,1.28272e-05,0.86,93.2322,-20.93,885.576
0.084,-0.192335,-0.00766602,0.330352,0.0664505,0.0622742,-0.10429,0.05778,-0.100347,-0.100647,0.327447,0.023022,-0.182809,1.98691e-08,-4.56731e-09,0.3,-0.3,-2.47063,-1.76234,1.0675,177.349,-1.23658,1.36925,-13.8699,-0.680533,0,185.888,-2.3087,0.000486374,0.000121615,1.28272e-05,0.86,93.2517,-20.8887,885.416
0.085,-0.192335,-0.00766602,0.330352,0.0664505,0.0622742,-0.10429,0.05778,-0.100347,-0.100647,0.327447,0.023022,-0.182809,1.98691e-08,-4.56731e-09,0.3,-0.3,-2.49617,-1.75106,1.08805,177.517,-1.1553,1.39284,-13.8699,-0.680533,0,185.888,-2.3087,0.000486374,0.000121615,1.28272e-05,0.86,93.2722,-20.8465,885.255
0.086,-0.192335,-0.00766602,0.330352,0.0664505,0.0622742,-0.10429,0.05778,-0.100347,-0.100647,0.327447,0.023022,-0.182809,1.98691e-08,-4.56731e-09,0.3,-0.3,-2.52185,-1.74019,1.10859,177.685,-1.07514,1.41599,-13.8699,-0.680533,0,185.888,-2.3087,0.000486374,0.000121615,1.28272e-05,0.86,93.2938,-20.8035,885.093
0.087,-0.192335,-0.00766602,0.330352,0.0664505,0.0622742,-0.10429,0.05778,-0.100347,-0.100647,0.327447,0.023022,-0.182809,1.98691e-08,-4.56731e-09,0.3,-0.3,-2.54756,-1.7292,1.12905,177.854,-0.996074,1.43871,-13.8699,-0.680533,0,185.888,-2.3087,0.000486374,0.000121615,1.28272e-05,0.86,93.3165,-20.7596,884.928
0.088,-0.192335,-0.00766602,0.330352,0.0664505,0.0622742,-0.10429,0.05778,-0.100347,-0.100647,0.327447,0.023022,-0.182809,1.98691e-08,-4.56731e-09,0.3,-0.3,-2.57344,-1.71802,1.14947,178.022,-0.918078,1.461,-13.8699,-0.680533,0,185.888,-2.3087,0.000486374,0.000121615,1.28272e-05,0.86,93.3403,-20.7149,884.763
0.089,-0.192335,-0.00766602,0.330352,0.0664505,0.0622742,-0.10429,0.05778,-0.100347,-0.100647,0.327447,0.023022,-0.182809,1.98691e-08,-4.56731e-09,0.3,-0.3,-2.59952,-1.7067,1.16987,178.191,-0.841127,1.48287,-13.8699,-0.680533,0,185.888,-2.3087,0.000486374,0.000121615,1.28272e-05,0.86,93.3652,-20.6693,884.595
0.09,-0.192335,-0.00766602,0.330352,0.0664505,0.0622742,-0.10429,0.05778,-0.100347,-0.100647,0.327447,0.023022,-0.182809,1.98691e-08,-4.56731e-09,0.3,-0.3,-2.62582,-1.69522,1.19024,178.361,-0.765179,1.5043,-13.8699,-0.680533,0,185.888,-2.3087,0.000486374,0.000121615,1.28272e-05,0.86,93.3913,-20.6229,884.427
0.091,-0.192335,-0.00766602,0.330352,0.0664505,0.0622742,-0.10429,0.05778,-0.100347,-0.100647,0.327447,0.023022,-0.182809,1.98691e-08,-4.56731e-09,0.3,-0.3,-2.65235,-1.68354,1.21057,178.531,-0.690184,1.52529,-13.8699,-0.680533,0,185.888,-2.3087,0.000486374,0.000121615,1.28272e-05,0.86,93.4184,-20.5756,884.256
0.092,-0.192335,-0.00766602,0.330352,0.0664505,0.0622742,-0.10429,0.05778,-0.100347,-0.100647,0.327447,0.023022,-0.182809,1.98691e-08,-4.56731e-09,0.3,-0.3,-2.67923,-1.6716,1.23084,178.701,-0.616077,1.54584,-13.8699,-0.680533,0,185.888,-2.3087,0.000486374,0.000121615,1.28272e-05,0.86,93.4468,-20.5274,884.085
0.093,-0.192335,-0.00766602,0.330352,0.0664505,0.0622742,-0.10429,0.05778,-0.100347,-0.100647,0.327447,0.023022,-0.182809,1.98691e-08,-4.56731e-09,0.3,-0.3,-2.70651,-1.65964,1.25105,178.872,-0.542791,1.56593,-13.8699,-0.680533,0,185.888,-2.3087,0.000486374,0.000121615,1.28272e-05,0.86,93.4763,-20.4784,883.912
0.094,-0.192335,-0.00766602,0.330352,0.0664505,0.0622742,-0.10429,0.05778,-0.100347,-0.100647,0.327447,0.023022,-0.182809,1.98691e-08,-4.56731e-09,0.3,-0.3,-2.73375,-1.64819,1.27118,179.044,-0.470263,1.58557,-13.8699,-0.680533,0,185.888,-2.3087,0.000486374,0.000121615,1.28272e-05,0.86,93.507,-20.4285,883.737
0.095,-0.192335,-0.00766602,0.330352,0.0664505,0.0622742,-0.10429,0.05778,-0.100347,-0.100647,0.327447,0.023022,-0.182809,1.98691e-08,-4.56731e-09,0.3,-0.3,-2.76094,-1.6366,1.29116,179.217,-0.39842,1.60477,-13.8699,-0.680533,0,185.888,-2.3087,0.000486374,0.000121615,1.28272e-05,0.86,93.539,-20.3778,883.561
0.096,-0.192335,-0.00766602,0.330352,0.0664505,0.0622742,-0.10429,0.05778,-0.100347,-0.100647,0.327447,0.023022,-0.182809,1.98691e-08,-4.56731e-09,0.3,-0.3,-2.78822,-1.62481,1.31099,179.39,-0.327192,1.62351,-13.8699,-0.680533,0,185.888,-2.3087,0.000486374,0.000121615,1.28272e-05,0.86,93.5721,-20.3262,883.384
0.097,-0.192335,-0.00766602,0.330352,0.0664505,0.0622742,-0.10429,0.05778,-0.100347,-0.100647,0.327447,0.023022,-0.182809,1.98691e-08,-4.56731e-09,0.3,-0.3,-2.81561,-1.6129,1.33068,179.565,-0.256516,1.64179,-13.8699,-0.680533,0,185.888,-2.3087,0.000486374,0.000121615,1.28272e-05,0.86,93.6065,-20.2738,883.206
0.098,-0.192335,-0.00766602,0.330352,0.0664505,0.0622742,-0.10429,0.05778,-0.100347,-0.100647,0.327447,0.023022,-0.182809,1.98691e-08,-4.56731e-09,0.3,-0.3,-2.84312,-1.60085,1.35023,179.74,-0.186326,1.65961,-13.8699,-0.680533,0,185.888,-2.3087,0.000486374,0.000121615,1.28272e-05,0.86,93.6421,-20.2204,883.026
0.099,-0.192335,-0.00766602,0.330352,0.0664505,0.0622742,-0.10429,0.05778,-0.100347,-0.100647,0.327447,0.023022,-0.182809,1.98691e-08,-4.56731e-09,0.3,-0.3,-2.8708,-1.58863,1.3696,179.916,-0.11655,1.67696,-13.8699,-0.680533,0,185.888,-2.3087,0.000486374,0.000121615,1.28272e-05,0.86,93.679,-20.1663,882.845
0.1,-0.192335,-0.00766602,0.330352,0.0664505,0.0622742,-0.10429,0.05778,-0.100347,-0.100647,0.327447,0.023022,-0.182809,1.98691e-08,-4.56731e-09,0.3,-0.3,-2.89875,-1.57623,1.38879,180.094,-0.047113,1.69382,-13.8699,-0.680533,0,185.888,-2.3087,0.000486374,0.000121615,1.28272e-05,0.86,93.7172,-20.1112,882.663
0.101,-0.192335,-0.00766602,0.330352,0.0664505,0.0622742,-0.10429,0.05778,-0.100347,-0.100647,0.327447,0.023022,-0.182809,1.98691e-08,-4.56731e-09,0.3,-0.3,-2.9268,-1.56378,1.40782,180.272,0.0220617,1.71021,-13.8699,-0.680533,0,185.888,-2.3087,0.000486374,0.000121615,1.28272e-05,0.86,93.7566,-20.0552,882.48
0.102,-0.192335,-0.00766602,0.330352,0.0664505,0.0622742,-0.10429,0.05778,-0.100347,-0.100647,0.327447,0.023022,-0.182809,1.98691e-08,-4.56731e-09,0.3,-0.3,-2.94886,-1.55402,1.42273,180.414,0.0767114,1.72287,-13.8699,-0.680533,0,185.888,-2.3087,0.000486374,0.000121615,1.28272e-05,0.86,93.7886,-20.0104,882.334
0.103,-0.192335,-0.00766602,0.330352,0.0664505,0.0622742,-0.10429,0.05778,-0.100347,-0.100647,0.327447,0.023022,-0.182809,1.98691e-08,-4.56731e-09,0.3,-0.3,-2.97672,-1.54176,1.44133,180.594,0.145547,1.73838,-13.8699,-0.680533,0,185.888,-2.3087,0.000486374,0.000121615,1.28272e-05,0.86,93.8304,-19.9529,882.149
0.104,-0.192335,-0.00766602,0.330352,0.0664505,0.0622742,-0.10429,0.05778,-0.100347,-0.100647,0.327447,0.023022,-0.182809,1.98691e-08,-4.56731e-09,0.3,-0.3,-3.0046,-1.52957,1.45967,180.775,0.214256,1.75339,-13.8699,-0.680533,0,185.888,-2.3087,0.000486374,0.000121615,1.28272e-05,0.86,93.8734,-19.8945,881.962
0.105,-0.192335,-0.00766602,0.330352,0.0664505,0.0622742,-0.10429,0.05778,-0.100347,-0.100647,0.327447,0.023022,-0.182809,1.98691e-08,-4.56731e-09,0.3,-0.3,-3.03252,-1.51749,1.47776,180.958,0.282878,1.76789,-13.8699,-0.680533,0,185.888,-2.3087,0.000486374,0.000121615,1.28272e-05,0.86,93.9177,-19.8352,881.775
0.106,-0.192335,-0.00766602,0.330352,0.0664505,0.0622742,-0.10429,0.05778,-0.100347,-0.100647,0.327447,0.023022,-0.182809,1.98691e-08,-4.56731e-09,0.3,-0.3,-3.06058,-1.50512,1.49564,181.141,0.351468,1.78187,-13.8699,-0.680533,0,185.888,-2.3087,0.000486374,0.000121615,1.28272e-05,0.86,93.9633,-19.7751,881.587
0.107,-0.192335,-0.00766602,0.330352,0.0664505,0.0622742,-0.10429,0.05778,-0.100347,-0.100647,0.327447,0.023022,-0.182809,1.98691e-08,-4.56731e-09,0.3,-0.3,-3.08844,-1.49293,1.51323,181.325,0.42007,1.79533,-13.8699,-0.680533,0,185.888,-2.3087,0.000486374,0.000121615,1.28272e-05,0.86,94.0102,-19.714,881.397
0.108,-0.192335,-0.00766602,0.330352,0.0664505,0.0622742,-0.10429,0.05778,-0.100347,-0.100647,0.327447,0.023022,-0.182809,1.98691e-08,-4.56731e-09,0.3,-0.3,-3.11608,-1.48093,1.53049,181.51,0.4887,1.80828,-13.8699,-0.680533,0,185.888,-2.3087,0.000486374,0.000121615,1.28272e-05,0.86,94.0584,-19.6522,881.207
0.109,-0.192335,-0.00766602,0.330352,0.0664505,0.0622742,-0.10429,0.05778,-0.100347,-0.100647,0.327447,0.023022,-0.182809,1.98691e-08,-4.56731e-09,0.3,-0.3,-3.14374,-1.469,1.54745,181.696,0.557357,1.82069,-13.8699,-0.680533,0,185.888,-2.3087,0.000486374,0.000121615,1.28272e-05,0.86,94.1079,-19.5894,881.016
0.11,-0.192335,-0.00766602,0.330352,0.0664505,0.0622742,-0.10429,0.05778,-0.100347,-0.100647,0.327447,0.023022,-0.182809,1.98691e-08,-4.56731e-09,0.3,-0.3,-3.17146,-1.45722,1.56412,181.883,0.626046,1.83257,-13.8699,-0.680533,0,185.888,-2.3087,0.000486374,0.000121615,1.28272e-05,0.86,94.1588,-19.5258,880.824
0.111,-0.192335,-0.00766602,0.330352,0.0664505,0.0622742,-0.10429,0.05778,-0.100347,-0.100647,0.327447,0.023022,-0.182809,1.98691e-08,-4.56731e-09,0.3,-0.3,-3.19936,-1.4454,1.58051,182.071,0.694778,1.84388,-13.8699,-0.680533,0,185.888,-2.3087,0.000486374,0.000121615,1.28272e-05,0.86,94.2109,-19.4613,880.631
0.112,-0.192335,-0.00766602,0.330352,0.0664505,0.0622742,-0.10429,0.05778,-0.100347,-0.100647,0.327447,0.023022,-0.182809,1.98691e-08,-4.56731e-09,0.3,-0.3,-3.22685,-1.43358,1.59655,182.259,0.763567,1.85466,-13.8699,-0.680533,0,185.888,-2.3087,0.000486374,0.000121615,1.28272e-05,0.86,94.2643,-19.396,880.437
0.113,-0.192335,-0.00766602,0.330352,0.0664505,0.0622742,-0.10429,0.05778,-0.100347,-0.100647,0.327447,0.023022,-0.182809,1.98691e-08,-4.56731e-09,0.3,-0.3,-3.2543,-1.42171,1.61228,182.448,0.832393,1.86488,-13.8699,-0.680533,0,185.888,-2.3087,0.000486374,0.000121615,1.28272e-05,0.86,94.319,-19.3298,880.243
0.114,-0.192335,-0.00766602,0.330352,0.0664505,0.0622742,-0.10429,0.05778,-0.100347,-0.100647,0.327447,0.023022,-0.182809,1.98691e-08,-4.56731e-09,0.3,-0.3,-3.282,-1.41009,1.62772,182.638,0.901245,1.87452,-13.8699,-0.680533,0,185.888,-2.3087,0.000486374,0.000121615,1.28272e-05,0.86,94.3751,-19.2628,880.048
0.115,-0.192335,-0.00766602,0.330352,0.0664505,0.0622742,-0.10429,0.05778,-0.100347,-0.100647,0.327447,0.023022,-0.182809,1.98691e-08,-4.56731e-09,0.3,-0.3,-3.30963,-1.3985,1.64284,182.829,0.970128,1.88358,-13.8699,-0.680533,0,185.888,-2.3087,0.000486374,0.000121615,1.28272e-05,0.86,94.4324,-19.1949,879.852
0.116,-0.192335,-0.00766602,0.330352,0.0664505,0.0622742,-0.10429,0.05778,-0.100347,-0.100647,0.327447,0.023022,-0.182809,1.98691e-08,-4.56731e-09,0.3,-0.3,-3.33693,-1.38689,1.6576,183.02,1.03903,1.89206,-13.8699,-0.680533,0,185.888,-2.3087,0.000486374,0.000121615,1.28272e-05,0.86,94.491,-19.1262,879.656
0.117,-0.192335,-0.00766602,0.330352,0.0664505,0.0622742,-0.10429,0.05778,-0.100347,-0.100647,0.327447,0.023022,-0.182809,1.98691e-08,-4.56731e-09,0.3,-0.3,-3.36421,-1.37528,1.67206,183.211,1.10793,1.89997,-13.8699,-0.680533,0,185.888,-2.3087,0.000486374,0.000121615,1.28272e-05,0.86,94.551,-19.0566,879.459
0.118,-0.192335,-0.00766602,0.330352,0.0664505,0.0622742,-0.10429,0.05778,-0.100347,-0.100647,0.327447,0.023022,-0.182809,1.98691e-08,-4.56731e-09,0.3,-0.3,-3.39147,-1.3637,1.6862,183.403,1.17678,1.90727,-13.8699,-0.680533,0,185.888,-2.3087,0.000486374,0.000121615,1.28272e-05,0.86,94.6122,-18.9863,879.261
0.119,-0.192335,-0.00766602,0.330352,0.0664505,0.0622742,-0.10429,0.05778,-0.100347,-0.100647,0.327447,0.023022,-0.182809,1.98691e-08,-4.56731e-09,0.3,-0.3,-3.4187,-1.35213,1.70002,183.596,1.24557,1.91396,-13.8699,-0.680533,0,185.888,-2.3087,0.000486374,0.000121615,1.28272e-05,0.86,94.6748,-18.9151,879.063
0.12,-0.192335,-0.00766602,0.330352,0.0664505,0.0622742,-0.10429,0.05778,-0.100347,-0.100647,0.327447,0.023022,-0.182809,1.98691e-08,-4.56731e-09,0.3,-0.3,-3.4459,-1.34058,1.71352,183.788,1.31428,1.92004,-13.8699,-0.680533,0,185.888,-2.3087,0.000486374,0.000121615,1.28272e-05,0.86,94.7386,-18.843,878.865
0.121,-0.192335,-0.00766602,0.330352,0.0664505,0.0622742,-0.10429,0.05778,-0.100347,-0.100647,0.327447,0.023022,-0.182809,1.98691e-08,-4.56731e-09,0.3,-0.3,-3.47304,-1.32907,1.72671,183.977,1.38141,1.92601,-13.8699,-0.680533,0,185.888,-2.3087,0.000486374,0.000121615,1.28272e-05,0.86,94.8032,-18.7703,878.666
0.122,-0.192335,-0.00766602,0.330352,0.0664505,0.0622742,-0.10429,0.05778,-0.100347,-0.100647,0.327447,0.023022,-0.182809,1.98691e-08,-4.56731e-09,0.3,-0.3,-3.50158,-1.31764,1.74006,184.034,1.40267,1.94727,-13.8699,-0.680533,0,185.888,-2.3087,0.000486374,0.000121615,1.28272e-05,0.86,94.8535,-18.6984,878.47
0.123,-0.192335,-0.00766602,0.330352,0.0664505,0.0622742,-0.10429,0.05778,-0.100347,-0.100647,0.327447,0.023022,-0.182809,1.98691e-08,-4.56731e-09,0.3,-0.3,-3.55423,-1.309,1.75664,184.034,1.40204,1.96772,-13.8699,-0.680533,0,185.888,-2.3087,0.000486374,0.000121615,1.28272e-05,0.86,94.8947,-18.627,878.281
0.124,-0.192335,-0.00766602,0.330352,0.0664505,0.0622742,-0.10429,0.05778,-0.100347,-0.100647,0.327447,0.023022,-0.182809,1.98691e-08,-4.56731e-09,0.3,-0.3,-3.61909,-1.28697,1.78167,184.026,1.39784,1.98792,-13.8699,-0.680533,0,185.888,-2.3087,0.000486374,0.000121615,1.28272e-05,0.86,94.9317,-18.5542,878.097
0.125,-0.192335,-0.00766602,0.330352,0.0664505,0.0622742,-0.10429,0.05778,-0.100347,-0.100647,0.327447,0.023022,-0.182809,1.98691e-08,-4.56731e-09,0.3,-0.3,-3.69722,-1.25517,1.8128,184.015,1.39221,2.00827,-13.8699,-0.680533,0,185.888,-2.3087,0.000486374,0.000121615,1.28272e-05,0.86,94.965,-18.4802,877.916
0.126,-0.192335,-0.00766602,0.330352,0.0664505,0.0622742,-0.10429,0.05778,-0.100347,-0.100647,0.327447,0.023022,-0.182809,1.98691e-08,-4.56731e-09,0.3,-0.3,-3.7884,-1.21678,1.84899,184.002,1.38589,2.02883,-13.8699,-0.680533,0,185.888,-2.3087,0.000486374,0.000121615,1.28272e-05,0.86,94.9951,-18.4051,877.738
0.127,-0.192335,-0.00766602,0.330352,0.0664505,0.0622742,-0.10429,0.05778,-0.100347,-0.100647,0.327447,0.023022,-0.182809,1.98691e-08,-4.56731e-09,0.3,-0.3,-3.89137,-1.17385,1.88958,183.989,1.37935,2.0492,-13.8699,-0.680533,0,185.888,-2.3087,0.000486374,0.000121615,1.28272e-05,0.86,95.022,-18.329,877.562
0.128,-0.192335,-0.00766602,0.330352,0.0664505,0.0622742,-0.10429,0.05778,-0.100347,-0.100647,0.327447,0.023022,-0.182809,1.98691e-08,-4.56731e-09,0.3,-0.3,-4.00527,-1.12823,1.93351,183.977,1.373,2.06904,-13.8699,-0.680533,0,185.888,-2.3087,0.000486374,0.000121615,1.28272e-05,0.86,95.0459,-18.2521,877.387
0.129,-0.192335,-0.00766602,0.330352,0.0664505,0.0622742,-0.10429,0.05778,-0.100347,-0.100647,0.327447,0.023022,-0.182809,1.98691e-08,-4.56731e-09,0.3,-0.3,-4.12993,-1.08157,1.97967,183.965,1.36683,2.08828,-13.8699,-0.680533,0,185.888,-2.3087,0.000486374,0.000121615,1.28272e-05,0.86,95.0669,-18.1745,877.213
0.13,-0.192335,-0.00766602,0.330352,0.0664505,0.0622742,-0.10429,0.05778,-0.100347,-0.100647,0.327447,0.023022,-0.182809,1.98691e-08,-4.56731e-09,0.3,-0.3,-4.26487,-1.03486,2.02742,183.953,1.36089,2.10696,-13.8699,-0.680533,0,185.888,-2.3087,0.000486374,0.000121615,1.28272e-05,0.86,95.0851,-18.0962,877.039
0.131,-0.192335,-0.00766602,0.330352,0.0664505,0.0622742,-0.10429,0.05778,-0.100347,-0.100647,0.327447,0.023022,-0.182809,1.98691e-08,-4.56731e-09,0.3,-0.3,-4.40957,-0.989063,2.07652,183.942,1.35523,2.1251,-13.8699,-0.680533,0,185.888,-2.3087,0.000486374,0.000121615,1.28272e-05,0.86,95.1004,-18.0174,876.867
0.132,-0.192335,-0.00766602,0.330352,0.0664505,0.0622742,-0.10429,0.05778,-0.100347,-0.100647,0.327447,0.023022,-0.182809,1.98691e-08,-4.56731e-09,0.3,-0.3,-4.56351,-0.945009,2.12683,183.932,1.34984,2.14272,-13.8699,-0.680533,0,185.888,-2.3087,0.000486374,0.000121615,1.28272e-05,0.86,95.113,-17.938,876.695
0.133,-0.192335,-0.00766602,0.330352,0.0664505,0.0622742,-0.10429,0.05778,-0.100347,-0.100647,0.327447,0.023022,-0.182809,1.98691e-08,-4.56731e-09,0.3,-0.3,-4.7263,-0.903393,2.1782,183.922,1.34475,2.15982,-13.8699,-0.680533,0,185.888,-2.3087,0.000486374,0.000121615,1.28272e-05,0.86,95.1229,-17.8581,876.523
0.134,-0.192335,-0.00766602,0.330352,0.0664505,0.0622742,-0.10429,0.05778,-0.100347,-0.100647,0.327447,0.023022,-0.182809,1.98691e-08,-4.56731e-09,0.3,-0.3,-4.89763,-0.864821,2.23049,183.912,1.33996,2.17635,-13.8699,-0.680533,0,185.888,-2.3087,0.000486374,0.000121615,1.28272e-05,0.86,95.1302,-17.7778,876.353
0.135,-0.192335,-0.00766602,0.330352,0.0664505,0.0622742,-0.10429,0.05778,-0.100347,-0.100647,0.327447,0.023022,-0.182809,1.98691e-08,-4.56731e-09,0.3,-0.3,-5.07732,-0.829823,2.28351,183.904,1.33548,2.19221,-13.8699,-0.680533,0,185.888,-2.3087,0.000486374,0.000121615,1.28272e-05,0.86,95.1348,-17.6971,876.183
0.136,-0.192335,-0.00766602,0.330352,0.0664505,0.0622742,-0.10429,0.05778,-0.100347,-0.100647,0.327447,0.023022,-0.182809,1.98691e-08,-4.56731e-09,0.3,-0.3,-5.26526,-0.798854,2.33699,183.896,1.33128,2.2074,-13.8699,-0.680533,0,185.888,-2.3087,0.000486374,0.000121615,1.28272e-05,0.86,95.1367,-17.6161,876.014
0.137,-0.192335,-0.00766602,0.330352,0.0664505,0.0622742,-0.10429,0.05778,-0.100347,-0.100647,0.327447,0.023022,-0.182809,1.98691e-08,-4.56731e-09,0.3,-0.3,-5.46149,-0.772259,2.39064,183.888,1.32734,2.22188,-13.8699,-0.680533,0,185.888,-2.3087,0.000486374,0.000121615,1.28272e-05,0.86,95.1362,-17.5347,875.845
0.138,-0.192335,-0.00766602,0.330352,0.0664505,0.0622742,-0.10429,0.05778,-0.100347,-0.100647,0.327447,0.023022,-0.182809,1.98691e-08,-4.56731e-09,0.3,-0.3,-5.66617,-0.750261,2.44417,183.881,1.32368,2.23558,-13.8699,-0.680533,0,185.888,-2.3087,0.000486374,0.000121615,1.28272e-05,0.86,95.133,-17.4531,875.677
0.139,-0.192335,-0.00766602,0.330352,0.0664505,0.0622742,-0.10429,0.05778,-0.100347,-0.100647,0.327447,0.023022,-0.182809,1.98691e-08,-4.56731e-09,0.3,-0.3,-5.87946,-0.73294,2.49735,183.874,1.32031,2.24847,-13.8699,-0.680533,0,185.888,-2.3087,0.000486374,0.000121615,1.28272e-05,0.86,95.1273,-17.3711,875.509
0.14,-0.192335,-0.00766602,0.330352,0.0664505,0.0622742,-0.10429,0.05778,-0.100347,-0.100647,0.327447,0.023022,-0.182809,1.98691e-08,-4.56731e-09,0.3,-0.3,-6.10162,-0.72032,2.55,183.869,1.31726,2.26049,-13.8699,-0.680533,0,185.888,-2.3087,0.000486374,0.000121615,1.28272e-05,0.86,95.1191,-17.2889,875.341
0.141,-0.192335,-0.00766602,0.330352,0.0664505,0.0622742,-0.10429,0.05778,-0.100347,-0.100647,0.327447,0.023022,-0.182809,1.98691e-08,-4.56731e-09,0.3,-0.3,-6.33295,-0.712374,2.602,183.863,1.31446,2.27162,-13.8699,-0.680533,0,185.888,-2.3087,0.000486374,0.000121615,1.28272e-05,0.86,95.1082,-17.2064,875.174
0.142,-0.192335,-0.00766602,0.330352,0.0664505,0.0622742,-0.10429,0.05778,-0.100347,-0.100647,0.327447,0.023022,-0.182809,1.98691e-08,-4.56731e-09,0.3,-0.3,-6.70068,-0.709178,2.67898,183.856,1.31066,2.28651,-13.8699,-0.680533,0,185.888,-2.3087,0.000486374,0.000121615,1.28272e-05,0.86,95.0868,-17.0813,874.923
0.143,-0.192335,-0.00766602,0.330352,0.0664505,0.0622742,-0.10429,0.05778,-0.100347,-0.100647,0.327447,0.023022,-0.182809,1.98691e-08,-4.56731e-09,0.3,-0.3,-6.95556,-0.711969,2.72904,183.851,1.30826,2.29516,-13.8699,-0.680533,0,185.888,-2.3087,0.000486374,0.000121615,1.28272e-05,0.86,95.0695,-16.998,874.756
0.144,-0.192335,-0.00766602,0.330352,0.0664505,0.0622742,-0.10429,0.05778,-0.100347,-0.100647,0.327447,0.023022,-0.182809,1.98691e-08,-4.56731e-09,0.3,-0.3,-7.21965,-0.718496,2.77835,183.847,1.30583,2.30278,-13.8699,-0.680533,0,185.888,-2.3087,0.000486374,0.000121615,1.28272e-05,0.86,95.0496,-16.9144,874.59
0.145,-0.192335,-0.00766602,0.330352,0.0664505,0.0622742,-0.10429,0.05778,-0.100347,-0.100647,0.327447,0.023022,-0.182809,1.98691e-08,-4.56731e-09,0.3,-0.3,-7.49232,-0.728144,2.82702,183.842,1.30352,2.30974,-13.8699,-0.680533,0,185.888,-2.3087,0.000486374,0.000121615,1.28272e-05,0.86,95.0273,-16.8304,874.425
0.146,-0.192335,-0.00766602,0.330352,0.0664505,0.0622742,-0.10429,0.05778,-0.100347,-0.100647,0.327447,0.023022,-0.182809,1.98691e-08,-4.56731e-09,0.3,-0.3,-7.77262,-0.740021,2.87462,183.838,1.30148,2.31628,-13.8699,-0.680533,0,185.888,-2.3087,0.000486374,0.000121615,1.28272e-05,0.86,95.0028,-16.7459,874.26
0.147,-0.192335,-0.00766602,0.330352,0.0664505,0.0622742,-0.10429,0.05778,-0.100347,-0.100647,0.327447,0.023022,-0.182809,1.98691e-08,-4.56731e-09,0.3,-0.3,-8.05918,-0.753232,2.92085,183.835,1.29964,2.32241,-13.8699,-0.680533,0,185.888,-2.3087,0.000486374,0.000121615,1.28272e-05,0.86,94.9763,-16.6609,874.096
0.148,-0.192335,-0.00766602,0.330352,0.0664505,0.0622742,-0.10429,0.05778,-0.100347,-0.100647,0.327447,0.023022,-0.182809,1.98691e-08,-4.56731e-09,0.3,-0.3,-8.35023,-0.767032,2.96586,183.831,1.298,2.32814,-13.8699,-0.680533,0,185.888,-2.3087,0.000486374,0.000121615,1.28272e-05,0.86,94.948,-16.5752,873.933
0.149,-0.192335,-0.00766602,0.330352,0.0664505,0.0622742,-0.10429,0.05778,-0.100347,-0.100647,0.327447,0.023022,-0.182809,1.98691e-08,-4.56731e-09,0.3,-0.3,-8.64401,-0.780824,3.0097,183.829,1.29657,2.3335,-13.8699,-0.680533,0,185.888,-2.3087,0.000486374,0.000121615,1.28272e-05,0.86,94.918,-16.4889,873.771
0.15,-0.192335,-0.00766602,0.330352,0.0664505,0.0622742,-0.10429,0.05778,-0.100347,-0.100647,0.327447,0.023022,-0.182809,1.98691e-08,-4.56731e-09,0.3,-0.3,-8.93879,-0.794116,3.05242,183.826,1.29534,2.33847,-13.8699,-0.680533,0,185.888,-2.3087,0.000486374,0.000121615,1.28272e-05,0.86,94.8866,-16.4017,873.61
0.151,-0.192335,-0.00766602,0.330352,0.0664505,0.0622742,-0.10429,0.05778,-0.100347,-0.100647,0.327447,0.023022,-0.182809,1.98691e-08,-4.56731e-09,0.3,-0.3,-9.23296,-0.806513,3.09401,183.825,1.29432,2.34308,-13.8699,-0.680533,0,185.888,-2.3087,0.000486374,0.000121615,1.28272e-05,0.86,94.8538,-16.3138,873.45
0.152,-0.192335,-0.00766602,0.330352,0.0664505,0.0622742,-0.10429,0.05778,-0.100347,-0.100647,0.327447,0.023022,-0.182809,1.98691e-08,-4.56731e-09,0.3,-0.3,-9.52509,-0.817711,3.13443,183.823,1.29351,2.34732,-13.8699,-0.680533,0,185.888,-2.3087,0.000486374,0.000121615,1.28272e-05,0.86,94.8198,-16.2251,873.292
0.153,-0.192335,-0.00766602,0.330352,0.0664505,0.0622742,-0.10429,0.05778,-0.100347,-0.100647,0.327447,0.023022,-0.182809,1.98691e-08,-4.56731e-09,0.3,-0.3,-9.81392,-0.827472,3.17361,183.822,1.2929,2.35118,-13.8699,-0.680533,0,185.888,-2.3087,0.000486374,0.000121615,1.28272e-05,0.86,94.7848,-16.1355,873.135
0.154,-0.192335,-0.00766602,0.330352,0.0664505,0.0622742,-0.10429,0.05778,-0.100347,-0.100647,0.327447,0.023022,-0.182809,1.98691e-08,-4.56731e-09,0.3,-0.3,-10.0984,-0.835617,3.21145,183.821,1.29249,2.35465,-13.8699,-0.680533,0,185.888,-2.3087,0.000486374,0.000121615,1.28272e-05,0.86,94.7487,-16.0451,872.979
0.155,-0.192335,-0.00766602,0.330352,0.0664505,0.0622742,-0.10429,0.05778,-0.100347,-0.100647,0.327447,0.023022,-0.182809,1.98691e-08,-4.56731e-09,0.3,-0.3,-10.3775,-0.842003,3.24787,183.821,1.29228,2.35772,-13.8699,-0.680533,0,185.888,-2.3087,0.000486374,0.000121615,1.28272e-05,0.86,94.7119,-15.9537,872.824
0.156,-0.192335,-0.00766602,0.330352,0.0664505,0.0622742,-0.10429,0.05778,-0.100347,-0.100647,0.327447,0.023022,-0.182809,1.98691e-08,-4.56731e-09,0.3,-0.3,-10.6506,-0.846513,3.28277,183.821,1.29227,2.36038,-13.8699,-0.680533,0,185.888,-2.3087,0.000486374,0.000121615,1.28272e-05,0.86,94.6742,-15.8615,872.67
0.157,-0.192335,-0.00766602,0.330352,0.0664505,0.0622742,-0.10429,0.05778,-0.100347,-0.100647,0.327447,0.023022,-0.182809,1.98691e-08,-4.56731e-09,0.3,-0.3,-10.9169,-0.849032,3.31602,183.821,1.29245,2.36259,-13.8699,-0.680533,0,185.888,-2.3087,0.000486374,0.000121615,1.28272e-05,0.86,94.6359,-15.7684,872.517
0.158,-0.192335,-0.00766602,0.330352,0.0664505,0.0622742,-0.10429,0.05778,-0.100347,-0.100647,0.327447,0.023022,-0.182809,1.98691e-08,-4.56731e-09,0.3,-0.3,-11.1761,-0.849464,3.34754,183.822,1.29282,2.36435,-13.8699,-0.680533,0,185.888,-2.3087,0.000486374,0.000121615,1.28272e-05,0.86,94.5968,-15.6744,872.366
0.159,-0.192335,-0.00766602,0.330352,0.0664505,0.0622742,-0.10429,0.05778,-0.100347,-0.100647,0.327447,0.023022,-0.182809,1.98691e-08,-4.56731e-09,0.3,-0.3,-11.4278,-0.847705,3.37723,183.823,1.29335,2.36561,-13.8699,-0.680533,0,185.888,-2.3087,0.000486374,0.000121615,1.28272e-05,0.86,94.5572,-15.5794,872.216
0.16,-0.192335,-0.00766602,0.330352,0.0664505,0.0622742,-0.10429,0.05778,-0.100347,-0.100647,0.327447,0.023022,-0.182809,1.98691e-08,-4.56731e-09,0.3,-0.3,-11.6716,-0.843637,3.40499,183.825,1.29406,2.36634,-13.8699,-0.680533,0,185.888,-2.3087,0.000486374,0.000121615,1.28272e-05,0.86,94.517,-15.4835,872.067
0.161,-0.192335,-0.00766602,0.330352,0.0664505,0.0622742,-0.10429,0.05778,-0.100347,-0.100647,0.327447,0.023022,-0.182809,1.98691e-08,-4.56731e-09,0.3,-0.3,-11.9075,-0.837143,3.43075,183.827,1.29494,2.36653,-13.8699,-0.680533,0,185.888,-2.3087,0.000486374,0.000121615,1.28272e-05,0.86,94.4762,-15.3867,871.919
0.162,-0.192335,-0.00766602,0.330352,0.0664505,0.0622742,-0.10429,0.05778,-0.100347,-0.100647,0.327447,0.023022,-0.182809,1.98691e-08,-4.56731e-09,0.3,-0.3,-12.133,-0.828204,3.45419,183.829,1.29596,2.36614,-13.8699,-0.680533,0,185.888,-2.3087,0.000486374,0.000121615,1.28272e-05,0.86,94.4354,-15.2899,871.774
0.163,-0.192335,-0.00766602,0.330352,0.0664505,0.0622742,-0.10429,0.05778,-0.100347,-0.100647,0.327447,0.023022,-0.182809,1.98691e-08,-4.56731e-09,0.3,-0.3,-12.3527,-0.816518,3.47571,183.831,1.29714,2.36514,-13.8699,-0.680533,0,185.888,-2.3087,0.000486374,0.000121615,1.28272e-05,0.86,94.3935,-15.1912,871.628
0.164,-0.192335,-0.00766602,0.330352,0.0664505,0.0622742,-0.10429,0.05778,-0.100347,-0.100647,0.327447,0.023022,-0.182809,1.98691e-08,-4.56731e-09,0.3,-0.3,-12.5642,-0.802036,3.495,183.834,1.29847,2.36348,-13.8699,-0.680533,0,185.888,-2.3087,0.000486374,0.000121615,1.28272e-05,0.86,94.3511,-15.0916,871.484
0.165,-0.192335,-0.00766602,0.330352,0.0664505,0.0622742,-0.10429,0.05778,-0.100347,-0.100647,0.327447,0.023022,-0.182809,1.98691e-08,-4.56731e-09,0.3,-0.3,-12.7677,-0.784627,3.512,183.837,1.29992,2.36113,-13.8699,-0.680533,0,185.888,-2.3087,0.000486374,0.000121615,1.28272e-05,0.86,94.3082,-14.9909,871.341
0.166,-0.192335,-0.00766602,0.330352,0.0664505,0.0622742,-0.10429,0.05778,-0.100347,-0.100647,0.327447,0.023022,-0.182809,1.98691e-08,-4.56731e-09,0.3,-0.3,-12.9631,-0.764167,3.52663,183.84,1.3015,2.35806,-13.8699,-0.680533,0,185.888,-2.3087,0.000486374,0.000121615,1.28272e-05,0.86,94.2647,-14.8894,871.199
0.167,-0.192335,-0.00766602,0.330352,0.0664505,0.0622742,-0.10429,0.05778,-0.100347,-0.100647,0.327447,0.023022,-0.182809,1.98691e-08,-4.56731e-09,0.3,-0.3,-13.1506,-0.740539,3.53886,183.843,1.30319,2.35423,-13.8699,-0.680533,0,185.888,-2.3087,0.000486374,0.000121615,1.28272e-05,0.86,94.2206,-14.7869,871.058
0.168,-0.192335,-0.00766602,0.330352,0.0664505,0.0622742,-0.10429,0.05778,-0.100347,-0.100647,0.327447,0.023022,-0.182809,1.98691e-08,-4.56731e-09,0.3,-0.3,-13.3304,-0.713634,3.54862,183.847,1.30499,2.3496,-13.8699,-0.680533,0,185.888,-2.3087,0.000486374,0.000121615,1.28272e-05,0.86,94.1759,-14.6834,870.918
0.169,-0.192335,-0.00766602,0.330352,0.0664505,0.0622742,-0.10429,0.05778,-0.100347,-0.100647,0.327447,0.023022,-0.182809,1.98691e-08,-4.56731e-09,0.3,-0.3,-13.5026,-0.683352,3.55586,183.85,1.30688,2.34414,-13.8699,-0.680533,0,185.888,-2.3087,0.000486374,0.000121615,1.28272e-05,0.86,94.1306,-14.5789,870.779
0.17,-0.192335,-0.00766602,0.330352,0.0664505,0.0622742,-0.10429,0.05778,-0.100347,-0.100647,0.327447,0.023022,-0.182809,1.98691e-08,-4.56731e-09,0.3,-0.3,-13.6674,-0.649601,3.56053,183.854,1.30886,2.33781,-13.8699,-0.680533,0,185.888,-2.3087,0.000486374,0.000121615,1.28272e-05,0.86,94.0846,-14.4735,870.642
0.171,-0.192335,-0.00766602,0.330352,0.0664505,0.0622742,-0.10429,0.05778,-0.100347,-0.100647,0.327447,0.023022,-0.182809,1.98691e-08,-4.56731e-09,0.3,-0.3,-13.8249,-0.612296,3.56256,183.858,1.31093,2.33056,-13.8699,-0.680533,0,185.888,-2.3087,0.000486374,0.000121615,1.28272e-05,0.86,94.0379,-14.3671,870.505
0.172,-0.192335,-0.00766602,0.330352,0.0664505,0.0622742,-0.10429,0.05778,-0.100347,-0.100647,0.327447,0.023022,-0.182809,1.98691e-08,-4.56731e-09,0.3,-0.3,-13.9755,-0.571361,3.56191,183.862,1.31307,2.32237,-13.8699,-0.680533,0,185.888,-2.3087,0.000486374,0.000121615,1.28272e-05,0.86,93.9905,-14.2597,870.37
0.173,-0.192335,-0.00766602,0.330352,0.0664505,0.0622742,-0.10429,0.05778,-0.100347,-0.100647,0.327447,0.023022,-0.182809,1.98691e-08,-4.56731e-09,0.3,-0.3,-14.1192,-0.526727,3.55853,183.867,1.31527,2.3132,-13.8699,-0.680533,0,185.888,-2.3087,0.000486374,0.000121615,1.28272e-05,0.86,93.9424,-14.1513,870.236
0.174,-0.192335,-0.00766602,0.330352,0.0664505,0.0622742,-0.10429,0.05778,-0.100347,-0.100647,0.327447,0.023022,-0.182809,1.98691e-08,-4.56731e-09,0.3,-0.3,-14.2563,-0.478333,3.55234,183.871,1.31753,2.30301,-13.8699,-0.680533,0,185.888,-2.3087,0.000486374,0.000121615,1.28272e-05,0.86,93.8934,-14.042,870.103
0.175,-0.192335,-0.00766602,0.330352,0.0664505,0.0622742,-0.10429,0.05778,-0.100347,-0.100647,0.327447,0.023022,-0.182809,1.98691e-08,-4.56731e-09,0.3,-0.3,-14.387,-0.42612,3.54331,183.875,1.31985,2.29177,-13.8699,-0.680533,0,185.888,-2.3087,0.000486374,0.000121615,1.28272e-05,0.86,93.8437,-13.9316,869.971
0.176,-0.192335,-0.00766602,0.330352,0.0664505,0.0622742,-0.10429,0.05778,-0.100347,-0.100647,0.327447,0.023022,-0.182809,1.98691e-08,-4.56731e-09,0.3,-0.3,-14.5116,-0.370037,3.53136,183.88,1.32222,2.27944,-13.8699,-0.680533,0,185.888,-2.3087,0.000486374,0.000121615,1.28272e-05,0.86,93.7931,-13.8203,869.84
0.177,-0.192335,-0.00766602,0.330352,0.0664505,0.0622742,-0.10429,0.05778,-0.100347,-0.100647,0.327447,0.023022,-0.182809,1.98691e-08,-4.56731e-09,0.3,-0.3,-14.6301,-0.310031,3.51643,183.884,1.32463,2.266,-13.8699,-0.680533,0,185.888,-2.3087,0.000486374,0.000121615,1.28272e-05,0.86,93.7417,-13.7079,869.71
0.178,-0.192335,-0.00766602,0.330352,0.0664505,0.0622742,-0.10429,0.05778,-0.100347,-0.100647,0.327447,0.023022,-0.182809,1.98691e-08,-4.56731e-09,0.3,-0.3,-14.7428,-0.246048,3.49848,183.889,1.32709,2.25139,-13.8699,-0.680533,0,185.888,-2.3087,0.000486374,0.000121615,1.28272e-05,0.86,93.6893,-13.5946,869.582
0.179,-0.192335,-0.00766602,0.330352,0.0664505,0.0622742,-0.10429,0.05778,-0.100347,-0.100647,0.327447,0.023022,-0.182809,1.98691e-08,-4.56731e-09,0.3,-0.3,-14.8499,-0.178033,3.47743,183.893,1.32958,2.23561,-13.8699,-0.680533,0,185.888,-2.3087,0.000486374,0.000121615,1.28272e-05,0.86,93.6361,-13.4802,869.454
0.18,-0.192335,-0.00766602,0.330352,0.0664505,0.0622742,-0.10429,0.05778,-0.100347,-0.100647,0.327447,0.023022,-0.182809,1.98691e-08,-4.56731e-09,0.3,-0.3,-14.9516,-0.105925,3.45321,183.898,1.33211,2.21861,-13.8699,-0.680533,0,185.888,-2.3087,0.000486374,0.000121615,1.28272e-05,0.86,93.5819,-13.3649,869.328
0.181,-0.192335,-0.00766602,0.330352,0.0664505,0.0622742,-0.10429,0.05778,-0.100347,-0.100647,0.327447,0.023022,-0.182809,1.98691e-08,-4.56731e-09,0.3,-0.3,-15.0481,-0.029663,3.42577,183.902,1.33466,2.20035,-13.8699,-0.680533,0,185.888,-2.3087,0.000486374,0.000121615,1.28272e-05,0.86,93.5267,-13.2485,869.203
0.182,-0.192335,-0.00766602,0.330352,0.0664505,0.0622742,-0.10429,0.05778,-0.100347,-0.100647,0.327447,0.023022,-0.182809,1.98691e-08,-4.56731e-09,0.3,-0.3,-15.102,0.0160332,3.40864,183.905,1.33615,2.18932,-13.8699,-0.680533,0,185.888,-2.3087,0.000486374,0.000121615,1.28272e-05,0.86,93.4945,-13.1809,869.131
0.183,-0.192335,-0.00766602,0.330352,0.0664505,0.0622742,-0.10429,0.05778,-0.100347,-0.100647,0.327447,0.023022,-0.182809,1.98691e-08,-4.56731e-09,0.3,-0.3,-15.1906,0.0989782,3.37599,183.91,1.33876,2.16904,-13.8699,-0.680533,0,185.888,-2.3087,0.000486374,0.000121615,1.28272e-05,0.86,93.4378,-13.0629,869.007
0.184,-0.192335,-0.00766602,0.330352,0.0664505,0.0622742,-0.10429,0.05778,-0.100347,-0.100647,0.327447,0.023022,-0.182809,1.98691e-08,-4.56731e-09,0.3,-0.3,-15.2745,0.186248,3.33994,183.915,1.3414,2.14745,-13.8699,-0.680533,0,185.888,-2.3087,0.000486374,0.000121615,1.28272e-05,0.86,93.3801,-12.9439,868.885
0.185,-0.192335,-0.00766602,0.330352,0.0664505,0.0622742,-0.10429,0.05778,-0.100347,-0.100647,0.327447,0.023022,-0.182809,1.98691e-08,-4.56731e-09,0.3,-0.3,-15.3538,0.277914,3.30044,183.919,1.34407,2.12451,-13.8699,-0.680533,0,185.888,-2.3087,0.000486374,0.000121615,1.28272e-05,0.86,93.3213,-12.8238,868.764
0.186,-0.192335,-0.00766602,0.330352,0.0664505,0.0622742,-0.10429,0.05778,-0.100347,-0.100647,0.327447,0.023022,-0.182809,1.98691e-08,-4.56731e-09,0.3,-0.3,-15.4287,0.374054,3.25744,183.924,1.34677,2.1002,-13.8699,-0.680533,0,185.888,-2.3087,0.000486374,0.000121615,1.28272e-05,0.86,93.2615,-12.7028,868.644
0.187,-0.192335,-0.00766602,0.330352,0.0664505,0.0622742,-0.10429,0.05778,-0.100347,-0.100647,0.327447,0.023022,-0.182809,1.98691e-08,-4.56731e-09,0.3,-0.3,-15.4992,0.474754,3.21086,183.929,1.34951,2.07449,-13.8699,-0.680533,0,185.888,-2.3087,0.000486374,0.000121615,1.28272e-05,0.86,93.2007,-12.5806,868.525
0.188,-0.192335,-0.00766602,0.330352,0.0664505,0.0622742,-0.10429,0.05778,-0.100347,-0.100647,0.327447,0.023022,-0.182809,1.98691e-08,-4.56731e-09,0.3,-0.3,-15.5656,0.580105,3.16065,183.934,1.35229,2.04735,-13.8699,-0.680533,0,185.888,-2.3087,0.000486374,0.000121615,1.28272e-05,0.86,93.1388,-12.4574,868.407
0.189,-0.192335,-0.00766602,0.330352,0.0664505,0.0622742,-0.10429,0.05778,-0.100347,-0.100647,0.327447,0.023022,-0.182809,1.98691e-08,-4.56731e-09,0.3,-0.3,-15.6279,0.690204,3.10675,183.939,1.35512,2.01877,-13.8699,-0.680533,0,185.888,-2.3087,0.000486374,0.000121615,1.28272e-05,0.86,93.0758,-12.3332,868.291
0.19,-0.192335,-0.00766602,0.330352,0.0664505,0.0622742,-0.10429,0.05778,-0.100347,-0.100647,0.327447,0.023022,-0.182809,1.98691e-08,-4.56731e-09,0.3,-0.3,-15.6863,0.805152,3.04911,183.944,1.35799,1.98871,-13.8699,-0.680533,0,185.888,-2.3087,0.000486374,0.000121615,1.28272e-05,0.86,93.0118,-12.2079,868.175
0.191,-0.192335,-0.00766602,0.330352,0.0664505,0.0622742,-0.10429,0.05778,-0.100347,-0.100647,0.327447,0.023022,-0.182809,1.98691e-08,-4.56731e-09,0.3,-0.3,-15.7407,0.925056,2.98768,183.949,1.36092,1.95716,-13.8699,-0.680533,0,185.888,-2.3087,0.000486374,0.000121615,1.28272e-05,0.86,92.9466,-12.0815,868.061
0.192,-0.192335,-0.00766602,0.330352,0.0664505,0.0622742,-0.10429,0.05778,-0.100347,-0.100647,0.327447,0.023022,-0.182809,1.98691e-08,-4.56731e-09,0.3,-0.3,-15.7914,1.05003,2.9224,183.954,1.3639,1.92409,-13.8699,-0.680533,0,185.888,-2.3087,0.000486374,0.000121615,1.28272e-05,0.86,92.8803,-11.954,867.948
0.193,-0.192335,-0.00766602,0.330352,0.0664505,0.0622742,-0.10429,0.05778,-0.100347,-0.100647,0.327447,0.023022,-0.182809,1.98691e-08,-4.56731e-09,0.3,-0.3,-15.8384,1.18017,2.85322,183.959,1.36694,1.88948,-13.8699,-0.680533,0,185.888,-2.3087,0.000486374,0.000121615,1.28272e-05,0.86,92.813,-11.8254,867.836
0.194,-0.192335,-0.00766602,0.330352,0.0664505,0.0622742,-0.10429,0.05778,-0.100347,-0.100647,0.327447,0.023022,-0.182809,1.98691e-08,-4.56731e-09,0.3,-0.3,-15.8818,1.31562,2.78009,183.964,1.37005,1.85331,-13.8699,-0.680533,0,185.888,-2.3087,0.000486374,0.000121615,1.28272e-05,0.86,92.7445,-11.6957,867.725
0.195,-0.192335,-0.00766602,0.330352,0.0664505,0.0622742,-0.10429,0.05778,-0.100347,-0.100647,0.327447,0.023022,-0.182809,1.98691e-08,-4.56731e-09,0.3,-0.3,-15.9215,1.45648,2.70296,183.97,1.37323,1.81556,-13.8699,-0.680533,0,185.888,-2.3087,0.000486374,0.000121615,1.28272e-05,0.86,92.6749,-11.5649,867.616
0.196,-0.192335,-0.00766602,0.330352,0.0664505,0.0622742,-0.10429,0.05778,-0.100347,-0.100647,0.327447,0.023022,-0.182809,1.98691e-08,-4.56731e-09,0.3,-0.3,-15.9576,1.60289,2.62178,183.975,1.37648,1.77621,-13.8699,-0.680533,0,185.888,-2.3087,0.000486374,0.000121615,1.28272e-05,0.86,92.6041,-11.4329,867.508
0.197,-0.192335,-0.00766602,0.330352,0.0664505,0.0622742,-0.10429,0.05778,-0.100347,-0.100647,0.327447,0.023022,-0.182809,1.98691e-08,-4.56731e-09,0.3,-0.3,-15.9855,1.73876,2.54266,183.981,1.3797,1.73584,-13.8699,-0.680533,0,185.888,-2.3087,0.000486374,0.000121615,1.28272e-05,0.86,92.5326,-11.3007,867.402
0.198,-0.192335,-0.00766602,0.330352,0.0664505,0.0622742,-0.10429,0.05778,-0.100347,-0.100647,0.327447,0.023022,-0.182809,1.98691e-08,-4.56731e-09,0.3,-0.3,-15.9763,1.75937,2.50596,183.985,1.38216,1.69881,-13.8699,-0.680533,0,185.888,-2.3087,0.000486374,0.000121615,1.28272e-05,0.86,92.4625,-11.1735,867.311
0.199,-0.192335,-0.00766602,0.330352,0.0664505,0.0622742,-0.10429,0.05778,-0.100347,-0.100647,0.327447,0.023022,-0.182809,1.98691e-08,-4.56731e-09,0.3,-0.3,-15.9617,1.76558,2.47676,183.99,1.38487,1.66434,-13.8699,-0.680533,0,185.888,-2.3087,0.000486374,0.000121615,1.28272e-05,0.86,92.3923,-11.0472,867.232
0.2,-0.192335,-0.00766602,0.330352,0.0664505,0.0622742,-0.10429,0.05778,-0.100347,-0.100647,0.327447,0.023022,-0.182809,1.98691e-08,-4.56731e-09,0.3,-0.3,-15.946,1.77175,2.43859,183.995,1.38793,1.63235,-13.8699,-0.680533,0,185.888,-2.3087,0.000486374,0.000121615,1.28272e-05,0.86,92.3221,-10.9214,867.164
0.201,-0.192335,-0.00766602,0.330352,0.0664505,0.0622742,-0.10429,0.05778,-0.100347,-0.100647,0.327447,0.023022,-0.182809,1.98691e-08,-4.56731e-09,0.3,-0.3,-15.929,1.77835,2.39324,184.044,1.44203,1.59683,-13.8699,-0.680533,0,185.888,-2.3087,0.000486374,0.000121615,1.28272e-05,0.86,92.0999,-10.8858,867.071
0.202,-0.192335,-0.00766602,0.330352,0.0664505,0.0622742,-0.10429,0.05778,-0.100347,-0.100647,0.327447,0.023022,-0.182809,1.98691e-08,-4.56731e-09,0.3,-0.3,-15.9026,1.78789,2.32368,184.013,1.39753,1.56334,-13.8699,-0.680533,0,185.888,-2.3087,0.000486374,0.000121615,1.28272e-05,0.86,92.1517,-10.6167,867.043
0.203,-0.192335,-0.00766602,0.330352,0.0664505,0.0622742,-0.10429,0.05778,-0.100347,-0.100647,0.327447,0.023022,-0.182809,1.98691e-08,-4.56731e-09,0.3,-0.3,-15.8835,1.7945,2.27463,184.023,1.40254,1.53779,-13.8699,-0.680533,0,185.888,-2.3087,0.000486374,0.000121615,1.28272e-05,0.86,92.0819,-10.4915,867.009
0.204,-0.192335,-0.00766602,0.330352,0.0664505,0.0622742,-0.10429,0.05778,-0.100347,-0.100647,0.327447,0.023022,-0.182809,1.98691e-08,-4.56731e-09,0.3,-0.3,-15.8637,1.80115,2.22692,184.035,1.40865,1.5107,-13.8699,-0.680533,0,185.888,-2.3087,0.000486374,0.000121615,1.28272e-05,0.86,92.0127,-10.367,866.981
0.205,-0.192335,-0.00766602,0.330352,0.0664505,0.0622742,-0.10429,0.05778,-0.100347,-0.100647,0.327447,0.023022,-0.182809,1.98691e-08,-4.56731e-09,0.3,-0.3,-15.8436,1.80813,2.18004,184.05,1.41622,1.48055,-13.8699,-0.680533,0,185.888,-2.3087,0.000486374,0.000121615,1.28272e-05,0.86,91.9448,-10.2442,866.956
0.206,-0.192335,-0.00766602,0.330352,0.0664505,0.0622742,-0.10429,0.05778,-0.100347,-0.100647,0.327447,0.023022,-0.182809,1.98691e-08,-4.56731e-09,0.3,-0.3,-15.8237,1.81567,2.13327,184.067,1.42512,1.44878,-13.8699,-0.680533,0,185.888,-2.3087,0.000486374,0.000121615,1.28272e-05,0.86,91.8782,-10.1231,866.934
0.207,-0.192335,-0.00766602,0.330352,0.0664505,0.0622742,-0.10429,0.05778,-0.100347,-0.100647,0.327447,0.023022,-0.182809,1.98691e-08,-4.56731e-09,0.3,-0.3,-15.799,1.81911,2.08684,184.087,1.43508,1.41615,-13.8699,-0.680533,0,185.888,-2.3087,0.000486374,0.000121615,1.28272e-05,0.86,91.8125,-10.0036,866.914
0.208,-0.192335,-0.00766602,0.330352,0.0664505,0.0622742,-0.10429,0.05778,-0.100347,-0.100647,0.327447,0.023022,-0.182809,1.98691e-08,-4.56731e-09,0.3,-0.3,-15.7635,1.81091,2.03987,184.108,1.44563,1.38332,-13.8699,-0.680533,0,185.888,-2.3087,0.000486374,0.000121615,1.28272e-05,0.86,91.7473,-9.88512,866.894
0.209,-0.192335,-0.00766602,0.330352,0.0664505,0.0622742,-0.10429,0.05778,-0.100347,-0.100647,0.327447,0.023022,-0.182809,1.98691e-08,-4.56731e-09,0.3,-0.3,-15.7254,1.80077,1.99708,184.13,1.45638,1.35151,-13.8699,-0.680533,0,185.888,-2.3087,0.000486374,0.000121615,1.28272e-05,0.86,91.682,-9.76712,866.874
0.21,-0.192335,-0.00766602,0.330352,0.0664505,0.0622742,-0.10429,0.05778,-0.100347,-0.100647,0.327447,0.023022,-0.182809,1.98691e-08,-4.56731e-09,0.3,-0.3,-15.6909,1.79708,1.95711,184.151,1.46701,1.3222,-13.8699,-0.680533,0,185.888,-2.3087,0.000486374,0.000121615,1.28272e-05,0.86,91.6159,-9.64888,866.855
0.211,-0.192335,-0.00766602,0.330352,0.0664505,0.0622742,-0.10429,0.05778,-0.100347,-0.100647,0.327447,0.023022,-0.182809,1.98691e-08,-4.56731e-09,0.3,-0.3,-15.6591,1.79697,1.91487,184.276,1.48955,1.46613,-13.8699,-0.680533,0,185.888,-2.3087,0.000486374,0.000121615,1.28272e-05,0.86,90.5601,-8.87023,866.905
0.212,-0.192335,-0.00766602,0.330352,0.0664505,0.0622742,-0.10429,0.05778,-0.100347,-0.100647,0.327447,0.023022,-0.182809,1.98691e-08,-4.56731e-09,0.3,-0.3,-15.6368,1.80143,1.87489,184.191,1.4866,1.27768,-13.8699,-0.680533,0,185.888,-2.3087,0.000486374,0.000121615,1.28272e-05,0.86,91.4785,-9.4082,866.828
0.213,-0.192335,-0.00766602,0.330352,0.0664505,0.0622742,-0.10429,0.05778,-0.100347,-0.100647,0.327447,0.023022,-0.182809,1.98691e-08,-4.56731e-09,0.3,-0.3,-15.6249,1.81482,1.84221,184.208,1.49503,1.26607,-13.8699,-0.680533,0,185.888,-2.3087,0.000486374,0.000121615,1.28272e-05,0.86,91.4059,-9.28379,866.825
0.214,-0.192335,-0.00766602,0.330352,0.0664505,0.0622742,-0.10429,0.05778,-0.100347,-0.100647,0.327447,0.023022,-0.182809,1.98691e-08,-4.56731e-09,0.3,-0.3,-15.6069,1.82194,1.81598,184.225,1.50333,1.25456,-13.8699,-0.680533,0,185.888,-2.3087,0.000486374,0.000121615,1.28272e-05,0.86,91.3312,-9.15745,866.824
0.215,-0.192335,-0.00766602,0.330352,0.0664505,0.0622742,-0.10429,0.05778,-0.100347,-0.100647,0.327447,0.023022,-0.182809,1.98691e-08,-4.56731e-09,0.3,-0.3,-15.5807,1.81077,1.79957,184.243,1.51223,1.23786,-13.8699,-0.680533,0,185.888,-2.3087,0.000486374,0.000121615,1.28272e-05,0.86,91.2556,-9.03067,866.821
0.216,-0.192335,-0.00766602,0.330352,0.0664505,0.0622742,-0.10429,0.05778,-0.100347,-0.100647,0.327447,0.023022,-0.182809,1.98691e-08,-4.56731e-09,0.3,-0.3,-15.5526,1.7889,1.78904,184.263,1.5218,1.21794,-13.8699,-0.680533,0,185.888,-2.3087,0.000486374,0.000121615,1.28272e-05,0.86,91.1792,-8.90373,866.817
0.217,-0.192335,-0.00766602,0.330352,0.0664505,0.0622742,-0.10429,0.05778,-0.100347,-0.100647,0.327447,0.023022,-0.182809,1.98691e-08,-4.56731e-09,0.3,-0.3,-15.5234,1.76337,1.77736,184.284,1.53202,1.19612,-13.8699,-0.680533,0,185.888,-2.3087,0.000486374,0.000121615,1.28272e-05,0.86,91.102,-8.7767,866.812
0.218,-0.192335,-0.00766602,0.330352,0.0664505,0.0622742,-0.10429,0.05778,-0.100347,-0.100647,0.327447,0.023022,-0.182809,1.98691e-08,-4.56731e-09,0.3,-0.3,-15.4935,1.73651,1.76354,184.305,1.54274,1.1736,-13.8699,-0.680533,0,185.888,-2.3087,0.000486374,0.000121615,1.28272e-05,0.86,91.024,-8.64948,866.806
0.219,-0.192335,-0.00766602,0.330352,0.0664505,0.0622742,-0.10429,0.05778,-0.100347,-0.100647,0.327447,0.023022,-0.182809,1.98691e-08,-4.56731e-09,0.3,-0.3,-15.4626,1.70843,1.74729,184.328,1.5537,1.15149,-13.8699,-0.680533,0,185.888,-2.3087,0.000486374,0.000121615,1.28272e-05,0.86,90.945,-8.52189,866.8
0.22,-0.192335,-0.00766602,0.330352,0.0664505,0.0622742,-0.10429,0.05778,-0.100347,-0.100647,0.327447,0.023022,-0.182809,1.98691e-08,-4.56731e-09,0.3,-0.3,-15.4295,1.6777,1.72878,184.35,1.56462,1.13089,-13.8699,-0.680533,0,185.888,-2.3087,0.000486374,0.000121615,1.28272e-05,0.86,90.8646,-8.39365,866.794
0.221,-0.192335,-0.00766602,0.330352,0.0664505,0.0622742,-0.10429,0.05778,-0.100347,-0.100647,0.327447,0.023022,-0.182809,1.98691e-08,-4.56731e-09,0.3,-0.3,-15.3931,1.64186,1.70841,184.403,1.7155,1.17713,-13.8699,-0.680533,0,185.888,-2.3087,0.000486374,0.000121615,1.28272e-05,0.86,90.3221,-8.21393,866.809
0.222,-0.192335,-0.00766602,0.330352,0.0664505,0.0622742,-0.10429,0.05778,-0.100347,-0.100647,0.327447,0.023022,-0.182809,1.98691e-08,-4.56731e-09,0.3,-0.3,-15.3509,1.59651,1.68623,184.392,1.58532,1.09822,-13.8699,-0.680533,0,185.888,-2.3087,0.000486374,0.000121615,1.28272e-05,0.86,90.6961,-8.13008,866.786
0.223,-0.192335,-0.00766602,0.330352,0.0664505,0.0622742,-0.10429,0.05778,-0.100347,-0.100647,0.327447,0.023022,-0.182809,1.98691e-08,-4.56731e-09,0.3,-0.3,-15.3038,1.5406,1.66428,184.411,1.59414,1.08884,-13.8699,-0.680533,0,185.888,-2.3087,0.000486374,0.000121615,1.28272e-05,0.86,90.6093,-7.99753,866.786
0.224,-0.192335,-0.00766602,0.330352,0.0664505,0.0622742,-0.10429,0.05778,-0.100347,-0.100647,0.327447,0.023022,-0.182809,1.98691e-08,-4.56731e-09,0.3,-0.3,-15.2522,1.47003,1.64746,184.429,1.60286,1.07929,-13.8699,-0.680533,0,185.888,-2.3087,0.000486374,0.000121615,1.28272e-05,0.86,90.5203,-7.86336,866.788
0.225,-0.192335,-0.00766602,0.330352,0.0664505,0.0622742,-0.10429,0.05778,-0.100347,-0.100647,0.327447,0.023022,-0.182809,1.98691e-08,-4.56731e-09,0.3,-0.3,-15.202,1.39152,1.63526,184.448,1.61235,1.06651,-13.8699,-0.680533,0,185.888,-2.3087,0.000486374,0.000121615,1.28272e-05,0.86,90.4295,-7.72822,866.79
0.226,-0.192335,-0.00766602,0.330352,0.0664505,0.0622742,-0.10429,0.05778,-0.100347,-0.100647,0.327447,0.023022,-0.182809,1.98691e-08,-4.56731e-09,0.3,-0.3,-15.1566,1.3136,1.62406,184.469,1.62269,1.05164,-13.8699,-0.680533,0,185.888,-2.3087,0.000486374,0.000121615,1.28272e-05,0.86,90.3371,-7.59248,866.792
0.227,-0.192335,-0.00766602,0.330352,0.0664505,0.0622742,-0.10429,0.05778,-0.100347,-0.100647,0.327447,0.023022,-0.182809,1.98691e-08,-4.56731e-09,0.3,-0.3,-15.1168,1.23956,1.61286,184.492,1.63377,1.03554,-13.8699,-0.680533,0,185.888,-2.3087,0.000486374,0.000121615,1.28272e-05,0.86,90.2432,-7.4563,866.794
0.228,-0.192335,-0.00766602,0.330352,0.0664505,0.0622742,-0.10429,0.05778,-0.100347,-0.100647,0.327447,0.023022,-0.182809,1.98691e-08,-4.56731e-09,0.3,-0.3,-15.0819,1.17014,1.60095,184.516,1.64535,1.01902,-13.8699,-0.680533,0,185.888,-2.3087,0.000486374,0.000121615,1.28272e-05,0.86,90.1479,-7.3197,866.796
0.229,-0.192335,-0.00766602,0.330352,0.0664505,0.0622742,-0.10429,0.05778,-0.100347,-0.100647,0.327447,0.023022,-0.182809,1.98691e-08,-4.56731e-09,0.3,-0.3,-15.0508,1.10444,1.58802,184.54,1.65716,1.00215,-13.8699,-0.680533,0,185.888,-2.3087,0.000486374,0.000121615,1.28272e-05,0.86,90.0512,-7.18257,866.797
0.23,-0.192335,-0.00766602,0.330352,0.0664505,0.0622742,-0.10429,0.05778,-0.100347,-0.100647,0.327447,0.023022,-0.182809,1.98691e-08,-4.56731e-09,0.3,-0.3,-15.0227,1.04093,1.5724,184.564,1.66883,0.984922,-13.8699,-0.680533,0,185.888,-2.3087,0.000486374,0.000121615,1.28272e-05,0.86,89.9531,-7.04471,866.795
0.231,-0.192335,-0.00766602,0.330352,0.0664505,0.0622742,-0.10429,0.05778,-0.100347,-0.100647,0.327447,0.023022,-0.182809,1.98691e-08,-4.56731e-09,0.3,-0.3,-14.997,0.977619,1.55215,184.608,1.80386,0.834761,-13.8699,-0.680533,0,185.888,-2.3087,0.000486374,0.000121615,1.28272e-05,0.86,90.2513,-7.32225,866.715
0.232,-0.192335,-0.00766602,0.330352,0.0664505,0.0622742,-0.10429,0.05778,-0.100347,-0.100647,0.327447,0.023022,-0.182809,1.98691e-08,-4.56731e-09,0.3,-0.3,-14.9719,0.911994,1.52693,184.608,1.68995,0.951925,-13.8699,-0.680533,0,185.888,-2.3087,0.000486374,0.000121615,1.28272e-05,0.86,89.7525,-6.76559,866.784
0.233,-0.192335,-0.00766602,0.330352,0.0664505,0.0622742,-0.10429,0.05778,-0.100347,-0.100647,0.327447,0.023022,-0.182809,1.98691e-08,-4.56731e-09,0.3,-0.3,-14.9459,0.841304,1.49735,184.626,1.6986,0.937672,-13.8699,-0.680533,0,185.888,-2.3087,0.000486374,0.000121615,1.28272e-05,0.86,89.6495,-6.62347,866.776
0.234,-0.192335,-0.00766602,0.330352,0.0664505,0.0622742,-0.10429,0.05778,-0.100347,-0.100647,0.327447,0.023022,-0.182809,1.98691e-08,-4.56731e-09,0.3,-0.3,-14.919,0.763173,1.46685,184.642,1.70622,0.920883,-13.8699,-0.680533,0,185.888,-2.3087,0.000486374,0.000121615,1.28272e-05,0.86,89.5448,-6.47943,866.764
0.235,-0.192335,-0.00766602,0.330352,0.0664505,0.0622742,-0.10429,0.05778,-0.100347,-0.100647,0.327447,0.023022,-0.182809,1.98691e-08,-4.56731e-09,0.3,-0.3,-14.8946,0.681884,1.43393,184.656,1.7133,0.89888,-13.8699,-0.680533,0,185.888,-2.3087,0.000486374,0.000121615,1.28272e-05,0.86,89.4387,-6.33373,866.746
0.236,-0.192335,-0.00766602,0.330352,0.0664505,0.0622742,-0.10429,0.05778,-0.100347,-0.100647,0.327447,0.023022,-0.182809,1.98691e-08,-4.56731e-09,0.3,-0.3,-14.875,0.603799,1.39546,184.67,1.71997,0.872789,-13.8699,-0.680533,0,185.888,-2.3087,0.000486374,0.000121615,1.28272e-05,0.86,89.3315,-6.1865,866.724
0.237,-0.192335,-0.00766602,0.330352,0.0664505,0.0622742,-0.10429,0.05778,-0.100347,-0.100647,0.327447,0.023022,-0.182809,1.98691e-08,-4.56731e-09,0.3,-0.3,-14.8602,0.532317,1.35159,184.683,1.72631,0.843685,-13.8699,-0.680533,0,185.888,-2.3087,0.000486374,0.000121615,1.28272e-05,0.86,89.2232,-6.0377,866.696
0.238,-0.192335,-0.00766602,0.330352,0.0664505,0.0622742,-0.10429,0.05778,-0.100347,-0.100647,0.327447,0.023022,-0.182809,1.98691e-08,-4.56731e-09,0.3,-0.3,-14.8493,0.469155,1.30331,184.695,1.73238,0.812584,-13.8699,-0.680533,0,185.888,-2.3087,0.000486374,0.000121615,1.28272e-05,0.86,89.1137,-5.88724,866.666
0.239,-0.192335,-0.00766602,0.330352,0.0664505,0.0622742,-0.10429,0.05778,-0.100347,-0.100647,0.327447,0.023022,-0.182809,1.98691e-08,-4.56731e-09,0.3,-0.3,-14.8411,0.414842,1.25164,184.707,1.73824,0.780426,-13.8699,-0.680533,0,185.888,-2.3087,0.000486374,0.000121615,1.28272e-05,0.86,89.0029,-5.73503,866.633
0.24,-0.192335,-0.00766602,0.330352,0.0664505,0.0622742,-0.10429,0.05778,-0.100347,-0.100647,0.327447,0.023022,-0.182809,1.98691e-08,-4.56731e-09,0.3,-0.3,-14.8345,0.36907,1.19753,184.718,1.74392,0.748104,-13.8699,-0.680533,0,185.888,-2.3087,0.000486374,0.000121615,1.28272e-05,0.86,88.8909,-5.58098,866.598
0.241,-0.192335,-0.00766602,0.330352,0.0664505,0.0622742,-0.10429,0.05778,-0.100347,-0.100647,0.327447,0.023022,-0.182809,1.98691e-08,-4.56731e-09,0.3,-0.3,-14.8283,0.330959,1.14179,184.825,1.5172,0.567047,-13.8699,-0.680533,0,185.888,-2.3087,0.000486374,0.000121615,1.28272e-05,0.86,89.1802,-5.53433,866.475
0.242,-0.192335,-0.00766602,0.330352,0.0664505,0.0622742,-0.10429,0.05778,-0.100347,-0.100647,0.327447,0.023022,-0.182809,1.98691e-08,-4.56731e-09,0.3,-0.3,-14.8237,0.308415,1.10299,184.737,1.7531,0.695557,-13.8699,-0.680533,0,185.888,-2.3087,0.000486374,0.000121615,1.28272e-05,0.86,88.6989,-5.31668,866.539
0.243,-0.192335,-0.00766602,0.330352,0.0664505,0.0622742,-0.10429,0.05778,-0.100347,-0.100647,0.327447,0.023022,-0.182809,1.98691e-08,-4.56731e-09,0.3,-0.3,-14.8158,0.280298,1.04621,184.747,1.75829,0.66696,-13.8699,-0.680533,0,185.888,-2.3087,0.000486374,0.000121615,1.28272e-05,0.86,88.583,-5.15718,866.504
0.244,-0.192335,-0.00766602,0.330352,0.0664505,0.0622742,-0.10429,0.05778,-0.100347,-0.100647,0.327447,0.023022,-0.182809,1.98691e-08,-4.56731e-09,0.3,-0.3,-14.806,0.256608,0.989834,184.759,1.76383,0.639406,-13.8699,-0.680533,0,185.888,-2.3087,0.000486374,0.000121615,1.28272e-05,0.86,88.4658,-4.99546,866.469
0.245,-0.192335,-0.00766602,0.330352,0.0664505,0.0622742,-0.10429,0.05778,-0.100347,-0.100647,0.327447,0.023022,-0.182809,1.98691e-08,-4.56731e-09,0.3,-0.3,-14.795,0.238574,0.933436,184.774,1.77119,0.60861,-13.8699,-0.680533,0,185.888,-2.3087,0.000486374,0.000121615,1.28272e-05,0.86,88.3477,-4.83156,866.431
0.246,-0.192335,-0.00766602,0.330352,0.0664505,0.0622742,-0.10429,0.05778,-0.100347,-0.100647,0.327447,0.023022,-0.182809,1.98691e-08,-4.56731e-09,0.3,-0.3,-14.7838,0.228848,0.873721,184.792,1.7801,0.575169,-13.8699,-0.680533,0,185.888,-2.3087,0.000486374,0.000121615,1.28272e-05,0.86,88.2288,-4.66572,866.391
0.247,-0.192335,-0.00766602,0.330352,0.0664505,0.0622742,-0.10429,0.05778,-0.100347,-0.100647,0.327447,0.023022,-0.182809,1.98691e-08,-4.56731e-09,0.3,-0.3,-14.7721,0.228435,0.81046,184.813,1.79011,0.539717,-13.8699,-0.680533,0,185.888,-2.3087,0.000486374,0.000121615,1.28272e-05,0.86,88.1089,-4.49806,866.346
0.248,-0.192335,-0.00766602,0.330352,0.0664505,0.0622742,-0.10429,0.05778,-0.100347,-0.100647,0.327447,0.023022,-0.182809,1.98691e-08,-4.56731e-09,0.3,-0.3,-14.7591,0.237446,0.744467,184.835,1.80067,0.502869,-13.8699,-0.680533,0,185.888,-2.3087,0.000486374,0.000121615,1.28272e-05,0.86,87.9881,-4.32866,866.3
0.249,-0.192335,-0.00766602,0.330352,0.0664505,0.0622742,-0.10429,0.05778,-0.100347,-0.100647,0.327447,0.023022,-0.182809,1.98691e-08,-4.56731e-09,0.3,-0.3,-14.7444,0.255281,0.676739,184.857,1.81124,0.465225,-13.8699,-0.680533,0,185.888,-2.3087,0.000486374,0.000121615,1.28272e-05,0.86,87.8661,-4.15759,866.251
0.25,-0.192335,-0.00766602,0.330352,0.0664505,0.0622742,-0.10429,0.05778,-0.100347,-0.100647,0.327447,0.023022,-0.182809,1.98691e-08,-4.56731e-09,0.3,-0.3,-14.7278,0.280762,0.608236,184.878,1.82129,0.427378,-13.8699,-0.680533,0,185.888,-2.3087,0.000486374,0.000121615,1.28272e-05,0.86,87.7427,-3.98495,866.202
0.251,-0.192335,-0.00766602,0.330352,0.0664505,0.0622742,-0.10429,0.05778,-0.100347,-0.100647,0.327447,0.023022,-0.182809,1.98691e-08,-4.56731e-09,0.3,-0.3,-14.7095,0.31224,0.539862,184.999,1.50432,0.291277,-13.8699,-0.680533,0,185.888,-2.3087,0.000486374,0.000121615,1.28272e-05,0.86,87.7285,-3.42531,866.077
0.252,-0.192335,-0.00766602,0.330352,0.0664505,0.0622742,-0.10429,0.05778,-0.100347,-0.100647,0.327447,0.023022,-0.182809,1.98691e-08,-4.56731e-09,0.3,-0.3,-14.689,0.347976,0.473708,184.912,1.81943,0.372253,-13.8699,-0.680533,0,185.888,-2.3087,0.000486374,0.000121615,1.28272e-05,0.86,87.4936,-3.63493,866.11
0.253,-0.192335,-0.00766602,0.330352,0.0664505,0.0622742,-0.10429,0.05778,-0.100347,-0.100647,0.327447,0.023022,-0.182809,1.98691e-08,-4.56731e-09,0.3,-0.3,-14.6647,0.386985,0.413068,184.922,1.81463,0.351681,-13.8699,-0.680533,0,185.888,-2.3087,0.000486374,0.000121615,1.28272e-05,0.86,87.3686,-3.45704,866.07
0.254,-0.192335,-0.00766602,0.330352,0.0664505,0.0622742,-0.10429,0.05778,-0.100347,-0.100647,0.327447,0.023022,-0.182809,1.98691e-08,-4.56731e-09,0.3,-0.3,-14.6393,0.428718,0.355745,184.929,1.81169,0.332186,-13.8699,-0.680533,0,185.888,-2.3087,0.000486374,0.000121615,1.28272e-05,0.86,87.2431,-3.27735,866.032
0.255,-0.192335,-0.00766602,0.330352,0.0664505,0.0622742,-0.10429,0.05778,-0.100347,-0.100647,0.327447,0.023022,-0.182809,1.98691e-08,-4.56731e-09,0.3,-0.3,-14.6136,0.471777,0.30098,184.935,1.80908,0.311899,-13.8699,-0.680533,0,185.888,-2.3087,0.000486374,0.000121615,1.28272e-05,0.86,87.1173,-3.09606,865.996
0.256,-0.192335,-0.00766602,0.330352,0.0664505,0.0622742,-0.10429,0.05778,-0.100347,-0.100647,0.327447,0.023022,-0.182809,1.98691e-08,-4.56731e-09,0.3,-0.3,-14.5879,0.512631,0.249289,184.941,1.80662,0.29113,-13.8699,-0.680533,0,185.888,-2.3087,0.000486374,0.000121615,1.28272e-05,0.86,86.9913,-2.91331,865.962
0.257,-0.192335,-0.00766602,0.330352,0.0664505,0.0622742,-0.10429,0.05778,-0.100347,-0.100647,0.327447,0.023022,-0.182809,1.98691e-08,-4.56731e-09,0.3,-0.3,-14.5623,0.54929,0.20039,184.947,1.80422,0.26988,-13.8699,-0.680533,0,185.888,-2.3087,0.000486374,0.000121615,1.28272e-05,0.86,86.8649,-2.72924,865.929
0.258,-0.192335,-0.00766602,0.330352,0.0664505,0.0622742,-0.10429,0.05778,-0.100347,-0.100647,0.327447,0.023022,-0.182809,1.98691e-08,-4.56731e-09,0.3,-0.3,-14.5378,0.581273,0.15329,184.952,1.80175,0.247623,-13.8699,-0.680533,0,185.888,-2.3087,0.000486374,0.000121615,1.28272e-05,0.86,86.7382,-2.54395,865.896
0.259,-0.192335,-0.00766602,0.330352,0.0664505,0.0622742,-0.10429,0.05778,-0.100347,-0.100647,0.327447,0.023022,-0.182809,1.98691e-08,-4.56731e-09,0.3,-0.3,-14.5154,0.609078,0.106076,184.958,1.79913,0.224903,-13.8699,-0.680533,0,185.888,-2.3087,0.000486374,0.000121615,1.28272e-05,0.86,86.6111,-2.35753,865.862
0.26,-0.192335,-0.00766602,0.330352,0.0664505,0.0622742,-0.10429,0.05778,-0.100347,-0.100647,0.327447,0.023022,-0.182809,1.98691e-08,-4.56731e-09,0.3,-0.3,-14.495,0.633643,0.0582687,184.964,1.79642,0.202148,-13.8699,-0.680533,0,185.888,-2.3087,0.000486374,0.000121615,1.28272e-05,0.86,86.4836,-2.17006,865.828
0.261,-0.192335,-0.00766602,0.330352,0.0664505,0.0622742,-0.10429,0.05778,-0.100347,-0.100647,0.327447,0.023022,-0.182809,1.98691e-08,-4.56731e-09,0.3,-0.3,-14.4802,0.650726,0.0258051,185.084,1.66474,0.100779,-13.8699,-0.680533,0,185.888,-2.3087,0.000486374,0.000121615,1.28272e-05,0.86,86.2969,-1.60009,865.724
0.262,-0.192335,-0.00766602,0.330352,0.0664505,0.0622742,-0.10429,0.05778,-0.100347,-0.100647,0.327447,0.023022,-0.182809,1.98691e-08,-4.56731e-09,0.3,-0.3,-14.4846,0.652651,0.0474835,184.97,1.79724,0.182337,-13.8699,-0.680533,0,185.888,-2.3087,0.000486374,0.000121615,1.28272e-05,0.86,86.1716,-1.71077,865.783
0.263,-0.192335,-0.00766602,0.330352,0.0664505,0.0622742,-0.10429,0.05778,-0.100347,-0.100647,0.327447,0.023022,-0.182809,1.98691e-08,-4.56731e-09,0.3,-0.3,-14.4928,0.655671,0.0660195,184.967,1.80345,0.196501,-13.8699,-0.680533,0,185.888,-2.3087,0.000486374,0.000121615,1.28272e-05,0.86,86.0479,-1.52858,865.787
0.264,-0.192335,-0.00766602,0.330352,0.0664505,0.0622742,-0.10429,0.05778,-0.100347,-0.100647,0.327447,0.023022,-0.182809,1.98691e-08,-4.56731e-09,0.3,-0.3,-14.4997,0.660253,0.0825382,184.962,1.81039,0.22048,-13.8699,-0.680533,0,185.888,-2.3087,0.000486374,0.000121615,1.28272e-05,0.86,85.9259,-1.34937,865.799
0.265,-0.192335,-0.00766602,0.330352,0.0664505,0.0622742,-0.10429,0.05778,-0.100347,-0.100647,0.327447,0.023022,-0.182809,1.98691e-08,-4.56731e-09,0.3,-0.3,-14.5034,0.666298,0.0974894,184.958,1.81629,0.249542,-13.8699,-0.680533,0,185.888,-2.3087,0.000486374,0.000121615,1.28272e-05,0.86,85.8057,-1.17295,865.818
0.266,-0.192335,-0.00766602,0.330352,0.0664505,0.0622742,-0.10429,0.05778,-0.100347,-0.100647,0.327447,0.023022,-0.182809,1.98691e-08,-4.56731e-09,0.3,-0.3,-14.5063,0.671903,0.110399,184.955,1.81956,0.280771,-13.8699,-0.680533,0,185.888,-2.3087,0.000486374,0.000121615,1.28272e-05,0.86,85.6871,-0.999108,865.838
0.267,-0.192335,-0.00766602,0.330352,0.0664505,0.0622742,-0.10429,0.05778,-0.100347,-0.100647,0.327447,0.023022,-0.182809,1.98691e-08,-4.56731e-09,0.3,-0.3,-14.5096,0.676176,0.121386,184.953,1.8192,0.31315,-13.8699,-0.680533,0,185.888,-2.3087,0.000486374,0.000121615,1.28272e-05,0.86,85.5703,-0.827737,865.859
0.268,-0.192335,-0.00766602,0.330352,0.0664505,0.0622742,-0.10429,0.05778,-0.100347,-0.100647,0.327447,0.023022,-0.182809,1.98691e-08,-4.56731e-09,0.3,-0.3,-14.5124,0.679723,0.130834,184.954,1.81476,0.346375,-13.8699,-0.680533,0,185.888,-2.3087,0.000486374,0.000121615,1.28272e-05,0.86,85.4553,-0.658733,865.881
0.269,-0.192335,-0.00766602,0.330352,0.0664505,0.0622742,-0.10429,0.05778,-0.100347,-0.100647,0.327447,0.023022,-0.182809,1.98691e-08,-4.56731e-09,0.3,-0.3,-14.5147,0.682573,0.14088,184.956,1.80615,0.380278,-13.8699,-0.680533,0,185.888,-2.3087,0.000486374,0.000121615,1.28272e-05,0.86,85.3421,-0.491973,865.903
0.27,-0.192335,-0.00766602,0.330352,0.0664505,0.0622742,-0.10429,0.05778,-0.100347,-0.100647,0.327447,0.023022,-0.182809,1.98691e-08,-4.56731e-09,0.3,-0.3,-14.516,0.685178,0.15237,184.958,1.79353,0.414743,-13.8699,-0.680533,0,185.888,-2.3087,0.000486374,0.000121615,1.28272e-05,0.86,85.2307,-0.32734,865.926
0.271,-0.192335,-0.00766602,0.330352,0.0664505,0.0622742,-0.10429,0.05778,-0.100347,-0.100647,0.327447,0.023022,-0.182809,1.98691e-08,-4.56731e-09,0.3,-0.3,-14.5165,0.68748,0.165632,185.074,1.6825,0.23584,-13.8699,-0.680533,0,185.888,-2.3087,0.000486374,0.000121615,1.28272e-05,0.86,85.91,-0.695333,865.837
0.272,-0.192335,-0.00766602,0.330352,0.0664505,0.0622742,-0.10429,0.05778,-0.100347,-0.100647,0.327447,0.023022,-0.182809,1.98691e-08,-4.56731e-09,0.3,-0.3,-14.5167,0.68944,0.180939,184.964,1.75756,0.485283,-13.8699,-0.680533,0,185.888,-2.3087,0.000486374,0.000121615,1.28272e-05,0.86,85.0139,-0.00393683,865.974
0.273,-0.192335,-0.00766602,0.330352,0.0664505,0.0622742,-0.10429,0.05778,-0.100347,-0.100647,0.327447,0.023022,-0.182809,1.98691e-08,-4.56731e-09,0.3,-0.3,-14.5166,0.691116,0.198476,184.965,1.73508,0.521374,-13.8699,-0.680533,0,185.888,-2.3087,0.000486374,0.000121615,1.28272e-05,0.86,84.9085,0.155097,865.999
0.274,-0.192335,-0.00766602,0.330352,0.0664505,0.0622742,-0.10429,0.05778,-0.100347,-0.100647,0.327447,0.023022,-0.182809,1.98691e-08,-4.56731e-09,0.3,-0.3,-14.5156,0.69233,0.214866,184.968,1.70623,0.559458,-13.8699,-0.680533,0,185.888,-2.3087,0.000486374,0.000121615,1.28272e-05,0.86,84.8047,0.312462,866.026
0.275,-0.192335,-0.00766602,0.330352,0.0664505,0.0622742,-0.10429,0.05778,-0.100347,-0.100647,0.327447,0.023022,-0.182809,1.98691e-08,-4.56731e-09,0.3,-0.3,-14.5146,0.693075,0.23109,184.976,1.67047,0.599949,-13.8699,-0.680533,0,185.888,-2.3087,0.000486374,0.000121615,1.28272e-05,0.86,84.702,0.468412,866.054
0.276,-0.192335,-0.00766602,0.330352,0.0664505,0.0622742,-0.10429,0.05778,-0.100347,-0.100647,0.327447,0.023022,-0.182809,1.98691e-08,-4.56731e-09,0.3,-0.3,-14.5139,0.693446,0.248479,184.989,1.62949,0.642662,-13.8699,-0.680533,0,185.888,-2.3087,0.000486374,0.000121615,1.28272e-05,0.86,84.6004,0.623222,866.084
0.277,-0.192335,-0.00766602,0.330352,0.0664505,0.0622742,-0.10429,0.05778,-0.100347,-0.100647,0.327447,0.023022,-0.182809,1.98691e-08,-4.56731e-09,0.3,-0.3,-14.5139,0.69348,0.26758,185.004,1.5856,0.68729,-13.8699,-0.680533,0,185.888,-2.3087,0.000486374,0.000121615,1.28272e-05,0.86,84.4997,0.777102,866.115
0.278,-0.192335,-0.00766602,0.330352,0.0664505,0.0622742,-0.10429,0.05778,-0.100347,-0.100647,0.327447,0.023022,-0.182809,1.98691e-08,-4.56731e-09,0.3,-0.3,-14.5146,0.693185,0.288777,185.022,1.54152,0.733467,-13.8699,-0.680533,0,185.888,-2.3087,0.000486374,0.000121615,1.28272e-05,0.86,84.3999,0.930205,866.149
0.279,-0.192335,-0.00766602,0.330352,0.0664505,0.0622742,-0.10429,0.05778,-0.100347,-0.100647,0.327447,0.023022,-0.182809,1.98691e-08,-4.56731e-09,0.3,-0.3,-14.516,0.692578,0.312341,185.039,1.50011,0.780821,-13.8699,-0.680533,0,185.888,-2.3087,0.000486374,0.000121615,1.28272e-05,0.86,84.3012,1.08262,866.183
0.28,-0.192335,-0.00766602,0.330352,0.0664505,0.0622742,-0.10429,0.05778,-0.100347,-0.100647,0.327447,0.023022,-0.182809,1.98691e-08,-4.56731e-09,0.3,-0.3,-14.518,0.691697,0.338469,185.054,1.46421,0.829008,-13.8699,-0.680533,0,185.888,-2.3087,0.000486374,0.000121615,1.28272e-05,0.86,84.2038,1.23436,866.219
0.281,-0.192335,-0.00766602,0.330352,0.0664505,0.0622742,-0.10429,0.05778,-0.100347,-0.100647,0.327447,0.023022,-0.182809,1.98691e-08,-4.56731e-09,0.3,-0.3,-14.5207,0.690606,0.367298,185.036,1.59083,0.596952,-13.8699,-0.680533,0,185.888,-2.3087,0.000486374,0.000121615,1.28272e-05,0.86,85.1547,0.787871,866.111
0.282,-0.192335,-0.00766602,0.330352,0.0664505,0.0622742,-0.10429,0.05778,-0.100347,-0.100647,0.327447,0.023022,-0.182809,1.98691e-08,-4.56731e-09,0.3,-0.3,-14.5237,0.689443,0.397631,185.067,1.42021,0.924784,-13.8699,-0.680533,0,185.888,-2.3087,0.000486374,0.000121615,1.28272e-05,0.86,84.0175,1.52961,866.292
0.283,-0.192335,-0.00766602,0.330352,0.0664505,0.0622742,-0.10429,0.05778,-0.100347,-0.100647,0.327447,0.023022,-0.182809,1.98691e-08,-4.56731e-09,0.3,-0.3,-14.527,0.688226,0.432011,185.062,1.41574,0.973907,-13.8699,-0.680533,0,185.888,-2.3087,0.000486374,0.000121615,1.28272e-05,0.86,83.9255,1.6789,866.331
0.284,-0.192335,-0.00766602,0.330352,0.0664505,0.0622742,-0.10429,0.05778,-0.100347,-0.100647,0.327447,0.023022,-0.182809,1.98691e-08,-4.56731e-09,0.3,-0.3,-14.5293,0.686905,0.464913,185.051,1.41845,1.02478,-13.8699,-0.680533,0,185.888,-2.3087,0.000486374,0.000121615,1.28272e-05,0.86,83.8355,1.82709,866.373
0.285,-0.192335,-0.00766602,0.330352,0.0664505,0.0622742,-0.10429,0.05778,-0.100347,-0.100647,0.327447,0.023022,-0.182809,1.98691e-08,-4.56731e-09,0.3,-0.3,-14.531,0.685493,0.496696,185.037,1.42406,1.07805,-13.8699,-0.680533,0,185.888,-2.3087,0.000486374,0.000121615,1.28272e-05,0.86,83.7471,1.97424,866.416
0.286,-0.192335,-0.00766602,0.330352,0.0664505,0.0622742,-0.10429,0.05778,-0.100347,-0.100647,0.327447,0.023022,-0.182809,1.98691e-08,-4.56731e-09,0.3,-0.3,-14.5324,0.684147,0.528834,185.023,1.43114,1.13361,-13.8699,-0.680533,0,185.888,-2.3087,0.000486374,0.000121615,1.28272e-05,0.86,83.6602,2.12043,866.462
0.287,-0.192335,-0.00766602,0.330352,0.0664505,0.0622742,-0.10429,0.05778,-0.100347,-0.100647,0.327447,0.023022,-0.182809,1.98691e-08,-4.56731e-09,0.3,-0.3,-14.5336,0.682953,0.561892,185.009,1.43908,1.19118,-13.8699,-0.680533,0,185.888,-2.3087,0.000486374,0.000121615,1.28272e-05,0.86,83.5749,2.26568,866.51
0.288,-0.192335,-0.00766602,0.330352,0.0664505,0.0622742,-0.10429,0.05778,-0.100347,-0.100647,0.327447,0.023022,-0.182809,1.98691e-08,-4.56731e-09,0.3,-0.3,-14.5347,0.681932,0.596304,184.995,1.44788,1.25035,-13.8699,-0.680533,0,185.888,-2.3087,0.000486374,0.000121615,1.28272e-05,0.86,83.4912,2.40996,866.559
0.289,-0.192335,-0.00766602,0.330352,0.0664505,0.0622742,-0.10429,0.05778,-0.100347,-0.100647,0.327447,0.023022,-0.182809,1.98691e-08,-4.56731e-09,0.3,-0.3,-14.5357,0.681113,0.632442,184.982,1.45801,1.31026,-13.8699,-0.680533,0,185.888,-2.3087,0.000486374,0.000121615,1.28272e-05,0.86,83.4091,2.55326,866.611
0.29,-0.192335,-0.00766602,0.330352,0.0664505,0.0622742,-0.10429,0.05778,-0.100347,-0.100647,0.327447,0.023022,-0.182809,1.98691e-08,-4.56731e-09,0.3,-0.3,-14.5367,0.680558,0.670314,184.969,1.47007,1.37024,-13.8699,-0.680533,0,185.888,-2.3087,0.000486374,0.000121615,1.28272e-05,0.86,83.3286,2.6955,866.662
0.291,-0.192335,-0.00766602,0.330352,0.0664505,0.0622742,-0.10429,0.05778,-0.100347,-0.100647,0.327447,0.023022,-0.182809,1.98691e-08,-4.56731e-09,0.3,-0.3,-14.5378,0.680005,0.709474,184.979,1.60508,1.25703,-13.8699,-0.680533,0,185.888,-2.3087,0.000486374,0.000121615,1.28272e-05,0.86,83.9075,1.97302,866.628
0.292,-0.192335,-0.00766602,0.330352,0.0664505,0.0622742,-0.10429,0.05778,-0.100347,-0.100647,0.327447,0.023022,-0.182809,1.98691e-08,-4.56731e-09,0.3,-0.3,-14.5386,0.679442,0.749798,184.939,1.50283,1.4886,-13.8699,-0.680533,0,185.888,-2.3087,0.000486374,0.000121615,1.28272e-05,0.86,83.173,2.97641,866.765
0.293,-0.192335,-0.00766602,0.330352,0.0664505,0.0622742,-0.10429,0.05778,-0.100347,-0.100647,0.327447,0.023022,-0.182809,1.98691e-08,-4.56731e-09,0.3,-0.3,-14.5393,0.678909,0.791516,184.92,1.52496,1.54679,-13.8699,-0.680533,0,185.888,-2.3087,0.000486374,0.000121615,1.28272e-05,0.86,83.0984,3.11477,866.816
0.294,-0.192335,-0.00766602,0.330352,0.0664505,0.0622742,-0.10429,0.05778,-0.100347,-0.100647,0.327447,0.023022,-0.182809,1.98691e-08,-4.56731e-09,0.3,-0.3,-14.5394,0.678086,0.831044,184.902,1.55174,1.60372,-13.8699,-0.680533,0,185.888,-2.3087,0.000486374,0.000121615,1.28272e-05,0.86,83.0255,3.2518,866.866
0.295,-0.192335,-0.00766602,0.330352,0.0664505,0.0622742,-0.10429,0.05778,-0.100347,-0.100647,0.327447,0.023022,-0.182809,1.98691e-08,-4.56731e-09,0.3,-0.3,-14.5389,0.676758,0.866468,184.886,1.581,1.65795,-13.8699,-0.680533,0,185.888,-2.3087,0.000486374,0.000121615,1.28272e-05,0.86,82.9539,3.38776,866.912
0.296,-0.192335,-0.00766602,0.330352,0.0664505,0.0622742,-0.10429,0.05778,-0.100347,-0.100647,0.327447,0.023022,-0.182809,1.98691e-08,-4.56731e-09,0.3,-0.3,-14.5382,0.674991,0.898115,184.875,1.6101,1.70892,-13.8699,-0.680533,0,185.888,-2.3087,0.000486374,0.000121615,1.28272e-05,0.86,82.8836,3.5228,866.954
0.297,-0.192335,-0.00766602,0.330352,0.0664505,0.0622742,-0.10429,0.05778,-0.100347,-0.100647,0.327447,0.023022,-0.182809,1.98691e-08,-4.56731e-09,0.3,-0.3,-14.5375,0.672997,0.926826,184.869,1.63728,1.75687,-13.8699,-0.680533,0,185.888,-2.3087,0.000486374,0.000121615,1.28272e-05,0.86,82.8143,3.65699,866.993
0.298,-0.192335,-0.00766602,0.330352,0.0664505,0.0622742,-0.10429,0.05778,-0.100347,-0.100647,0.327447,0.023022,-0.182809,1.98691e-08,-4.56731e-09,0.3,-0.3,-14.5371,0.671018,0.953423,184.866,1.66148,1.80235,-13.8699,-0.680533,0,185.888,-2.3087,0.000486374,0.000121615,1.28272e-05,0.86,82.7463,3.79031,867.029
0.299,-0.192335,-0.00766602,0.330352,0.0664505,0.0622742,-0.10429,0.05778,-0.100347,-0.100647,0.327447,0.023022,-0.182809,1.98691e-08,-4.56731e-09,0.3,-0.3,-14.5373,0.669253,0.978609,184.868,1.68214,1.84592,-13.8699,-0.680533,0,185.888,-2.3087,0.000486374,0.000121615,1.28272e-05,0.86,82.6794,3.92269,867.063
0.3,-0.192335,-0.00766602,0.330352,0.0664505,0.0622742,-0.10429,0.05778,-0.100347,-0.100647,0.327447,0.023022,-0.182809,1.98691e-08,-4.56731e-09,0.3,-0.3,-14.5382,0.667849,1.00305,184.871,1.69908,1.88817,-13.8699,-0.680533,0,185.888,-2.3087,0.000486374,0.000121615,1.28272e-05,0.86,82.6138,4.054,867.095
0.301,-0.192335,-0.00766602,0.330352,0.0664505,0.0622742,-0.10429,0.05778,-0.100347,-0.100647,0.327447,0.023022,-0.182809,1.98691e-08,-4.56731e-09,0.3,-0.3,-14.5397,0.666903,1.02743,185.01,1.68454,1.8937,-13.8699,-0.680533,0,185.888,-2.3087,0.000486374,0.000121615,1.28272e-05,0.86,82.7014,3.72987,867.111
0.302,-0.192335,-0.00766602,0.330352,0.0664505,0.0622742,-0.10429,0.05778,-0.100347,-0.100647,0.327447,0.023022,-0.182809,1.98691e-08,-4.56731e-09,0.3,-0.3,-14.5406,0.666627,1.0381,184.877,1.71727,1.94751,-13.8699,-0.680533,0,185.888,-2.3087,0.000486374,0.000121615,1.28272e-05,0.86,82.5224,4.23991,867.141
0.303,-0.192335,-0.00766602,0.330352,0.0664505,0.0622742,-0.10429,0.05778,-0.100347,-0.100647,0.327447,0.023022,-0.182809,1.98691e-08,-4.56731e-09,0.3,-0.3,-14.543,0.666435,1.06368,184.88,1.72592,1.98888,-13.8699,-0.680533,0,185.888,-2.3087,0.000486374,0.000121615,1.28272e-05,0.86,82.4608,4.36789,867.174
0.304,-0.192335,-0.00766602,0.330352,0.0664505,0.0622742,-0.10429,0.05778,-0.100347,-0.100647,0.327447,0.023022,-0.182809,1.98691e-08,-4.56731e-09,0.3,-0.3,-14.5457,0.666703,1.0903,184.882,1.73166,2.03051,-13.8699,-0.680533,0,185.888,-2.3087,0.000486374,0.000121615,1.28272e-05,0.86,82.401,4.49421,867.208
0.305,-0.192335,-0.00766602,0.330352,0.0664505,0.0622742,-0.10429,0.05778,-0.100347,-0.100647,0.327447,0.023022,-0.182809,1.98691e-08,-4.56731e-09,0.3,-0.3,-14.5478,0.666657,1.11281,184.884,1.73325,2.06996,-13.8699,-0.680533,0,185.888,-2.3087,0.000486374,0.000121615,1.28272e-05,0.86,82.3424,4.61933,867.24
0.306,-0.192335,-0.00766602,0.330352,0.0664505,0.0622742,-0.10429,0.05778,-0.100347,-0.100647,0.327447,0.023022,-0.182809,1.98691e-08,-4.56731e-09,0.3,-0.3,-14.5491,0.665995,1.13012,184.89,1.73007,2.10524,-13.8699,-0.680533,0,185.888,-2.3087,0.000486374,0.000121615,1.28272e-05,0.86,82.2847,4.74368,867.267
0.307,-0.192335,-0.00766602,0.330352,0.0664505,0.0622742,-0.10429,0.05778,-0.100347,-0.100647,0.327447,0.023022,-0.182809,1.98691e-08,-4.56731e-09,0.3,-0.3,-14.5499,0.664825,1.14338,184.899,1.72245,2.1363,-13.8699,-0.680533,0,185.888,-2.3087,0.000486374,0.000121615,1.28272e-05,0.86,82.2279,4.86746,867.29
0.308,-0.192335,-0.00766602,0.330352,0.0664505,0.0622742,-0.10429,0.05778,-0.100347,-0.100647,0.327447,0.023022,-0.182809,1.98691e-08,-4.56731e-09,0.3,-0.3,-14.5506,0.663437,1.15407,184.912,1.71146,2.16391,-13.8699,-0.680533,0,185.888,-2.3087,0.000486374,0.000121615,1.28272e-05,0.86,82.1718,4.99076,867.309
0.309,-0.192335,-0.00766602,0.330352,0.0664505,0.0622742,-0.10429,0.05778,-0.100347,-0.100647,0.327447,0.023022,-0.182809,1.98691e-08,-4.56731e-09,0.3,-0.3,-14.5518,0.662116,1.16341,184.926,1.69857,2.18909,-13.8699,-0.680533,0,185.888,-2.3087,0.000486374,0.000121615,1.28272e-05,0.86,82.1166,5.11355,867.325
0.31,-0.192335,-0.00766602,0.330352,0.0664505,0.0622742,-0.10429,0.05778,-0.100347,-0.100647,0.327447,0.023022,-0.182809,1.98691e-08,-4.56731e-09,0.3,-0.3,-14.5535,0.661078,1.17247,184.939,1.6855,2.21293,-13.8699,-0.680533,0,185.888,-2.3087,0.000486374,0.000121615,1.28272e-05,0.86,82.0623,5.23568,867.34
0.311,-0.192335,-0.00766602,0.330352,0.0664505,0.0622742,-0.10429,0.05778,-0.100347,-0.100647,0.327447,0.023022,-0.182809,1.98691e-08,-4.56731e-09,0.3,-0.3,-14.556,0.660474,1.18226,185.036,1.70788,2.19488,-13.8699,-0.680533,0,185.888,-2.3087,0.000486374,0.000121615,1.28272e-05,0.86,82.1341,4.95094,867.334
0.312,-0.192335,-0.00766602,0.330352,0.0664505,0.0622742,-0.10429,0.05778,-0.100347,-0.100647,0.327447,0.023022,-0.182809,1.98691e-08,-4.56731e-09,0.3,-0.3,-14.5591,0.660404,1.19382,184.96,1.6659,2.26083,-13.8699,-0.680533,0,185.888,-2.3087,0.000486374,0.000121615,1.28272e-05,0.86,81.9573,5.47695,867.372
0.313,-0.192335,-0.00766602,0.330352,0.0664505,0.0622742,-0.10429,0.05778,-0.100347,-0.100647,0.327447,0.023022,-0.182809,1.98691e-08,-4.56731e-09,0.3,-0.3,-14.5629,0.660939,1.20825,184.964,1.66276,2.28695,-13.8699,-0.680533,0,185.888,-2.3087,0.000486374,0.000121615,1.28272e-05,0.86,81.9072,5.59539,867.391
0.314,-0.192335,-0.00766602,0.330352,0.0664505,0.0622742,-0.10429,0.05778,-0.100347,-0.100647,0.327447,0.023022,-0.182809,1.98691e-08,-4.56731e-09,0.3,-0.3,-14.567,0.661975,1.22568,184.963,1.66563,2.31508,-13.8699,-0.680533,0,185.888,-2.3087,0.000486374,0.000121615,1.28272e-05,0.86,81.859,5.71188,867.412
0.315,-0.192335,-0.00766602,0.330352,0.0664505,0.0622742,-0.10429,0.05778,-0.100347,-0.100647,0.327447,0.023022,-0.182809,1.98691e-08,-4.56731e-09,0.3,-0.3,-14.5703,0.662475,1.23994,184.961,1.67233,2.34184,-13.8699,-0.680533,0,185.888,-2.3087,0.000486374,0.000121615,1.28272e-05,0.86,81.812,5.82678,867.433
0.316,-0.192335,-0.00766602,0.330352,0.0664505,0.0622742,-0.10429,0.05778,-0.100347,-0.100647,0.327447,0.023022,-0.182809,1.98691e-08,-4.56731e-09,0.3,-0.3,-14.5727,0.662194,1.25036,184.96,1.68046,2.36535,-13.8699,-0.680533,0,185.888,-2.3087,0.000486374,0.000121615,1.28272e-05,0.86,81.766,5.94032,867.45
0.317,-0.192335,-0.00766602,0.330352,0.0664505,0.0622742,-0.10429,0.05778,-0.100347,-0.100647,0.327447,0.023022,-0.182809,1.98691e-08,-4.56731e-09,0.3,-0.3,-14.5743,0.661159,1.2573,184.962,1.68837,2.38527,-13.8699,-0.680533,0,185.888,-2.3087,0.000486374,0.000121615,1.28272e-05,0.86,81.7209,6.05268,867.463
0.318,-0.192335,-0.00766602,0.330352,0.0664505,0.0622742,-0.10429,0.05778,-0.100347,-0.100647,0.327447,0.023022,-0.182809,1.98691e-08,-4.56731e-09,0.3,-0.3,-14.5756,0.659696,1.26206,184.965,1.69496,2.40223,-13.8699,-0.680533,0,185.888,-2.3087,0.000486374,0.000121615,1.28272e-05,0.86,81.6767,6.16396,867.473
0.319,-0.192335,-0.00766602,0.330352,0.0664505,0.0622742,-0.10429,0.05778,-0.100347,-0.100647,0.327447,0.023022,-0.182809,1.98691e-08,-4.56731e-09,0.3,-0.3,-14.577,0.65815,1.26579,184.97,1.69961,2.41719,-13.8699,-0.680533,0,185.888,-2.3087,0.000486374,0.000121615,1.28272e-05,0.86,81.6336,6.27416,867.48
0.32,-0.192335,-0.00766602,0.330352,0.0664505,0.0622742,-0.10429,0.05778,-0.100347,-0.100647,0.327447,0.023022,-0.182809,1.98691e-08,-4.56731e-09,0.3,-0.3,-14.5788,0.656811,1.26949,184.974,1.70198,2.43125,-13.8699,-0.680533,0,185.888,-2.3087,0.000486374,0.000121615,1.28272e-05,0.86,81.5915,6.38324,867.487
