TheMarex/ba-thesis/notebook/disturbed_logs/2014-10-21-03:17:32_trajectory.csv
"Timestamp","Trajectory_LeftLeg_Joint6","Trajectory_LeftLeg_Joint5","Trajectory_LeftLeg_Joint4","Trajectory_LeftLeg_Joint3","Trajectory_LeftLeg_Joint2","Trajectory_LeftLeg_Joint1","Trajectory_RightLeg_Joint1","Trajectory_RightLeg_Joint2","Trajectory_RightLeg_Joint3","Trajectory_RightLeg_Joint4","Trajectory_RightLeg_Joint5","Trajectory_RightLeg_Joint6","Trajectory_Torso_Joint1","Trajectory_Torso_Joint2","Trajectory_LeftArm_Joint3","Trajectory_RightArm_Joint3","Actual_LeftFootX","Actual_LeftFootY","Actual_LeftFootZ","Actual_RightFootX","Actual_RightFootY","Actual_RightFootZ","Target_LeftFootX","Target_LeftFootY","Target_LeftFootZ","Target_RightFootX","Target_RightFootY","Target_RightFootZ","Target_CoMX","Target_CoMY","Target_CoMZ","Actual_CoMX","Actual_CoMY","Actual_CoMZ"
0.001,-0.192335,-0.00766602,0.330352,0.0664505,0.0622742,-0.10429,0.05778,-0.100347,-0.100647,0.327447,0.023022,-0.182809,1.98691e-08,-4.56731e-09,0.3,-0.3,0,0,0,172.018,-2.98923,-0.0121975,-13.8699,-0.680533,0,185.888,-2.3087,0.000486374,0.000121615,1.28272e-05,0.86,94.498,-21.111,892.433
0.002,-0.192335,-0.00766602,0.330352,0.0664505,0.0622742,-0.10429,0.05778,-0.100347,-0.100647,0.327447,0.023022,-0.182809,1.98691e-08,-4.56731e-09,0.3,-0.3,0,0,0,172.018,-2.98923,-0.0121918,-13.8699,-0.680533,0,185.888,-2.3087,0.000486374,0.000121615,1.28272e-05,0.86,94.498,-21.111,892.433
0.003,-0.192335,-0.00766602,0.330352,0.0664505,0.0622742,-0.10429,0.05778,-0.100347,-0.100647,0.327447,0.023022,-0.182809,1.98691e-08,-4.56731e-09,0.3,-0.3,0,0,-0.00981,172.01,-2.98587,0.030508,-13.8699,-0.680533,0,185.888,-2.3087,0.000486374,0.000121615,1.28272e-05,0.86,94.496,-21.1215,892.442
0.004,-0.192335,-0.00766602,0.330352,0.0664505,0.0622742,-0.10429,0.05778,-0.100347,-0.100647,0.327447,0.023022,-0.182809,1.98691e-08,-4.56731e-09,0.3,-0.3,0.00649278,-0.0101578,-0.00160465,172.01,-2.98597,0.0923576,-13.8699,-0.680533,0,185.888,-2.3087,0.000486374,0.000121615,1.28272e-05,0.86,94.4911,-21.1312,892.477
0.005,-0.192335,-0.00766602,0.330352,0.0664505,0.0622742,-0.10429,0.05778,-0.100347,-0.100647,0.327447,0.023022,-0.182809,1.98691e-08,-4.56731e-09,0.3,-0.3,0.0308391,-0.032242,0.0405586,172.007,-2.98485,0.146629,-13.8699,-0.680533,0,185.888,-2.3087,0.000486374,0.000121615,1.28272e-05,0.86,94.4851,-21.1421,892.515
0.006,-0.192335,-0.00766602,0.330352,0.0664505,0.0622742,-0.10429,0.05778,-0.100347,-0.100647,0.327447,0.023022,-0.182809,1.98691e-08,-4.56731e-09,0.3,-0.3,0.0554305,-0.0638317,0.0847184,172.006,-2.98424,0.202099,-13.8699,-0.680533,0,185.888,-2.3087,0.000486374,0.000121615,1.28272e-05,0.86,94.4776,-21.1533,892.556
0.007,-0.192335,-0.00766602,0.330352,0.0664505,0.0622742,-0.10429,0.05778,-0.100347,-0.100647,0.327447,0.023022,-0.182809,1.98691e-08,-4.56731e-09,0.3,-0.3,0.0802213,-0.102197,0.134006,172.006,-2.98462,0.259701,-13.8699,-0.680533,0,185.888,-2.3087,0.000486374,0.000121615,1.28272e-05,0.86,94.4685,-21.1647,892.6
0.008,-0.192335,-0.00766602,0.330352,0.0664505,0.0622742,-0.10429,0.05778,-0.100347,-0.100647,0.327447,0.023022,-0.182809,1.98691e-08,-4.56731e-09,0.3,-0.3,0.104345,-0.144602,0.188601,172.009,-2.98575,0.319874,-13.8699,-0.680533,0,185.888,-2.3087,0.000486374,0.000121615,1.28272e-05,0.86,94.4579,-21.1761,892.646
0.009,-0.192335,-0.00766602,0.330352,0.0664505,0.0622742,-0.10429,0.05778,-0.100347,-0.100647,0.327447,0.023022,-0.182809,1.98691e-08,-4.56731e-09,0.3,-0.3,0.126728,-0.188323,0.248319,172.013,-2.98777,0.378258,-13.8699,-0.680533,0,185.888,-2.3087,0.000486374,0.000121615,1.28272e-05,0.86,94.446,-21.1871,892.692
0.01,-0.192335,-0.00766602,0.330352,0.0664505,0.0622742,-0.10429,0.05778,-0.100347,-0.100647,0.327447,0.023022,-0.182809,1.98691e-08,-4.56731e-09,0.3,-0.3,0.143492,-0.230967,0.306617,172.02,-2.99313,0.427404,-13.8699,-0.680533,0,185.888,-2.3087,0.000486374,0.000121615,1.28272e-05,0.86,94.4335,-21.1975,892.728
0.011,-0.192335,-0.00766602,0.330352,0.0664505,0.0622742,-0.10429,0.05778,-0.100347,-0.100647,0.327447,0.023022,-0.182809,1.98691e-08,-4.56731e-09,0.3,-0.3,0.151402,-0.270889,0.356009,172.033,-3.01088,0.469927,-13.8699,-0.680533,0,185.888,-2.3087,0.000486374,0.000121615,1.28272e-05,0.86,94.4209,-21.208,892.754
0.012,-0.192335,-0.00766602,0.330352,0.0664505,0.0622742,-0.10429,0.05778,-0.100347,-0.100647,0.327447,0.023022,-0.182809,1.98691e-08,-4.56731e-09,0.3,-0.3,0.151003,-0.308734,0.397455,172.05,-3.03742,0.506081,-13.8699,-0.680533,0,185.888,-2.3087,0.000486374,0.000121615,1.28272e-05,0.86,94.4082,-21.2186,892.77
0.013,-0.192335,-0.00766602,0.330352,0.0664505,0.0622742,-0.10429,0.05778,-0.100347,-0.100647,0.327447,0.023022,-0.182809,1.98691e-08,-4.56731e-09,0.3,-0.3,0.143627,-0.345558,0.431492,172.07,-3.0686,0.536137,-13.8699,-0.680533,0,185.888,-2.3087,0.000486374,0.000121615,1.28272e-05,0.86,94.3953,-21.229,892.777
0.014,-0.192335,-0.00766602,0.330352,0.0664505,0.0622742,-0.10429,0.05778,-0.100347,-0.100647,0.327447,0.023022,-0.182809,1.98691e-08,-4.56731e-09,0.3,-0.3,0.130644,-0.382497,0.458556,172.091,-3.09736,0.560795,-13.8699,-0.680533,0,185.888,-2.3087,0.000486374,0.000121615,1.28272e-05,0.86,94.382,-21.2387,892.775
0.015,-0.192335,-0.00766602,0.330352,0.0664505,0.0622742,-0.10429,0.05778,-0.100347,-0.100647,0.327447,0.023022,-0.182809,1.98691e-08,-4.56731e-09,0.3,-0.3,0.113543,-0.420066,0.479544,172.11,-3.11879,0.580383,-13.8699,-0.680533,0,185.888,-2.3087,0.000486374,0.000121615,1.28272e-05,0.86,94.3681,-21.2472,892.764
0.016,-0.192335,-0.00766602,0.330352,0.0664505,0.0622742,-0.10429,0.05778,-0.100347,-0.100647,0.327447,0.023022,-0.182809,1.98691e-08,-4.56731e-09,0.3,-0.3,0.0930896,-0.45808,0.495061,172.127,-3.12962,0.595226,-13.8699,-0.680533,0,185.888,-2.3087,0.000486374,0.000121615,1.28272e-05,0.86,94.3534,-21.2542,892.745
0.017,-0.192335,-0.00766602,0.330352,0.0664505,0.0622742,-0.10429,0.05778,-0.100347,-0.100647,0.327447,0.023022,-0.182809,1.98691e-08,-4.56731e-09,0.3,-0.3,0.0695409,-0.495856,0.505545,172.142,-3.13687,0.606569,-13.8699,-0.680533,0,185.888,-2.3087,0.000486374,0.000121615,1.28272e-05,0.86,94.3379,-21.2605,892.719
0.018,-0.192335,-0.00766602,0.330352,0.0664505,0.0622742,-0.10429,0.05778,-0.100347,-0.100647,0.327447,0.023022,-0.182809,1.98691e-08,-4.56731e-09,0.3,-0.3,0.043144,-0.533052,0.512343,172.158,-3.14437,0.615276,-13.8699,-0.680533,0,185.888,-2.3087,0.000486374,0.000121615,1.28272e-05,0.86,94.3218,-21.2666,892.687
0.019,-0.192335,-0.00766602,0.330352,0.0664505,0.0622742,-0.10429,0.05778,-0.100347,-0.100647,0.327447,0.023022,-0.182809,1.98691e-08,-4.56731e-09,0.3,-0.3,0.0145384,-0.569947,0.516579,172.175,-3.15212,0.62174,-13.8699,-0.680533,0,185.888,-2.3087,0.000486374,0.000121615,1.28272e-05,0.86,94.305,-21.2728,892.65
0.02,-0.192335,-0.00766602,0.330352,0.0664505,0.0622742,-0.10429,0.05778,-0.100347,-0.100647,0.327447,0.023022,-0.182809,1.98691e-08,-4.56731e-09,0.3,-0.3,-0.0158933,-0.606867,0.518911,172.192,-3.16016,0.62627,-13.8699,-0.680533,0,185.888,-2.3087,0.000486374,0.000121615,1.28272e-05,0.86,94.2876,-21.279,892.608
0.021,-0.192335,-0.00766602,0.330352,0.0664505,0.0622742,-0.10429,0.05778,-0.100347,-0.100647,0.327447,0.023022,-0.182809,1.98691e-08,-4.56731e-09,0.3,-0.3,-0.0479179,-0.644095,0.51969,172.21,-3.16851,0.629124,-13.8699,-0.680533,0,185.888,-2.3087,0.000486374,0.000121615,1.28272e-05,0.86,94.2693,-21.2854,892.562
0.022,-0.192335,-0.00766602,0.330352,0.0664505,0.0622742,-0.10429,0.05778,-0.100347,-0.100647,0.327447,0.023022,-0.182809,1.98691e-08,-4.56731e-09,0.3,-0.3,-0.0813754,-0.681859,0.519121,172.228,-3.17713,0.630507,-13.8699,-0.680533,0,185.888,-2.3087,0.000486374,0.000121615,1.28272e-05,0.86,94.2504,-21.2919,892.511
0.023,-0.192335,-0.00766602,0.330352,0.0664505,0.0622742,-0.10429,0.05778,-0.100347,-0.100647,0.327447,0.023022,-0.182809,1.98691e-08,-4.56731e-09,0.3,-0.3,-0.116201,-0.720324,0.51739,172.247,-3.18601,0.63059,-13.8699,-0.680533,0,185.888,-2.3087,0.000486374,0.000121615,1.28272e-05,0.86,94.2307,-21.2987,892.456
0.024,-0.192335,-0.00766602,0.330352,0.0664505,0.0622742,-0.10429,0.05778,-0.100347,-0.100647,0.327447,0.023022,-0.182809,1.98691e-08,-4.56731e-09,0.3,-0.3,-0.152368,-0.759608,0.51463,172.266,-3.19516,0.629517,-13.8699,-0.680533,0,185.888,-2.3087,0.000486374,0.000121615,1.28272e-05,0.86,94.2102,-21.3057,892.398
0.025,-0.192335,-0.00766602,0.330352,0.0664505,0.0622742,-0.10429,0.05778,-0.100347,-0.100647,0.327447,0.023022,-0.182809,1.98691e-08,-4.56731e-09,0.3,-0.3,-0.189882,-0.799789,0.510949,172.286,-3.20456,0.627407,-13.8699,-0.680533,0,185.888,-2.3087,0.000486374,0.000121615,1.28272e-05,0.86,94.1888,-21.313,892.336
0.026,-0.192335,-0.00766602,0.330352,0.0664505,0.0622742,-0.10429,0.05778,-0.100347,-0.100647,0.327447,0.023022,-0.182809,1.98691e-08,-4.56731e-09,0.3,-0.3,-0.22877,-0.840922,0.506431,172.307,-3.21423,0.624359,-13.8699,-0.680533,0,185.888,-2.3087,0.000486374,0.000121615,1.28272e-05,0.86,94.1667,-21.3207,892.27
0.027,-0.192335,-0.00766602,0.330352,0.0664505,0.0622742,-0.10429,0.05778,-0.100347,-0.100647,0.327447,0.023022,-0.182809,1.98691e-08,-4.56731e-09,0.3,-0.3,-0.269076,-0.883045,0.501148,172.328,-3.22416,0.620461,-13.8699,-0.680533,0,185.888,-2.3087,0.000486374,0.000121615,1.28272e-05,0.86,94.1437,-21.3287,892.2
0.028,-0.192335,-0.00766602,0.330352,0.0664505,0.0622742,-0.10429,0.05778,-0.100347,-0.100647,0.327447,0.023022,-0.182809,1.98691e-08,-4.56731e-09,0.3,-0.3,-0.310852,-0.92619,0.495158,172.349,-3.23436,0.615784,-13.8699,-0.680533,0,185.888,-2.3087,0.000486374,0.000121615,1.28272e-05,0.86,94.1198,-21.337,892.128
0.029,-0.192335,-0.00766602,0.330352,0.0664505,0.0622742,-0.10429,0.05778,-0.100347,-0.100647,0.327447,0.023022,-0.182809,1.98691e-08,-4.56731e-09,0.3,-0.3,-0.35415,-0.970387,0.488513,172.372,-3.24483,0.61039,-13.8699,-0.680533,0,185.888,-2.3087,0.000486374,0.000121615,1.28272e-05,0.86,94.0951,-21.3458,892.052
0.03,-0.192335,-0.00766602,0.330352,0.0664505,0.0622742,-0.10429,0.05778,-0.100347,-0.100647,0.327447,0.023022,-0.182809,1.98691e-08,-4.56731e-09,0.3,-0.3,-0.399024,-1.01567,0.481256,172.394,-3.25559,0.604332,-13.8699,-0.680533,0,185.888,-2.3087,0.000486374,0.000121615,1.28272e-05,0.86,94.0695,-21.3549,891.972
0.031,-0.192335,-0.00766602,0.330352,0.0664505,0.0622742,-0.10429,0.05778,-0.100347,-0.100647,0.327447,0.023022,-0.182809,1.98691e-08,-4.56731e-09,0.3,-0.3,-0.445521,-1.06208,0.473427,172.418,-3.26664,0.597651,-13.8699,-0.680533,0,185.888,-2.3087,0.000486374,0.000121615,1.28272e-05,0.86,94.043,-21.3645,891.89
0.032,-0.192335,-0.00766602,0.330352,0.0664505,0.0622742,-0.10429,0.05778,-0.100347,-0.100647,0.327447,0.023022,-0.182809,1.98691e-08,-4.56731e-09,0.3,-0.3,-0.493683,-1.10965,0.46506,172.442,-3.27799,0.590391,-13.8699,-0.680533,0,185.888,-2.3087,0.000486374,0.000121615,1.28272e-05,0.86,94.0156,-21.3746,891.805
0.033,-0.192335,-0.00766602,0.330352,0.0664505,0.0622742,-0.10429,0.05778,-0.100347,-0.100647,0.327447,0.023022,-0.182809,1.98691e-08,-4.56731e-09,0.3,-0.3,-0.543545,-1.15845,0.456184,172.467,-3.28964,0.582584,-13.8699,-0.680533,0,185.888,-2.3087,0.000486374,0.000121615,1.28272e-05,0.86,93.9872,-21.3852,891.716
0.034,-0.192335,-0.00766602,0.330352,0.0664505,0.0622742,-0.10429,0.05778,-0.100347,-0.100647,0.327447,0.023022,-0.182809,1.98691e-08,-4.56731e-09,0.3,-0.3,-0.595133,-1.20852,0.446828,172.492,-3.30161,0.574261,-13.8699,-0.680533,0,185.888,-2.3087,0.000486374,0.000121615,1.28272e-05,0.86,93.9579,-21.3963,891.625
0.035,-0.192335,-0.00766602,0.330352,0.0664505,0.0622742,-0.10429,0.05778,-0.100347,-0.100647,0.327447,0.023022,-0.182809,1.98691e-08,-4.56731e-09,0.3,-0.3,-0.648465,-1.25994,0.437013,172.519,-3.3139,0.565445,-13.8699,-0.680533,0,185.888,-2.3087,0.000486374,0.000121615,1.28272e-05,0.86,93.9277,-21.4079,891.531
0.036,-0.192335,-0.00766602,0.330352,0.0664505,0.0622742,-0.10429,0.05778,-0.100347,-0.100647,0.327447,0.023022,-0.182809,1.98691e-08,-4.56731e-09,0.3,-0.3,-0.703552,-1.31275,0.426758,172.546,-3.32651,0.556158,-13.8699,-0.680533,0,185.888,-2.3087,0.000486374,0.000121615,1.28272e-05,0.86,93.8965,-21.42,891.433
0.037,-0.192335,-0.00766602,0.330352,0.0664505,0.0622742,-0.10429,0.05778,-0.100347,-0.100647,0.327447,0.023022,-0.182809,1.98691e-08,-4.56731e-09,0.3,-0.3,-0.760395,-1.36703,0.416082,172.573,-3.33945,0.546419,-13.8699,-0.680533,0,185.888,-2.3087,0.000486374,0.000121615,1.28272e-05,0.86,93.8644,-21.4327,891.333
0.038,-0.192335,-0.00766602,0.330352,0.0664505,0.0622742,-0.10429,0.05778,-0.100347,-0.100647,0.327447,0.023022,-0.182809,1.98691e-08,-4.56731e-09,0.3,-0.3,-0.818994,-1.42283,0.404996,172.601,-3.35271,0.536251,-13.8699,-0.680533,0,185.888,-2.3087,0.000486374,0.000121615,1.28272e-05,0.86,93.8313,-21.446,891.23
0.039,-0.192335,-0.00766602,0.330352,0.0664505,0.0622742,-0.10429,0.05778,-0.100347,-0.100647,0.327447,0.023022,-0.182809,1.98691e-08,-4.56731e-09,0.3,-0.3,-0.879337,-1.48022,0.393512,172.631,-3.36631,0.525661,-13.8699,-0.680533,0,185.888,-2.3087,0.000486374,0.000121615,1.28272e-05,0.86,93.7973,-21.4598,891.125
0.04,-0.192335,-0.00766602,0.330352,0.0664505,0.0622742,-0.10429,0.05778,-0.100347,-0.100647,0.327447,0.023022,-0.182809,1.98691e-08,-4.56731e-09,0.3,-0.3,-0.941412,-1.53924,0.381637,172.66,-3.38024,0.514668,-13.8699,-0.680533,0,185.888,-2.3087,0.000486374,0.000121615,1.28272e-05,0.86,93.7623,-21.4743,891.016
0.041,-0.192335,-0.00766602,0.330352,0.0664505,0.0622742,-0.10429,0.05778,-0.100347,-0.100647,0.327447,0.023022,-0.182809,1.98691e-08,-4.56731e-09,0.3,-0.3,-1.0052,-1.59995,0.369379,172.691,-3.3945,0.503279,-13.8699,-0.680533,0,185.888,-2.3087,0.000486374,0.000121615,1.28272e-05,0.86,93.7263,-21.4894,890.905
0.042,-0.192335,-0.00766602,0.330352,0.0664505,0.0622742,-0.10429,0.05778,-0.100347,-0.100647,0.327447,0.023022,-0.182809,1.98691e-08,-4.56731e-09,0.3,-0.3,-1.07069,-1.66238,0.356741,172.722,-3.40908,0.491508,-13.8699,-0.680533,0,185.888,-2.3087,0.000486374,0.000121615,1.28272e-05,0.86,93.6893,-21.5051,890.791
0.043,-0.192335,-0.00766602,0.330352,0.0664505,0.0622742,-0.10429,0.05778,-0.100347,-0.100647,0.327447,0.023022,-0.182809,1.98691e-08,-4.56731e-09,0.3,-0.3,-1.13785,-1.72656,0.343728,172.754,-3.42398,0.479362,-13.8699,-0.680533,0,185.888,-2.3087,0.000486374,0.000121615,1.28272e-05,0.86,93.6514,-21.5214,890.675
0.044,-0.192335,-0.00766602,0.330352,0.0664505,0.0622742,-0.10429,0.05778,-0.100347,-0.100647,0.327447,0.023022,-0.182809,1.98691e-08,-4.56731e-09,0.3,-0.3,-1.20666,-1.7925,0.330342,172.787,-3.43921,0.466852,-13.8699,-0.680533,0,185.888,-2.3087,0.000486374,0.000121615,1.28272e-05,0.86,93.6124,-21.5384,890.555
0.045,-0.192335,-0.00766602,0.330352,0.0664505,0.0622742,-0.10429,0.05778,-0.100347,-0.100647,0.327447,0.023022,-0.182809,1.98691e-08,-4.56731e-09,0.3,-0.3,-1.27711,-1.86023,0.316582,172.82,-3.45471,0.453974,-13.8699,-0.680533,0,185.888,-2.3087,0.000486374,0.000121615,1.28272e-05,0.86,93.5725,-21.5561,890.434
0.046,-0.192335,-0.00766602,0.330352,0.0664505,0.0622742,-0.10429,0.05778,-0.100347,-0.100647,0.327447,0.023022,-0.182809,1.98691e-08,-4.56731e-09,0.3,-0.3,-1.3492,-1.92972,0.302446,172.854,-3.47043,0.440729,-13.8699,-0.680533,0,185.888,-2.3087,0.000486374,0.000121615,1.28272e-05,0.86,93.5316,-21.5744,890.309
0.047,-0.192335,-0.00766602,0.330352,0.0664505,0.0622742,-0.10429,0.05778,-0.100347,-0.100647,0.327447,0.023022,-0.182809,1.98691e-08,-4.56731e-09,0.3,-0.3,-1.42296,-2.00091,0.287932,172.888,-3.48634,0.42712,-13.8699,-0.680533,0,185.888,-2.3087,0.000486374,0.000121615,1.28272e-05,0.86,93.4897,-21.5934,890.182
0.048,-0.192335,-0.00766602,0.330352,0.0664505,0.0622742,-0.10429,0.05778,-0.100347,-0.100647,0.327447,0.023022,-0.182809,1.98691e-08,-4.56731e-09,0.3,-0.3,-1.4984,-2.07368,0.273049,172.923,-3.50261,0.413177,-13.8699,-0.680533,0,185.888,-2.3087,0.000486374,0.000121615,1.28272e-05,0.86,93.4467,-21.6131,890.053
0.049,-0.192335,-0.00766602,0.330352,0.0664505,0.0622742,-0.10429,0.05778,-0.100347,-0.100647,0.327447,0.023022,-0.182809,1.98691e-08,-4.56731e-09,0.3,-0.3,-1.57545,-2.14806,0.257786,172.958,-3.51906,0.398882,-13.8699,-0.680533,0,185.888,-2.3087,0.000486374,0.000121615,1.28272e-05,0.86,93.4028,-21.6334,889.921
0.05,-0.192335,-0.00766602,0.330352,0.0664505,0.0622742,-0.10429,0.05778,-0.100347,-0.100647,0.327447,0.023022,-0.182809,1.98691e-08,-4.56731e-09,0.3,-0.3,-1.61781,-2.16657,0.268966,172.99,-3.53376,0.40456,-13.8699,-0.680533,0,185.888,-2.3087,0.000486374,0.000121615,1.28272e-05,0.86,93.3646,-21.6444,889.807
0.051,-0.192335,-0.00766602,0.330352,0.0664505,0.0622742,-0.10429,0.05778,-0.100347,-0.100647,0.327447,0.023022,-0.182809,1.98691e-08,-4.56731e-09,0.3,-0.3,-1.64694,-2.14922,0.294877,173.023,-3.54254,0.425474,-13.8699,-0.680533,0,185.888,-2.3087,0.000486374,0.000121615,1.28272e-05,0.86,93.3288,-21.6526,889.705
0.052,-0.192335,-0.00766602,0.330352,0.0664505,0.0622742,-0.10429,0.05778,-0.100347,-0.100647,0.327447,0.023022,-0.182809,1.98691e-08,-4.56731e-09,0.3,-0.3,-1.6769,-2.13373,0.318037,173.061,-3.54435,0.452112,-13.8699,-0.680533,0,185.888,-2.3087,0.000486374,0.000121615,1.28272e-05,0.86,93.2953,-21.6584,889.608
0.053,-0.192335,-0.00766602,0.330352,0.0664505,0.0622742,-0.10429,0.05778,-0.100347,-0.100647,0.327447,0.023022,-0.182809,1.98691e-08,-4.56731e-09,0.3,-0.3,-1.70669,-2.11903,0.337906,173.106,-3.53847,0.480429,-13.8699,-0.680533,0,185.888,-2.3087,0.000486374,0.000121615,1.28272e-05,0.86,93.2641,-21.6616,889.51
0.054,-0.192335,-0.00766602,0.330352,0.0664505,0.0622742,-0.10429,0.05778,-0.100347,-0.100647,0.327447,0.023022,-0.182809,1.98691e-08,-4.56731e-09,0.3,-0.3,-1.73628,-2.10468,0.356613,173.159,-3.52455,0.508963,-13.8699,-0.680533,0,185.888,-2.3087,0.000486374,0.000121615,1.28272e-05,0.86,93.2353,-21.6624,889.41
0.055,-0.192335,-0.00766602,0.330352,0.0664505,0.0622742,-0.10429,0.05778,-0.100347,-0.100647,0.327447,0.023022,-0.182809,1.98691e-08,-4.56731e-09,0.3,-0.3,-1.76724,-2.09707,0.375105,173.221,-3.5025,0.537514,-13.8699,-0.680533,0,185.888,-2.3087,0.000486374,0.000121615,1.28272e-05,0.86,93.2089,-21.6606,889.307
0.056,-0.192335,-0.00766602,0.330352,0.0664505,0.0622742,-0.10429,0.05778,-0.100347,-0.100647,0.327447,0.023022,-0.182809,1.98691e-08,-4.56731e-09,0.3,-0.3,-1.79772,-2.09003,0.394794,173.291,-3.47251,0.566189,-13.8699,-0.680533,0,185.888,-2.3087,0.000486374,0.000121615,1.28272e-05,0.86,93.185,-21.6563,889.202
0.057,-0.192335,-0.00766602,0.330352,0.0664505,0.0622742,-0.10429,0.05778,-0.100347,-0.100647,0.327447,0.023022,-0.182809,1.98691e-08,-4.56731e-09,0.3,-0.3,-1.8252,-2.07654,0.416824,173.369,-3.43489,0.595119,-13.8699,-0.680533,0,185.888,-2.3087,0.000486374,0.000121615,1.28272e-05,0.86,93.1636,-21.6496,889.094
0.058,-0.192335,-0.00766602,0.330352,0.0664505,0.0622742,-0.10429,0.05778,-0.100347,-0.100647,0.327447,0.023022,-0.182809,1.98691e-08,-4.56731e-09,0.3,-0.3,-1.85129,-2.06096,0.440389,173.456,-3.39006,0.624403,-13.8699,-0.680533,0,185.888,-2.3087,0.000486374,0.000121615,1.28272e-05,0.86,93.1446,-21.6407,888.985
0.059,-0.192335,-0.00766602,0.330352,0.0664505,0.0622742,-0.10429,0.05778,-0.100347,-0.100647,0.327447,0.023022,-0.182809,1.98691e-08,-4.56731e-09,0.3,-0.3,-1.87701,-2.04618,0.465129,173.551,-3.33854,0.654051,-13.8699,-0.680533,0,185.888,-2.3087,0.000486374,0.000121615,1.28272e-05,0.86,93.1278,-21.6295,888.873
0.06,-0.192335,-0.00766602,0.330352,0.0664505,0.0622742,-0.10429,0.05778,-0.100347,-0.100647,0.327447,0.023022,-0.182809,1.98691e-08,-4.56731e-09,0.3,-0.3,-1.90232,-2.03209,0.490795,173.653,-3.28089,0.684019,-13.8699,-0.680533,0,185.888,-2.3087,0.000486374,0.000121615,1.28272e-05,0.86,93.1133,-21.6162,888.76
0.061,-0.192335,-0.00766602,0.330352,0.0664505,0.0622742,-0.10429,0.05778,-0.100347,-0.100647,0.327447,0.023022,-0.182809,1.98691e-08,-4.56731e-09,0.3,-0.3,-1.9272,-2.01858,0.517142,173.762,-3.21763,0.714266,-13.8699,-0.680533,0,185.888,-2.3087,0.000486374,0.000121615,1.28272e-05,0.86,93.1011,-21.601,888.644
0.062,-0.192335,-0.00766602,0.330352,0.0664505,0.0622742,-0.10429,0.05778,-0.100347,-0.100647,0.327447,0.023022,-0.182809,1.98691e-08,-4.56731e-09,0.3,-0.3,-1.95164,-2.00559,0.543941,173.879,-3.14936,0.744713,-13.8699,-0.680533,0,185.888,-2.3087,0.000486374,0.000121615,1.28272e-05,0.86,93.0909,-21.584,888.527
0.063,-0.192335,-0.00766602,0.330352,0.0664505,0.0622742,-0.10429,0.05778,-0.100347,-0.100647,0.327447,0.023022,-0.182809,1.98691e-08,-4.56731e-09,0.3,-0.3,-1.97567,-1.99303,0.57098,174.002,-3.07669,0.77529,-13.8699,-0.680533,0,185.888,-2.3087,0.000486374,0.000121615,1.28272e-05,0.86,93.0827,-21.5652,888.407
0.064,-0.192335,-0.00766602,0.330352,0.0664505,0.0622742,-0.10429,0.05778,-0.100347,-0.100647,0.327447,0.023022,-0.182809,1.98691e-08,-4.56731e-09,0.3,-0.3,-1.99932,-1.98086,0.598071,174.13,-3.00018,0.805922,-13.8699,-0.680533,0,185.888,-2.3087,0.000486374,0.000121615,1.28272e-05,0.86,93.0765,-21.5448,888.286
0.065,-0.192335,-0.00766602,0.330352,0.0664505,0.0622742,-0.10429,0.05778,-0.100347,-0.100647,0.327447,0.023022,-0.182809,1.98691e-08,-4.56731e-09,0.3,-0.3,-2.02264,-1.96903,0.625054,174.265,-2.92039,0.83654,-13.8699,-0.680533,0,185.888,-2.3087,0.000486374,0.000121615,1.28272e-05,0.86,93.0721,-21.523,888.163
0.066,-0.192335,-0.00766602,0.330352,0.0664505,0.0622742,-0.10429,0.05778,-0.100347,-0.100647,0.327447,0.023022,-0.182809,1.98691e-08,-4.56731e-09,0.3,-0.3,-2.04568,-1.9575,0.651793,174.404,-2.83783,0.867083,-13.8699,-0.680533,0,185.888,-2.3087,0.000486374,0.000121615,1.28272e-05,0.86,93.0695,-21.4997,888.038
0.067,-0.192335,-0.00766602,0.330352,0.0664505,0.0622742,-0.10429,0.05778,-0.100347,-0.100647,0.327447,0.023022,-0.182809,1.98691e-08,-4.56731e-09,0.3,-0.3,-2.06849,-1.94623,0.678184,174.548,-2.75298,0.89749,-13.8699,-0.680533,0,185.888,-2.3087,0.000486374,0.000121615,1.28272e-05,0.86,93.0685,-21.475,887.911
0.068,-0.192335,-0.00766602,0.330352,0.0664505,0.0622742,-0.10429,0.05778,-0.100347,-0.100647,0.327447,0.023022,-0.182809,1.98691e-08,-4.56731e-09,0.3,-0.3,-2.09114,-1.93517,0.704145,174.696,-2.66628,0.927711,-13.8699,-0.680533,0,185.888,-2.3087,0.000486374,0.000121615,1.28272e-05,0.86,93.0691,-21.4491,887.782
0.069,-0.192335,-0.00766602,0.330352,0.0664505,0.0622742,-0.10429,0.05778,-0.100347,-0.100647,0.327447,0.023022,-0.182809,1.98691e-08,-4.56731e-09,0.3,-0.3,-2.11366,-1.92431,0.729621,174.847,-2.57813,0.957701,-13.8699,-0.680533,0,185.888,-2.3087,0.000486374,0.000121615,1.28272e-05,0.86,93.0712,-21.4221,887.65
0.07,-0.192335,-0.00766602,0.330352,0.0664505,0.0622742,-0.10429,0.05778,-0.100347,-0.100647,0.327447,0.023022,-0.182809,1.98691e-08,-4.56731e-09,0.3,-0.3,-2.13611,-1.9136,0.754582,175.002,-2.48891,0.987423,-13.8699,-0.680533,0,185.888,-2.3087,0.000486374,0.000121615,1.28272e-05,0.86,93.0747,-21.3939,887.517
0.071,-0.192335,-0.00766602,0.330352,0.0664505,0.0622742,-0.10429,0.05778,-0.100347,-0.100647,0.327447,0.023022,-0.182809,1.98691e-08,-4.56731e-09,0.3,-0.3,-2.15854,-1.90302,0.779017,175.159,-2.39893,1.01684,-13.8699,-0.680533,0,185.888,-2.3087,0.000486374,0.000121615,1.28272e-05,0.86,93.0795,-21.3646,887.382
0.072,-0.192335,-0.00766602,0.330352,0.0664505,0.0622742,-0.10429,0.05778,-0.100347,-0.100647,0.327447,0.023022,-0.182809,1.98691e-08,-4.56731e-09,0.3,-0.3,-2.18098,-1.89254,0.80293,175.318,-2.3085,1.04592,-13.8699,-0.680533,0,185.888,-2.3087,0.000486374,0.000121615,1.28272e-05,0.86,93.0856,-21.3343,887.245
0.073,-0.192335,-0.00766602,0.330352,0.0664505,0.0622742,-0.10429,0.05778,-0.100347,-0.100647,0.327447,0.023022,-0.182809,1.98691e-08,-4.56731e-09,0.3,-0.3,-2.20348,-1.88212,0.826344,175.48,-2.21789,1.07464,-13.8699,-0.680533,0,185.888,-2.3087,0.000486374,0.000121615,1.28272e-05,0.86,93.093,-21.3031,887.106
0.074,-0.192335,-0.00766602,0.330352,0.0664505,0.0622742,-0.10429,0.05778,-0.100347,-0.100647,0.327447,0.023022,-0.182809,1.98691e-08,-4.56731e-09,0.3,-0.3,-2.22607,-1.87172,0.84929,175.642,-2.12732,1.10299,-13.8699,-0.680533,0,185.888,-2.3087,0.000486374,0.000121615,1.28272e-05,0.86,93.1016,-21.2708,886.965
0.075,-0.192335,-0.00766602,0.330352,0.0664505,0.0622742,-0.10429,0.05778,-0.100347,-0.100647,0.327447,0.023022,-0.182809,1.98691e-08,-4.56731e-09,0.3,-0.3,-2.24879,-1.86131,0.871807,175.807,-2.037,1.13095,-13.8699,-0.680533,0,185.888,-2.3087,0.000486374,0.000121615,1.28272e-05,0.86,93.1113,-21.2376,886.823
0.076,-0.192335,-0.00766602,0.330352,0.0664505,0.0622742,-0.10429,0.05778,-0.100347,-0.100647,0.327447,0.023022,-0.182809,1.98691e-08,-4.56731e-09,0.3,-0.3,-2.27167,-1.85084,0.893942,175.972,-1.94712,1.1585,-13.8699,-0.680533,0,185.888,-2.3087,0.000486374,0.000121615,1.28272e-05,0.86,93.1222,-21.2035,886.678
0.077,-0.192335,-0.00766602,0.330352,0.0664505,0.0622742,-0.10429,0.05778,-0.100347,-0.100647,0.327447,0.023022,-0.182809,1.98691e-08,-4.56731e-09,0.3,-0.3,-2.29477,-1.84024,0.91574,176.138,-1.85781,1.18564,-13.8699,-0.680533,0,185.888,-2.3087,0.000486374,0.000121615,1.28272e-05,0.86,93.1341,-21.1685,886.531
0.078,-0.192335,-0.00766602,0.330352,0.0664505,0.0622742,-0.10429,0.05778,-0.100347,-0.100647,0.327447,0.023022,-0.182809,1.98691e-08,-4.56731e-09,0.3,-0.3,-2.31823,-1.82944,0.937249,176.304,-1.76922,1.21235,-13.8699,-0.680533,0,185.888,-2.3087,0.000486374,0.000121615,1.28272e-05,0.86,93.1471,-21.1326,886.383
0.079,-0.192335,-0.00766602,0.330352,0.0664505,0.0622742,-0.10429,0.05778,-0.100347,-0.100647,0.327447,0.023022,-0.182809,1.98691e-08,-4.56731e-09,0.3,-0.3,-2.34237,-1.81855,0.958515,176.471,-1.68144,1.23863,-13.8699,-0.680533,0,185.888,-2.3087,0.000486374,0.000121615,1.28272e-05,0.86,93.1611,-21.0958,886.233
0.08,-0.192335,-0.00766602,0.330352,0.0664505,0.0622742,-0.10429,0.05778,-0.100347,-0.100647,0.327447,0.023022,-0.182809,1.98691e-08,-4.56731e-09,0.3,-0.3,-2.3662,-1.80826,0.979626,176.639,-1.59457,1.26448,-13.8699,-0.680533,0,185.888,-2.3087,0.000486374,0.000121615,1.28272e-05,0.86,93.1762,-21.0582,886.08
0.081,-0.192335,-0.00766602,0.330352,0.0664505,0.0622742,-0.10429,0.05778,-0.100347,-0.100647,0.327447,0.023022,-0.182809,1.98691e-08,-4.56731e-09,0.3,-0.3,-2.39006,-1.7978,1.00053,176.806,-1.50869,1.2899,-13.8699,-0.680533,0,185.888,-2.3087,0.000486374,0.000121615,1.28272e-05,0.86,93.1923,-21.0196,885.927
0.082,-0.192335,-0.00766602,0.330352,0.0664505,0.0622742,-0.10429,0.05778,-0.100347,-0.100647,0.327447,0.023022,-0.182809,1.98691e-08,-4.56731e-09,0.3,-0.3,-2.41429,-1.78701,1.02128,176.974,-1.42384,1.3149,-13.8699,-0.680533,0,185.888,-2.3087,0.000486374,0.000121615,1.28272e-05,0.86,93.2095,-20.9803,885.771
0.083,-0.192335,-0.00766602,0.330352,0.0664505,0.0622742,-0.10429,0.05778,-0.100347,-0.100647,0.327447,0.023022,-0.182809,1.98691e-08,-4.56731e-09,0.3,-0.3,-2.43897,-1.77592,1.04194,177.141,-1.34008,1.33946,-13.8699,-0.680533,0,185.888,-2.3087,0.000486374,0.000121615,1.28272e-05,0.86,93.2277,-20.94,885.614
0.084,-0.192335,-0.00766602,0.330352,0.0664505,0.0622742,-0.10429,0.05778,-0.100347,-0.100647,0.327447,0.023022,-0.182809,1.98691e-08,-4.56731e-09,0.3,-0.3,-2.46436,-1.7647,1.06255,177.309,-1.25742,1.36359,-13.8699,-0.680533,0,185.888,-2.3087,0.000486374,0.000121615,1.28272e-05,0.86,93.2469,-20.8989,885.455
0.085,-0.192335,-0.00766602,0.330352,0.0664505,0.0622742,-0.10429,0.05778,-0.100347,-0.100647,0.327447,0.023022,-0.182809,1.98691e-08,-4.56731e-09,0.3,-0.3,-2.48979,-1.7535,1.08314,177.477,-1.17586,1.38728,-13.8699,-0.680533,0,185.888,-2.3087,0.000486374,0.000121615,1.28272e-05,0.86,93.2672,-20.8569,885.294
0.086,-0.192335,-0.00766602,0.330352,0.0664505,0.0622742,-0.10429,0.05778,-0.100347,-0.100647,0.327447,0.023022,-0.182809,1.98691e-08,-4.56731e-09,0.3,-0.3,-2.51534,-1.74202,1.10372,177.645,-1.0954,1.41054,-13.8699,-0.680533,0,185.888,-2.3087,0.000486374,0.000121615,1.28272e-05,0.86,93.2885,-20.8141,885.132
0.087,-0.192335,-0.00766602,0.330352,0.0664505,0.0622742,-0.10429,0.05778,-0.100347,-0.100647,0.327447,0.023022,-0.182809,1.98691e-08,-4.56731e-09,0.3,-0.3,-2.54103,-1.73064,1.12424,177.814,-1.01601,1.43336,-13.8699,-0.680533,0,185.888,-2.3087,0.000486374,0.000121615,1.28272e-05,0.86,93.311,-20.7704,884.968
0.088,-0.192335,-0.00766602,0.330352,0.0664505,0.0622742,-0.10429,0.05778,-0.100347,-0.100647,0.327447,0.023022,-0.182809,1.98691e-08,-4.56731e-09,0.3,-0.3,-2.56683,-1.71935,1.1447,177.982,-0.937702,1.45577,-13.8699,-0.680533,0,185.888,-2.3087,0.000486374,0.000121615,1.28272e-05,0.86,93.3345,-20.7259,884.803
0.089,-0.192335,-0.00766602,0.330352,0.0664505,0.0622742,-0.10429,0.05778,-0.100347,-0.100647,0.327447,0.023022,-0.182809,1.98691e-08,-4.56731e-09,0.3,-0.3,-2.59278,-1.70811,1.16518,178.151,-0.860442,1.47773,-13.8699,-0.680533,0,185.888,-2.3087,0.000486374,0.000121615,1.28272e-05,0.86,93.3591,-20.6805,884.636
0.09,-0.192335,-0.00766602,0.330352,0.0664505,0.0622742,-0.10429,0.05778,-0.100347,-0.100647,0.327447,0.023022,-0.182809,1.98691e-08,-4.56731e-09,0.3,-0.3,-2.61918,-1.69653,1.18559,178.32,-0.78419,1.49926,-13.8699,-0.680533,0,185.888,-2.3087,0.000486374,0.000121615,1.28272e-05,0.86,93.3848,-20.6342,884.467
0.091,-0.192335,-0.00766602,0.330352,0.0664505,0.0622742,-0.10429,0.05778,-0.100347,-0.100647,0.327447,0.023022,-0.182809,1.98691e-08,-4.56731e-09,0.3,-0.3,-2.646,-1.68502,1.20596,178.49,-0.708892,1.52035,-13.8699,-0.680533,0,185.888,-2.3087,0.000486374,0.000121615,1.28272e-05,0.86,93.4117,-20.5871,884.297
0.092,-0.192335,-0.00766602,0.330352,0.0664505,0.0622742,-0.10429,0.05778,-0.100347,-0.100647,0.327447,0.023022,-0.182809,1.98691e-08,-4.56731e-09,0.3,-0.3,-2.67284,-1.67342,1.22625,178.66,-0.634489,1.54099,-13.8699,-0.680533,0,185.888,-2.3087,0.000486374,0.000121615,1.28272e-05,0.86,93.4398,-20.5392,884.126
0.093,-0.192335,-0.00766602,0.330352,0.0664505,0.0622742,-0.10429,0.05778,-0.100347,-0.100647,0.327447,0.023022,-0.182809,1.98691e-08,-4.56731e-09,0.3,-0.3,-2.69954,-1.66172,1.24643,178.831,-0.560929,1.56121,-13.8699,-0.680533,0,185.888,-2.3087,0.000486374,0.000121615,1.28272e-05,0.86,93.469,-20.4904,883.953
0.094,-0.192335,-0.00766602,0.330352,0.0664505,0.0622742,-0.10429,0.05778,-0.100347,-0.100647,0.327447,0.023022,-0.182809,1.98691e-08,-4.56731e-09,0.3,-0.3,-2.72668,-1.6502,1.26653,179.003,-0.488172,1.58097,-13.8699,-0.680533,0,185.888,-2.3087,0.000486374,0.000121615,1.28272e-05,0.86,93.4994,-20.4407,883.779
0.095,-0.192335,-0.00766602,0.330352,0.0664505,0.0622742,-0.10429,0.05778,-0.100347,-0.100647,0.327447,0.023022,-0.182809,1.98691e-08,-4.56731e-09,0.3,-0.3,-2.75401,-1.63863,1.28651,179.175,-0.416144,1.60027,-13.8699,-0.680533,0,185.888,-2.3087,0.000486374,0.000121615,1.28272e-05,0.86,93.531,-20.3902,883.604
0.096,-0.192335,-0.00766602,0.330352,0.0664505,0.0622742,-0.10429,0.05778,-0.100347,-0.100647,0.327447,0.023022,-0.182809,1.98691e-08,-4.56731e-09,0.3,-0.3,-2.78126,-1.62694,1.30633,179.348,-0.344767,1.61913,-13.8699,-0.680533,0,185.888,-2.3087,0.000486374,0.000121615,1.28272e-05,0.86,93.5639,-20.3388,883.427
0.097,-0.192335,-0.00766602,0.330352,0.0664505,0.0622742,-0.10429,0.05778,-0.100347,-0.100647,0.327447,0.023022,-0.182809,1.98691e-08,-4.56731e-09,0.3,-0.3,-2.80867,-1.6152,1.32603,179.523,-0.273986,1.63754,-13.8699,-0.680533,0,185.888,-2.3087,0.000486374,0.000121615,1.28272e-05,0.86,93.598,-20.2865,883.249
0.098,-0.192335,-0.00766602,0.330352,0.0664505,0.0622742,-0.10429,0.05778,-0.100347,-0.100647,0.327447,0.023022,-0.182809,1.98691e-08,-4.56731e-09,0.3,-0.3,-2.8362,-1.60341,1.34557,179.698,-0.203734,1.65548,-13.8699,-0.680533,0,185.888,-2.3087,0.000486374,0.000121615,1.28272e-05,0.86,93.6333,-20.2334,883.069
0.099,-0.192335,-0.00766602,0.330352,0.0664505,0.0622742,-0.10429,0.05778,-0.100347,-0.100647,0.327447,0.023022,-0.182809,1.98691e-08,-4.56731e-09,0.3,-0.3,-2.86384,-1.59158,1.36495,179.874,-0.13394,1.67295,-13.8699,-0.680533,0,185.888,-2.3087,0.000486374,0.000121615,1.28272e-05,0.86,93.6699,-20.1795,882.889
0.1,-0.192335,-0.00766602,0.330352,0.0664505,0.0622742,-0.10429,0.05778,-0.100347,-0.100647,0.327447,0.023022,-0.182809,1.98691e-08,-4.56731e-09,0.3,-0.3,-2.89155,-1.57972,1.38415,180.051,-0.0645352,1.68994,-13.8699,-0.680533,0,185.888,-2.3087,0.000486374,0.000121615,1.28272e-05,0.86,93.7078,-20.1246,882.707
0.101,-0.192335,-0.00766602,0.330352,0.0664505,0.0622742,-0.10429,0.05778,-0.100347,-0.100647,0.327447,0.023022,-0.182809,1.98691e-08,-4.56731e-09,0.3,-0.3,-2.91931,-1.56783,1.40316,180.229,0.00454815,1.70645,-13.8699,-0.680533,0,185.888,-2.3087,0.000486374,0.000121615,1.28272e-05,0.86,93.747,-20.0689,882.524
0.102,-0.192335,-0.00766602,0.330352,0.0664505,0.0622742,-0.10429,0.05778,-0.100347,-0.100647,0.327447,0.023022,-0.182809,1.98691e-08,-4.56731e-09,0.3,-0.3,-2.94708,-1.55591,1.42195,180.409,0.0733742,1.72248,-13.8699,-0.680533,0,185.888,-2.3087,0.000486374,0.000121615,1.28272e-05,0.86,93.7874,-20.0123,882.34
0.103,-0.192335,-0.00766602,0.330352,0.0664505,0.0622742,-0.10429,0.05778,-0.100347,-0.100647,0.327447,0.023022,-0.182809,1.98691e-08,-4.56731e-09,0.3,-0.3,-2.97487,-1.54395,1.44052,180.589,0.142003,1.73801,-13.8699,-0.680533,0,185.888,-2.3087,0.000486374,0.000121615,1.28272e-05,0.86,93.8291,-19.9549,882.155
0.104,-0.192335,-0.00766602,0.330352,0.0664505,0.0622742,-0.10429,0.05778,-0.100347,-0.100647,0.327447,0.023022,-0.182809,1.98691e-08,-4.56731e-09,0.3,-0.3,-3.00265,-1.53194,1.45885,180.77,0.210488,1.75303,-13.8699,-0.680533,0,185.888,-2.3087,0.000486374,0.000121615,1.28272e-05,0.86,93.8722,-19.8966,881.968
0.105,-0.192335,-0.00766602,0.330352,0.0664505,0.0622742,-0.10429,0.05778,-0.100347,-0.100647,0.327447,0.023022,-0.182809,1.98691e-08,-4.56731e-09,0.3,-0.3,-3.03041,-1.51988,1.47693,180.953,0.278881,1.76756,-13.8699,-0.680533,0,185.888,-2.3087,0.000486374,0.000121615,1.28272e-05,0.86,93.9165,-19.8374,881.781
0.106,-0.192335,-0.00766602,0.330352,0.0664505,0.0622742,-0.10429,0.05778,-0.100347,-0.100647,0.327447,0.023022,-0.182809,1.98691e-08,-4.56731e-09,0.3,-0.3,-3.05818,-1.50774,1.49476,181.136,0.347224,1.78156,-13.8699,-0.680533,0,185.888,-2.3087,0.000486374,0.000121615,1.28272e-05,0.86,93.9621,-19.7773,881.593
0.107,-0.192335,-0.00766602,0.330352,0.0664505,0.0622742,-0.10429,0.05778,-0.100347,-0.100647,0.327447,0.023022,-0.182809,1.98691e-08,-4.56731e-09,0.3,-0.3,-3.08599,-1.4955,1.51231,181.321,0.415559,1.79505,-13.8699,-0.680533,0,185.888,-2.3087,0.000486374,0.000121615,1.28272e-05,0.86,94.009,-19.7163,881.403
0.108,-0.192335,-0.00766602,0.330352,0.0664505,0.0622742,-0.10429,0.05778,-0.100347,-0.100647,0.327447,0.023022,-0.182809,1.98691e-08,-4.56731e-09,0.3,-0.3,-3.11402,-1.48311,1.52958,181.506,0.48392,1.80801,-13.8699,-0.680533,0,185.888,-2.3087,0.000486374,0.000121615,1.28272e-05,0.86,94.0572,-19.6545,881.213
0.109,-0.192335,-0.00766602,0.330352,0.0664505,0.0622742,-0.10429,0.05778,-0.100347,-0.100647,0.327447,0.023022,-0.182809,1.98691e-08,-4.56731e-09,0.3,-0.3,-3.1423,-1.47098,1.54661,181.692,0.552343,1.82041,-13.8699,-0.680533,0,185.888,-2.3087,0.000486374,0.000121615,1.28272e-05,0.86,94.1067,-19.5918,881.022
0.11,-0.192335,-0.00766602,0.330352,0.0664505,0.0622742,-0.10429,0.05778,-0.100347,-0.100647,0.327447,0.023022,-0.182809,1.98691e-08,-4.56731e-09,0.3,-0.3,-3.17026,-1.45893,1.56333,181.879,0.62086,1.83227,-13.8699,-0.680533,0,185.888,-2.3087,0.000486374,0.000121615,1.28272e-05,0.86,94.1575,-19.5283,880.83
0.111,-0.192335,-0.00766602,0.330352,0.0664505,0.0622742,-0.10429,0.05778,-0.100347,-0.100647,0.327447,0.023022,-0.182809,1.98691e-08,-4.56731e-09,0.3,-0.3,-3.19778,-1.44695,1.5797,182.067,0.689474,1.8436,-13.8699,-0.680533,0,185.888,-2.3087,0.000486374,0.000121615,1.28272e-05,0.86,94.2096,-19.4638,880.637
0.112,-0.192335,-0.00766602,0.330352,0.0664505,0.0622742,-0.10429,0.05778,-0.100347,-0.100647,0.327447,0.023022,-0.182809,1.98691e-08,-4.56731e-09,0.3,-0.3,-3.22525,-1.43498,1.59578,182.255,0.758163,1.85438,-13.8699,-0.680533,0,185.888,-2.3087,0.000486374,0.000121615,1.28272e-05,0.86,94.263,-19.3985,880.443
0.113,-0.192335,-0.00766602,0.330352,0.0664505,0.0622742,-0.10429,0.05778,-0.100347,-0.100647,0.327447,0.023022,-0.182809,1.98691e-08,-4.56731e-09,0.3,-0.3,-3.25259,-1.42295,1.61155,182.444,0.826912,1.86461,-13.8699,-0.680533,0,185.888,-2.3087,0.000486374,0.000121615,1.28272e-05,0.86,94.3177,-19.3324,880.249
0.114,-0.192335,-0.00766602,0.330352,0.0664505,0.0622742,-0.10429,0.05778,-0.100347,-0.100647,0.327447,0.023022,-0.182809,1.98691e-08,-4.56731e-09,0.3,-0.3,-3.28026,-1.41089,1.62705,182.634,0.895721,1.87425,-13.8699,-0.680533,0,185.888,-2.3087,0.000486374,0.000121615,1.28272e-05,0.86,94.3737,-19.2654,880.054
0.115,-0.192335,-0.00766602,0.330352,0.0664505,0.0622742,-0.10429,0.05778,-0.100347,-0.100647,0.327447,0.023022,-0.182809,1.98691e-08,-4.56731e-09,0.3,-0.3,-3.30762,-1.39912,1.64219,182.825,0.964589,1.88333,-13.8699,-0.680533,0,185.888,-2.3087,0.000486374,0.000121615,1.28272e-05,0.86,94.431,-19.1975,879.858
0.116,-0.192335,-0.00766602,0.330352,0.0664505,0.0622742,-0.10429,0.05778,-0.100347,-0.100647,0.327447,0.023022,-0.182809,1.98691e-08,-4.56731e-09,0.3,-0.3,-3.33518,-1.38726,1.65706,183.016,1.0335,1.89182,-13.8699,-0.680533,0,185.888,-2.3087,0.000486374,0.000121615,1.28272e-05,0.86,94.4896,-19.1289,879.662
0.117,-0.192335,-0.00766602,0.330352,0.0664505,0.0622742,-0.10429,0.05778,-0.100347,-0.100647,0.327447,0.023022,-0.182809,1.98691e-08,-4.56731e-09,0.3,-0.3,-3.36186,-1.37598,1.67155,183.207,1.10241,1.89973,-13.8699,-0.680533,0,185.888,-2.3087,0.000486374,0.000121615,1.28272e-05,0.86,94.5494,-19.0593,879.465
0.118,-0.192335,-0.00766602,0.330352,0.0664505,0.0622742,-0.10429,0.05778,-0.100347,-0.100647,0.327447,0.023022,-0.182809,1.98691e-08,-4.56731e-09,0.3,-0.3,-3.38882,-1.36448,1.68572,183.399,1.1713,1.90704,-13.8699,-0.680533,0,185.888,-2.3087,0.000486374,0.000121615,1.28272e-05,0.86,94.6106,-18.989,879.268
0.119,-0.192335,-0.00766602,0.330352,0.0664505,0.0622742,-0.10429,0.05778,-0.100347,-0.100647,0.327447,0.023022,-0.182809,1.98691e-08,-4.56731e-09,0.3,-0.3,-3.41587,-1.35275,1.69955,183.591,1.24015,1.91374,-13.8699,-0.680533,0,185.888,-2.3087,0.000486374,0.000121615,1.28272e-05,0.86,94.6731,-18.9178,879.07
0.12,-0.192335,-0.00766602,0.330352,0.0664505,0.0622742,-0.10429,0.05778,-0.100347,-0.100647,0.327447,0.023022,-0.182809,1.98691e-08,-4.56731e-09,0.3,-0.3,-3.44327,-1.34087,1.71304,183.784,1.30893,1.91984,-13.8699,-0.680533,0,185.888,-2.3087,0.000486374,0.000121615,1.28272e-05,0.86,94.7369,-18.8458,878.871
0.121,-0.192335,-0.00766602,0.330352,0.0664505,0.0622742,-0.10429,0.05778,-0.100347,-0.100647,0.327447,0.023022,-0.182809,1.98691e-08,-4.56731e-09,0.3,-0.3,-3.47024,-1.32967,1.72627,183.977,1.37761,1.9253,-13.8699,-0.680533,0,185.888,-2.3087,0.000486374,0.000121615,1.28272e-05,0.86,94.802,-18.773,878.672
0.122,-0.192335,-0.00766602,0.330352,0.0664505,0.0622742,-0.10429,0.05778,-0.100347,-0.100647,0.327447,0.023022,-0.182809,1.98691e-08,-4.56731e-09,0.3,-0.3,-3.49704,-1.31842,1.73931,184.036,1.39968,1.94638,-13.8699,-0.680533,0,185.888,-2.3087,0.000486374,0.000121615,1.28272e-05,0.86,94.8521,-18.702,878.478
0.123,-0.192335,-0.00766602,0.330352,0.0664505,0.0622742,-0.10429,0.05778,-0.100347,-0.100647,0.327447,0.023022,-0.182809,1.98691e-08,-4.56731e-09,0.3,-0.3,-3.55048,-1.31072,1.75517,184.036,1.3992,1.96673,-13.8699,-0.680533,0,185.888,-2.3087,0.000486374,0.000121615,1.28272e-05,0.86,94.8934,-18.6306,878.289
0.124,-0.192335,-0.00766602,0.330352,0.0664505,0.0622742,-0.10429,0.05778,-0.100347,-0.100647,0.327447,0.023022,-0.182809,1.98691e-08,-4.56731e-09,0.3,-0.3,-3.61502,-1.28941,1.78001,184.028,1.39508,1.98683,-13.8699,-0.680533,0,185.888,-2.3087,0.000486374,0.000121615,1.28272e-05,0.86,94.9305,-18.5579,878.105
0.125,-0.192335,-0.00766602,0.330352,0.0664505,0.0622742,-0.10429,0.05778,-0.100347,-0.100647,0.327447,0.023022,-0.182809,1.98691e-08,-4.56731e-09,0.3,-0.3,-3.69264,-1.25809,1.811,184.017,1.3895,2.0071,-13.8699,-0.680533,0,185.888,-2.3087,0.000486374,0.000121615,1.28272e-05,0.86,94.964,-18.484,877.923
0.126,-0.192335,-0.00766602,0.330352,0.0664505,0.0622742,-0.10429,0.05778,-0.100347,-0.100647,0.327447,0.023022,-0.182809,1.98691e-08,-4.56731e-09,0.3,-0.3,-3.78331,-1.22005,1.84704,184.005,1.38324,2.02761,-13.8699,-0.680533,0,185.888,-2.3087,0.000486374,0.000121615,1.28272e-05,0.86,94.9942,-18.4089,877.745
0.127,-0.192335,-0.00766602,0.330352,0.0664505,0.0622742,-0.10429,0.05778,-0.100347,-0.100647,0.327447,0.023022,-0.182809,1.98691e-08,-4.56731e-09,0.3,-0.3,-3.88578,-1.17735,1.8875,183.992,1.37674,2.04798,-13.8699,-0.680533,0,185.888,-2.3087,0.000486374,0.000121615,1.28272e-05,0.86,95.0212,-18.3329,877.569
0.128,-0.192335,-0.00766602,0.330352,0.0664505,0.0622742,-0.10429,0.05778,-0.100347,-0.100647,0.327447,0.023022,-0.182809,1.98691e-08,-4.56731e-09,0.3,-0.3,-3.99918,-1.13186,1.93135,183.98,1.37043,2.06785,-13.8699,-0.680533,0,185.888,-2.3087,0.000486374,0.000121615,1.28272e-05,0.86,95.0453,-18.256,877.394
0.129,-0.192335,-0.00766602,0.330352,0.0664505,0.0622742,-0.10429,0.05778,-0.100347,-0.100647,0.327447,0.023022,-0.182809,1.98691e-08,-4.56731e-09,0.3,-0.3,-4.12338,-1.08529,1.97746,183.968,1.36429,2.08712,-13.8699,-0.680533,0,185.888,-2.3087,0.000486374,0.000121615,1.28272e-05,0.86,95.0664,-18.1784,877.22
0.13,-0.192335,-0.00766602,0.330352,0.0664505,0.0622742,-0.10429,0.05778,-0.100347,-0.100647,0.327447,0.023022,-0.182809,1.98691e-08,-4.56731e-09,0.3,-0.3,-4.25791,-1.03863,2.02517,183.956,1.35839,2.10583,-13.8699,-0.680533,0,185.888,-2.3087,0.000486374,0.000121615,1.28272e-05,0.86,95.0846,-18.1002,877.047
0.131,-0.192335,-0.00766602,0.330352,0.0664505,0.0622742,-0.10429,0.05778,-0.100347,-0.100647,0.327447,0.023022,-0.182809,1.98691e-08,-4.56731e-09,0.3,-0.3,-4.40226,-0.992842,2.07423,183.945,1.35276,2.124,-13.8699,-0.680533,0,185.888,-2.3087,0.000486374,0.000121615,1.28272e-05,0.86,95.1001,-18.0214,876.874
0.132,-0.192335,-0.00766602,0.330352,0.0664505,0.0622742,-0.10429,0.05778,-0.100347,-0.100647,0.327447,0.023022,-0.182809,1.98691e-08,-4.56731e-09,0.3,-0.3,-4.5559,-0.948762,2.1245,183.935,1.34741,2.14165,-13.8699,-0.680533,0,185.888,-2.3087,0.000486374,0.000121615,1.28272e-05,0.86,95.1128,-17.942,876.702
0.133,-0.192335,-0.00766602,0.330352,0.0664505,0.0622742,-0.10429,0.05778,-0.100347,-0.100647,0.327447,0.023022,-0.182809,1.98691e-08,-4.56731e-09,0.3,-0.3,-4.71845,-0.907089,2.17584,183.925,1.34236,2.15878,-13.8699,-0.680533,0,185.888,-2.3087,0.000486374,0.000121615,1.28272e-05,0.86,95.1228,-17.8621,876.53
0.134,-0.192335,-0.00766602,0.330352,0.0664505,0.0622742,-0.10429,0.05778,-0.100347,-0.100647,0.327447,0.023022,-0.182809,1.98691e-08,-4.56731e-09,0.3,-0.3,-4.88958,-0.868432,2.2281,183.915,1.33761,2.17535,-13.8699,-0.680533,0,185.888,-2.3087,0.000486374,0.000121615,1.28272e-05,0.86,95.1301,-17.7818,876.36
0.135,-0.192335,-0.00766602,0.330352,0.0664505,0.0622742,-0.10429,0.05778,-0.100347,-0.100647,0.327447,0.023022,-0.182809,1.98691e-08,-4.56731e-09,0.3,-0.3,-5.06909,-0.833323,2.28111,183.907,1.33316,2.19125,-13.8699,-0.680533,0,185.888,-2.3087,0.000486374,0.000121615,1.28272e-05,0.86,95.1348,-17.7012,876.19
0.136,-0.192335,-0.00766602,0.330352,0.0664505,0.0622742,-0.10429,0.05778,-0.100347,-0.100647,0.327447,0.023022,-0.182809,1.98691e-08,-4.56731e-09,0.3,-0.3,-5.25684,-0.802184,2.3346,183.899,1.32901,2.20649,-13.8699,-0.680533,0,185.888,-2.3087,0.000486374,0.000121615,1.28272e-05,0.86,95.1369,-17.6201,876.021
0.137,-0.192335,-0.00766602,0.330352,0.0664505,0.0622742,-0.10429,0.05778,-0.100347,-0.100647,0.327447,0.023022,-0.182809,1.98691e-08,-4.56731e-09,0.3,-0.3,-5.45291,-0.775421,2.38827,183.891,1.32514,2.22102,-13.8699,-0.680533,0,185.888,-2.3087,0.000486374,0.000121615,1.28272e-05,0.86,95.1365,-17.5388,875.853
0.138,-0.192335,-0.00766602,0.330352,0.0664505,0.0622742,-0.10429,0.05778,-0.100347,-0.100647,0.327447,0.023022,-0.182809,1.98691e-08,-4.56731e-09,0.3,-0.3,-5.65737,-0.753215,2.44185,183.884,1.32158,2.23477,-13.8699,-0.680533,0,185.888,-2.3087,0.000486374,0.000121615,1.28272e-05,0.86,95.1334,-17.4572,875.684
0.139,-0.192335,-0.00766602,0.330352,0.0664505,0.0622742,-0.10429,0.05778,-0.100347,-0.100647,0.327447,0.023022,-0.182809,1.98691e-08,-4.56731e-09,0.3,-0.3,-5.87058,-0.735772,2.49509,183.878,1.31824,2.2477,-13.8699,-0.680533,0,185.888,-2.3087,0.000486374,0.000121615,1.28272e-05,0.86,95.1278,-17.3752,875.516
0.14,-0.192335,-0.00766602,0.330352,0.0664505,0.0622742,-0.10429,0.05778,-0.100347,-0.100647,0.327447,0.023022,-0.182809,1.98691e-08,-4.56731e-09,0.3,-0.3,-6.09263,-0.72297,2.5478,183.872,1.31511,2.25978,-13.8699,-0.680533,0,185.888,-2.3087,0.000486374,0.000121615,1.28272e-05,0.86,95.1196,-17.293,875.349
0.141,-0.192335,-0.00766602,0.330352,0.0664505,0.0622742,-0.10429,0.05778,-0.100347,-0.100647,0.327447,0.023022,-0.182809,1.98691e-08,-4.56731e-09,0.3,-0.3,-6.32371,-0.714718,2.59986,183.867,1.3123,2.27095,-13.8699,-0.680533,0,185.888,-2.3087,0.000486374,0.000121615,1.28272e-05,0.86,95.1089,-17.2105,875.181
0.142,-0.192335,-0.00766602,0.330352,0.0664505,0.0622742,-0.10429,0.05778,-0.100347,-0.100647,0.327447,0.023022,-0.182809,1.98691e-08,-4.56731e-09,0.3,-0.3,-6.56417,-0.711031,2.65121,183.862,1.30967,2.28119,-13.8699,-0.680533,0,185.888,-2.3087,0.000486374,0.000121615,1.28272e-05,0.86,95.0956,-17.1277,875.015
0.143,-0.192335,-0.00766602,0.330352,0.0664505,0.0622742,-0.10429,0.05778,-0.100347,-0.100647,0.327447,0.023022,-0.182809,1.98691e-08,-4.56731e-09,0.3,-0.3,-6.81401,-0.711587,2.70177,183.857,1.30721,2.29042,-13.8699,-0.680533,0,185.888,-2.3087,0.000486374,0.000121615,1.28272e-05,0.86,95.0797,-17.0446,874.848
0.144,-0.192335,-0.00766602,0.330352,0.0664505,0.0622742,-0.10429,0.05778,-0.100347,-0.100647,0.327447,0.023022,-0.182809,1.98691e-08,-4.56731e-09,0.3,-0.3,-7.07323,-0.716133,2.75155,183.852,1.30488,2.29858,-13.8699,-0.680533,0,185.888,-2.3087,0.000486374,0.000121615,1.28272e-05,0.86,95.0612,-16.9612,874.682
0.145,-0.192335,-0.00766602,0.330352,0.0664505,0.0622742,-0.10429,0.05778,-0.100347,-0.100647,0.327447,0.023022,-0.182809,1.98691e-08,-4.56731e-09,0.3,-0.3,-7.34152,-0.724279,2.80064,183.848,1.30248,2.30579,-13.8699,-0.680533,0,185.888,-2.3087,0.000486374,0.000121615,1.28272e-05,0.86,95.0402,-16.8774,874.516
0.146,-0.192335,-0.00766602,0.330352,0.0664505,0.0622742,-0.10429,0.05778,-0.100347,-0.100647,0.327447,0.023022,-0.182809,1.98691e-08,-4.56731e-09,0.3,-0.3,-7.6179,-0.735124,2.84907,183.844,1.30041,2.3126,-13.8699,-0.680533,0,185.888,-2.3087,0.000486374,0.000121615,1.28272e-05,0.86,95.0168,-16.7932,874.351
0.147,-0.192335,-0.00766602,0.330352,0.0664505,0.0622742,-0.10429,0.05778,-0.100347,-0.100647,0.327447,0.023022,-0.182809,1.98691e-08,-4.56731e-09,0.3,-0.3,-7.90138,-0.747696,2.89605,183.84,1.29853,2.319,-13.8699,-0.680533,0,185.888,-2.3087,0.000486374,0.000121615,1.28272e-05,0.86,94.9914,-16.7085,874.186
0.148,-0.192335,-0.00766602,0.330352,0.0664505,0.0622742,-0.10429,0.05778,-0.100347,-0.100647,0.327447,0.023022,-0.182809,1.98691e-08,-4.56731e-09,0.3,-0.3,-8.19025,-0.761195,2.94174,183.837,1.29685,2.32499,-13.8699,-0.680533,0,185.888,-2.3087,0.000486374,0.000121615,1.28272e-05,0.86,94.9641,-16.6232,874.023
0.149,-0.192335,-0.00766602,0.330352,0.0664505,0.0622742,-0.10429,0.05778,-0.100347,-0.100647,0.327447,0.023022,-0.182809,1.98691e-08,-4.56731e-09,0.3,-0.3,-8.48274,-0.774986,2.98623,183.834,1.29536,2.33059,-13.8699,-0.680533,0,185.888,-2.3087,0.000486374,0.000121615,1.28272e-05,0.86,94.935,-16.5372,873.86
0.15,-0.192335,-0.00766602,0.330352,0.0664505,0.0622742,-0.10429,0.05778,-0.100347,-0.100647,0.327447,0.023022,-0.182809,1.98691e-08,-4.56731e-09,0.3,-0.3,-8.77707,-0.788529,3.0296,183.831,1.29407,2.33581,-13.8699,-0.680533,0,185.888,-2.3087,0.000486374,0.000121615,1.28272e-05,0.86,94.9044,-16.4505,873.699
0.151,-0.192335,-0.00766602,0.330352,0.0664505,0.0622742,-0.10429,0.05778,-0.100347,-0.100647,0.327447,0.023022,-0.182809,1.98691e-08,-4.56731e-09,0.3,-0.3,-9.07158,-0.801383,3.07184,183.829,1.29298,2.34066,-13.8699,-0.680533,0,185.888,-2.3087,0.000486374,0.000121615,1.28272e-05,0.86,94.8724,-16.363,873.539
0.152,-0.192335,-0.00766602,0.330352,0.0664505,0.0622742,-0.10429,0.05778,-0.100347,-0.100647,0.327447,0.023022,-0.182809,1.98691e-08,-4.56731e-09,0.3,-0.3,-9.36475,-0.813204,3.11293,183.828,1.29208,2.34514,-13.8699,-0.680533,0,185.888,-2.3087,0.000486374,0.000121615,1.28272e-05,0.86,94.8391,-16.2747,873.38
0.153,-0.192335,-0.00766602,0.330352,0.0664505,0.0622742,-0.10429,0.05778,-0.100347,-0.100647,0.327447,0.023022,-0.182809,1.98691e-08,-4.56731e-09,0.3,-0.3,-9.65525,-0.823723,3.15281,183.826,1.29139,2.34923,-13.8699,-0.680533,0,185.888,-2.3087,0.000486374,0.000121615,1.28272e-05,0.86,94.8047,-16.1856,873.222
0.154,-0.192335,-0.00766602,0.330352,0.0664505,0.0622742,-0.10429,0.05778,-0.100347,-0.100647,0.327447,0.023022,-0.182809,1.98691e-08,-4.56731e-09,0.3,-0.3,-9.94189,-0.832733,3.19141,183.825,1.29089,2.35295,-13.8699,-0.680533,0,185.888,-2.3087,0.000486374,0.000121615,1.28272e-05,0.86,94.7692,-16.0956,873.065
0.155,-0.192335,-0.00766602,0.330352,0.0664505,0.0622742,-0.10429,0.05778,-0.100347,-0.100647,0.327447,0.023022,-0.182809,1.98691e-08,-4.56731e-09,0.3,-0.3,-10.2237,-0.840073,3.22863,183.825,1.29058,2.35628,-13.8699,-0.680533,0,185.888,-2.3087,0.000486374,0.000121615,1.28272e-05,0.86,94.7328,-16.0048,872.909
0.156,-0.192335,-0.00766602,0.330352,0.0664505,0.0622742,-0.10429,0.05778,-0.100347,-0.100647,0.327447,0.023022,-0.182809,1.98691e-08,-4.56731e-09,0.3,-0.3,-10.4998,-0.845612,3.26437,183.825,1.29047,2.35919,-13.8699,-0.680533,0,185.888,-2.3087,0.000486374,0.000121615,1.28272e-05,0.86,94.6956,-15.9131,872.755
0.157,-0.192335,-0.00766602,0.330352,0.0664505,0.0622742,-0.10429,0.05778,-0.100347,-0.100647,0.327447,0.023022,-0.182809,1.98691e-08,-4.56731e-09,0.3,-0.3,-10.7695,-0.849236,3.29853,183.825,1.29055,2.36168,-13.8699,-0.680533,0,185.888,-2.3087,0.000486374,0.000121615,1.28272e-05,0.86,94.6577,-15.8205,872.602
0.158,-0.192335,-0.00766602,0.330352,0.0664505,0.0622742,-0.10429,0.05778,-0.100347,-0.100647,0.327447,0.023022,-0.182809,1.98691e-08,-4.56731e-09,0.3,-0.3,-11.0324,-0.85084,3.33101,183.826,1.29081,2.36371,-13.8699,-0.680533,0,185.888,-2.3087,0.000486374,0.000121615,1.28272e-05,0.86,94.6191,-15.7269,872.45
0.159,-0.192335,-0.00766602,0.330352,0.0664505,0.0622742,-0.10429,0.05778,-0.100347,-0.100647,0.327447,0.023022,-0.182809,1.98691e-08,-4.56731e-09,0.3,-0.3,-11.2879,-0.850297,3.3617,183.827,1.29127,2.36527,-13.8699,-0.680533,0,185.888,-2.3087,0.000486374,0.000121615,1.28272e-05,0.86,94.5798,-15.6325,872.299
0.16,-0.192335,-0.00766602,0.330352,0.0664505,0.0622742,-0.10429,0.05778,-0.100347,-0.100647,0.327447,0.023022,-0.182809,1.98691e-08,-4.56731e-09,0.3,-0.3,-11.5357,-0.847549,3.39051,183.828,1.29189,2.36632,-13.8699,-0.680533,0,185.888,-2.3087,0.000486374,0.000121615,1.28272e-05,0.86,94.54,-15.5371,872.15
0.161,-0.192335,-0.00766602,0.330352,0.0664505,0.0622742,-0.10429,0.05778,-0.100347,-0.100647,0.327447,0.023022,-0.182809,1.98691e-08,-4.56731e-09,0.3,-0.3,-11.7756,-0.842444,3.41737,183.83,1.29268,2.36684,-13.8699,-0.680533,0,185.888,-2.3087,0.000486374,0.000121615,1.28272e-05,0.86,94.4996,-15.4408,872.001
0.162,-0.192335,-0.00766602,0.330352,0.0664505,0.0622742,-0.10429,0.05778,-0.100347,-0.100647,0.327447,0.023022,-0.182809,1.98691e-08,-4.56731e-09,0.3,-0.3,-12.0075,-0.834867,3.44218,183.832,1.29363,2.36679,-13.8699,-0.680533,0,185.888,-2.3087,0.000486374,0.000121615,1.28272e-05,0.86,94.4586,-15.3436,871.854
0.163,-0.192335,-0.00766602,0.330352,0.0664505,0.0622742,-0.10429,0.05778,-0.100347,-0.100647,0.327447,0.023022,-0.182809,1.98691e-08,-4.56731e-09,0.3,-0.3,-12.2313,-0.824686,3.46488,183.834,1.29474,2.36614,-13.8699,-0.680533,0,185.888,-2.3087,0.000486374,0.000121615,1.28272e-05,0.86,94.4171,-15.2454,871.708
0.164,-0.192335,-0.00766602,0.330352,0.0664505,0.0622742,-0.10429,0.05778,-0.100347,-0.100647,0.327447,0.023022,-0.182809,1.98691e-08,-4.56731e-09,0.3,-0.3,-12.4469,-0.811782,3.48538,183.836,1.29599,2.36486,-13.8699,-0.680533,0,185.888,-2.3087,0.000486374,0.000121615,1.28272e-05,0.86,94.375,-15.1462,871.563
0.165,-0.192335,-0.00766602,0.330352,0.0664505,0.0622742,-0.10429,0.05778,-0.100347,-0.100647,0.327447,0.023022,-0.182809,1.98691e-08,-4.56731e-09,0.3,-0.3,-12.6545,-0.796021,3.50362,183.839,1.29738,2.36291,-13.8699,-0.680533,0,185.888,-2.3087,0.000486374,0.000121615,1.28272e-05,0.86,94.3325,-15.0462,871.419
0.166,-0.192335,-0.00766602,0.330352,0.0664505,0.0622742,-0.10429,0.05778,-0.100347,-0.100647,0.327447,0.023022,-0.182809,1.98691e-08,-4.56731e-09,0.3,-0.3,-12.854,-0.777274,3.51954,183.842,1.2989,2.36025,-13.8699,-0.680533,0,185.888,-2.3087,0.000486374,0.000121615,1.28272e-05,0.86,94.2893,-14.9451,871.276
0.167,-0.192335,-0.00766602,0.330352,0.0664505,0.0622742,-0.10429,0.05778,-0.100347,-0.100647,0.327447,0.023022,-0.182809,1.98691e-08,-4.56731e-09,0.3,-0.3,-13.0456,-0.755418,3.53309,183.846,1.30054,2.35686,-13.8699,-0.680533,0,185.888,-2.3087,0.000486374,0.000121615,1.28272e-05,0.86,94.2456,-14.8431,871.134
0.168,-0.192335,-0.00766602,0.330352,0.0664505,0.0622742,-0.10429,0.05778,-0.100347,-0.100647,0.327447,0.023022,-0.182809,1.98691e-08,-4.56731e-09,0.3,-0.3,-13.2293,-0.73034,3.54421,183.849,1.30229,2.35269,-13.8699,-0.680533,0,185.888,-2.3087,0.000486374,0.000121615,1.28272e-05,0.86,94.2012,-14.7402,870.994
0.169,-0.192335,-0.00766602,0.330352,0.0664505,0.0622742,-0.10429,0.05778,-0.100347,-0.100647,0.327447,0.023022,-0.182809,1.98691e-08,-4.56731e-09,0.3,-0.3,-13.4054,-0.701936,3.55284,183.853,1.30414,2.3477,-13.8699,-0.680533,0,185.888,-2.3087,0.000486374,0.000121615,1.28272e-05,0.86,94.1562,-14.6362,870.855
0.17,-0.192335,-0.00766602,0.330352,0.0664505,0.0622742,-0.10429,0.05778,-0.100347,-0.100647,0.327447,0.023022,-0.182809,1.98691e-08,-4.56731e-09,0.3,-0.3,-13.574,-0.670111,3.55894,183.856,1.30608,2.34186,-13.8699,-0.680533,0,185.888,-2.3087,0.000486374,0.000121615,1.28272e-05,0.86,94.1106,-14.5313,870.717
0.171,-0.192335,-0.00766602,0.330352,0.0664505,0.0622742,-0.10429,0.05778,-0.100347,-0.100647,0.327447,0.023022,-0.182809,1.98691e-08,-4.56731e-09,0.3,-0.3,-13.7354,-0.63478,3.56243,183.86,1.3081,2.33514,-13.8699,-0.680533,0,185.888,-2.3087,0.000486374,0.000121615,1.28272e-05,0.86,94.0643,-14.4254,870.58
0.172,-0.192335,-0.00766602,0.330352,0.0664505,0.0622742,-0.10429,0.05778,-0.100347,-0.100647,0.327447,0.023022,-0.182809,1.98691e-08,-4.56731e-09,0.3,-0.3,-13.8896,-0.595863,3.56328,183.864,1.31022,2.32749,-13.8699,-0.680533,0,185.888,-2.3087,0.000486374,0.000121615,1.28272e-05,0.86,94.0173,-14.3186,870.444
0.173,-0.192335,-0.00766602,0.330352,0.0664505,0.0622742,-0.10429,0.05778,-0.100347,-0.100647,0.327447,0.023022,-0.182809,1.98691e-08,-4.56731e-09,0.3,-0.3,-14.0369,-0.553287,3.56143,183.869,1.3124,2.31887,-13.8699,-0.680533,0,185.888,-2.3087,0.000486374,0.000121615,1.28272e-05,0.86,93.9696,-14.2107,870.309
0.174,-0.192335,-0.00766602,0.330352,0.0664505,0.0622742,-0.10429,0.05778,-0.100347,-0.100647,0.327447,0.023022,-0.182809,1.98691e-08,-4.56731e-09,0.3,-0.3,-14.1775,-0.506977,3.55681,183.873,1.31466,2.30926,-13.8699,-0.680533,0,185.888,-2.3087,0.000486374,0.000121615,1.28272e-05,0.86,93.9211,-14.1019,870.175
0.175,-0.192335,-0.00766602,0.330352,0.0664505,0.0622742,-0.10429,0.05778,-0.100347,-0.100647,0.327447,0.023022,-0.182809,1.98691e-08,-4.56731e-09,0.3,-0.3,-14.3116,-0.456872,3.54937,183.877,1.31696,2.29861,-13.8699,-0.680533,0,185.888,-2.3087,0.000486374,0.000121615,1.28272e-05,0.86,93.8718,-13.9921,870.043
0.176,-0.192335,-0.00766602,0.330352,0.0664505,0.0622742,-0.10429,0.05778,-0.100347,-0.100647,0.327447,0.023022,-0.182809,1.98691e-08,-4.56731e-09,0.3,-0.3,-14.4394,-0.402914,3.53904,183.882,1.31932,2.2869,-13.8699,-0.680533,0,185.888,-2.3087,0.000486374,0.000121615,1.28272e-05,0.86,93.8217,-13.8813,869.911
0.177,-0.192335,-0.00766602,0.330352,0.0664505,0.0622742,-0.10429,0.05778,-0.100347,-0.100647,0.327447,0.023022,-0.182809,1.98691e-08,-4.56731e-09,0.3,-0.3,-14.5611,-0.34505,3.52578,183.886,1.32173,2.27408,-13.8699,-0.680533,0,185.888,-2.3087,0.000486374,0.000121615,1.28272e-05,0.86,93.7707,-13.7695,869.781
0.178,-0.192335,-0.00766602,0.330352,0.0664505,0.0622742,-0.10429,0.05778,-0.100347,-0.100647,0.327447,0.023022,-0.182809,1.98691e-08,-4.56731e-09,0.3,-0.3,-14.6769,-0.283228,3.50952,183.891,1.32417,2.26012,-13.8699,-0.680533,0,185.888,-2.3087,0.000486374,0.000121615,1.28272e-05,0.86,93.7188,-13.6567,869.652
0.179,-0.192335,-0.00766602,0.330352,0.0664505,0.0622742,-0.10429,0.05778,-0.100347,-0.100647,0.327447,0.023022,-0.182809,1.98691e-08,-4.56731e-09,0.3,-0.3,-14.7871,-0.217398,3.49019,183.895,1.32666,2.245,-13.8699,-0.680533,0,185.888,-2.3087,0.000486374,0.000121615,1.28272e-05,0.86,93.6661,-13.5429,869.524
0.18,-0.192335,-0.00766602,0.330352,0.0664505,0.0622742,-0.10429,0.05778,-0.100347,-0.100647,0.327447,0.023022,-0.182809,1.98691e-08,-4.56731e-09,0.3,-0.3,-14.8917,-0.147506,3.46773,183.9,1.32917,2.22867,-13.8699,-0.680533,0,185.888,-2.3087,0.000486374,0.000121615,1.28272e-05,0.86,93.6124,-13.4281,869.397
0.181,-0.192335,-0.00766602,0.330352,0.0664505,0.0622742,-0.10429,0.05778,-0.100347,-0.100647,0.327447,0.023022,-0.182809,1.98691e-08,-4.56731e-09,0.3,-0.3,-14.9911,-0.0734961,3.44208,183.904,1.33172,2.21111,-13.8699,-0.680533,0,185.888,-2.3087,0.000486374,0.000121615,1.28272e-05,0.86,93.5578,-13.3122,869.271
0.182,-0.192335,-0.00766602,0.330352,0.0664505,0.0622742,-0.10429,0.05778,-0.100347,-0.100647,0.327447,0.023022,-0.182809,1.98691e-08,-4.56731e-09,0.3,-0.3,-15.0853,0.00469317,3.41317,183.909,1.33431,2.1923,-13.8699,-0.680533,0,185.888,-2.3087,0.000486374,0.000121615,1.28272e-05,0.86,93.5022,-13.1954,869.147
0.183,-0.192335,-0.00766602,0.330352,0.0664505,0.0622742,-0.10429,0.05778,-0.100347,-0.100647,0.327447,0.023022,-0.182809,1.98691e-08,-4.56731e-09,0.3,-0.3,-15.1746,0.0871269,3.38095,183.914,1.33692,2.17219,-13.8699,-0.680533,0,185.888,-2.3087,0.000486374,0.000121615,1.28272e-05,0.86,93.4456,-13.0776,869.023
0.184,-0.192335,-0.00766602,0.330352,0.0664505,0.0622742,-0.10429,0.05778,-0.100347,-0.100647,0.327447,0.023022,-0.182809,1.98691e-08,-4.56731e-09,0.3,-0.3,-15.2591,0.173872,3.34535,183.919,1.33956,2.15077,-13.8699,-0.680533,0,185.888,-2.3087,0.000486374,0.000121615,1.28272e-05,0.86,93.388,-12.9587,868.901
0.185,-0.192335,-0.00766602,0.330352,0.0664505,0.0622742,-0.10429,0.05778,-0.100347,-0.100647,0.327447,0.023022,-0.182809,1.98691e-08,-4.56731e-09,0.3,-0.3,-15.3391,0.265001,3.3063,183.923,1.34224,2.12801,-13.8699,-0.680533,0,185.888,-2.3087,0.000486374,0.000121615,1.28272e-05,0.86,93.3294,-12.8388,868.779
0.186,-0.192335,-0.00766602,0.330352,0.0664505,0.0622742,-0.10429,0.05778,-0.100347,-0.100647,0.327447,0.023022,-0.182809,1.98691e-08,-4.56731e-09,0.3,-0.3,-15.4145,0.360591,3.26375,183.928,1.34495,2.10387,-13.8699,-0.680533,0,185.888,-2.3087,0.000486374,0.000121615,1.28272e-05,0.86,93.2697,-12.7178,868.659
0.187,-0.192335,-0.00766602,0.330352,0.0664505,0.0622742,-0.10429,0.05778,-0.100347,-0.100647,0.327447,0.023022,-0.182809,1.98691e-08,-4.56731e-09,0.3,-0.3,-15.4856,0.460728,3.21763,183.933,1.3477,2.07834,-13.8699,-0.680533,0,185.888,-2.3087,0.000486374,0.000121615,1.28272e-05,0.86,93.209,-12.5958,868.54
0.188,-0.192335,-0.00766602,0.330352,0.0664505,0.0622742,-0.10429,0.05778,-0.100347,-0.100647,0.327447,0.023022,-0.182809,1.98691e-08,-4.56731e-09,0.3,-0.3,-15.5525,0.565503,3.16789,183.938,1.35049,2.05139,-13.8699,-0.680533,0,185.888,-2.3087,0.000486374,0.000121615,1.28272e-05,0.86,93.1472,-12.4727,868.422
0.189,-0.192335,-0.00766602,0.330352,0.0664505,0.0622742,-0.10429,0.05778,-0.100347,-0.100647,0.327447,0.023022,-0.182809,1.98691e-08,-4.56731e-09,0.3,-0.3,-15.6154,0.675012,3.11448,183.943,1.35333,2.02299,-13.8699,-0.680533,0,185.888,-2.3087,0.000486374,0.000121615,1.28272e-05,0.86,93.0843,-12.3486,868.306
0.19,-0.192335,-0.00766602,0.330352,0.0664505,0.0622742,-0.10429,0.05778,-0.100347,-0.100647,0.327447,0.023022,-0.182809,1.98691e-08,-4.56731e-09,0.3,-0.3,-15.6742,0.789358,3.05732,183.948,1.35621,1.99313,-13.8699,-0.680533,0,185.888,-2.3087,0.000486374,0.000121615,1.28272e-05,0.86,93.0204,-12.2234,868.19
0.191,-0.192335,-0.00766602,0.330352,0.0664505,0.0622742,-0.10429,0.05778,-0.100347,-0.100647,0.327447,0.023022,-0.182809,1.98691e-08,-4.56731e-09,0.3,-0.3,-15.7292,0.908647,2.99638,183.953,1.35914,1.96177,-13.8699,-0.680533,0,185.888,-2.3087,0.000486374,0.000121615,1.28272e-05,0.86,92.9553,-12.0971,868.076
0.192,-0.192335,-0.00766602,0.330352,0.0664505,0.0622742,-0.10429,0.05778,-0.100347,-0.100647,0.327447,0.023022,-0.182809,1.98691e-08,-4.56731e-09,0.3,-0.3,-15.7804,1.03299,2.93159,183.958,1.36213,1.9289,-13.8699,-0.680533,0,185.888,-2.3087,0.000486374,0.000121615,1.28272e-05,0.86,92.8892,-11.9698,867.963
0.193,-0.192335,-0.00766602,0.330352,0.0664505,0.0622742,-0.10429,0.05778,-0.100347,-0.100647,0.327447,0.023022,-0.182809,1.98691e-08,-4.56731e-09,0.3,-0.3,-15.8279,1.16249,2.86292,183.963,1.36518,1.89449,-13.8699,-0.680533,0,185.888,-2.3087,0.000486374,0.000121615,1.28272e-05,0.86,92.822,-11.8413,867.851
0.194,-0.192335,-0.00766602,0.330352,0.0664505,0.0622742,-0.10429,0.05778,-0.100347,-0.100647,0.327447,0.023022,-0.182809,1.98691e-08,-4.56731e-09,0.3,-0.3,-15.8716,1.29728,2.79029,183.969,1.3683,1.85852,-13.8699,-0.680533,0,185.888,-2.3087,0.000486374,0.000121615,1.28272e-05,0.86,92.7536,-11.7118,867.74
0.195,-0.192335,-0.00766602,0.330352,0.0664505,0.0622742,-0.10429,0.05778,-0.100347,-0.100647,0.327447,0.023022,-0.182809,1.98691e-08,-4.56731e-09,0.3,-0.3,-15.9118,1.43748,2.71368,183.974,1.37148,1.82098,-13.8699,-0.680533,0,185.888,-2.3087,0.000486374,0.000121615,1.28272e-05,0.86,92.6842,-11.5811,867.63
0.196,-0.192335,-0.00766602,0.330352,0.0664505,0.0622742,-0.10429,0.05778,-0.100347,-0.100647,0.327447,0.023022,-0.182809,1.98691e-08,-4.56731e-09,0.3,-0.3,-15.9483,1.58319,2.63303,183.98,1.37474,1.78183,-13.8699,-0.680533,0,185.888,-2.3087,0.000486374,0.000121615,1.28272e-05,0.86,92.6136,-11.4493,867.522
0.197,-0.192335,-0.00766602,0.330352,0.0664505,0.0622742,-0.10429,0.05778,-0.100347,-0.100647,0.327447,0.023022,-0.182809,1.98691e-08,-4.56731e-09,0.3,-0.3,-15.9813,1.73455,2.54829,183.985,1.37808,1.74106,-13.8699,-0.680533,0,185.888,-2.3087,0.000486374,0.000121615,1.28272e-05,0.86,92.5419,-11.3163,867.415
0.198,-0.192335,-0.00766602,0.330352,0.0664505,0.0622742,-0.10429,0.05778,-0.100347,-0.100647,0.327447,0.023022,-0.182809,1.98691e-08,-4.56731e-09,0.3,-0.3,-15.9729,1.75768,2.51023,183.989,1.38053,1.70373,-13.8699,-0.680533,0,185.888,-2.3087,0.000486374,0.000121615,1.28272e-05,0.86,92.4717,-11.1891,867.322
0.199,-0.192335,-0.00766602,0.330352,0.0664505,0.0622742,-0.10429,0.05778,-0.100347,-0.100647,0.327447,0.023022,-0.182809,1.98691e-08,-4.56731e-09,0.3,-0.3,-15.9584,1.76381,2.4818,183.994,1.3832,1.66896,-13.8699,-0.680533,0,185.888,-2.3087,0.000486374,0.000121615,1.28272e-05,0.86,92.4015,-11.0627,867.242
0.2,-0.192335,-0.00766602,0.330352,0.0664505,0.0622742,-0.10429,0.05778,-0.100347,-0.100647,0.327447,0.023022,-0.182809,1.98691e-08,-4.56731e-09,0.3,-0.3,-15.9428,1.76986,2.44432,183.999,1.38621,1.6367,-13.8699,-0.680533,0,185.888,-2.3087,0.000486374,0.000121615,1.28272e-05,0.86,92.3313,-10.9369,867.173
0.201,-0.192335,-0.00766602,0.330352,0.0664505,0.0622742,-0.10429,0.05778,-0.100347,-0.100647,0.327447,0.023022,-0.182809,1.98691e-08,-4.56731e-09,0.3,-0.3,-15.9259,1.77642,2.39914,184.048,1.44083,1.59599,-13.8699,-0.680533,0,185.888,-2.3087,0.000486374,0.000121615,1.28272e-05,0.86,92.1293,-10.923,867.074
0.202,-0.192335,-0.00766602,0.330352,0.0664505,0.0622742,-0.10429,0.05778,-0.100347,-0.100647,0.327447,0.023022,-0.182809,1.98691e-08,-4.56731e-09,0.3,-0.3,-15.9078,1.78306,2.35099,184.013,1.39364,1.57868,-13.8699,-0.680533,0,185.888,-2.3087,0.000486374,0.000121615,1.28272e-05,0.86,92.1912,-10.6864,867.066
0.203,-0.192335,-0.00766602,0.330352,0.0664505,0.0622742,-0.10429,0.05778,-0.100347,-0.100647,0.327447,0.023022,-0.182809,1.98691e-08,-4.56731e-09,0.3,-0.3,-15.8889,1.78958,2.3019,184.022,1.39828,1.55234,-13.8699,-0.680533,0,185.888,-2.3087,0.000486374,0.000121615,1.28272e-05,0.86,92.1213,-10.5613,867.027
0.204,-0.192335,-0.00766602,0.330352,0.0664505,0.0622742,-0.10429,0.05778,-0.100347,-0.100647,0.327447,0.023022,-0.182809,1.98691e-08,-4.56731e-09,0.3,-0.3,-15.8695,1.79617,2.25289,184.032,1.40357,1.52743,-13.8699,-0.680533,0,185.888,-2.3087,0.000486374,0.000121615,1.28272e-05,0.86,92.0514,-10.436,866.997
0.205,-0.192335,-0.00766602,0.330352,0.0664505,0.0622742,-0.10429,0.05778,-0.100347,-0.100647,0.327447,0.023022,-0.182809,1.98691e-08,-4.56731e-09,0.3,-0.3,-15.8494,1.8028,2.20622,184.046,1.4104,1.49851,-13.8699,-0.680533,0,185.888,-2.3087,0.000486374,0.000121615,1.28272e-05,0.86,91.9827,-10.3123,866.97
0.206,-0.192335,-0.00766602,0.330352,0.0664505,0.0622742,-0.10429,0.05778,-0.100347,-0.100647,0.327447,0.023022,-0.182809,1.98691e-08,-4.56731e-09,0.3,-0.3,-15.8294,1.81005,2.15904,184.062,1.41873,1.46718,-13.8699,-0.680533,0,185.888,-2.3087,0.000486374,0.000121615,1.28272e-05,0.86,91.9155,-10.1904,866.946
0.207,-0.192335,-0.00766602,0.330352,0.0664505,0.0622742,-0.10429,0.05778,-0.100347,-0.100647,0.327447,0.023022,-0.182809,1.98691e-08,-4.56731e-09,0.3,-0.3,-15.8095,1.8179,2.11229,184.081,1.42833,1.43488,-13.8699,-0.680533,0,185.888,-2.3087,0.000486374,0.000121615,1.28272e-05,0.86,91.8496,-10.0703,866.925
0.208,-0.192335,-0.00766602,0.330352,0.0664505,0.0622742,-0.10429,0.05778,-0.100347,-0.100647,0.327447,0.023022,-0.182809,1.98691e-08,-4.56731e-09,0.3,-0.3,-15.7811,1.81858,2.06576,184.102,1.43888,1.40193,-13.8699,-0.680533,0,185.888,-2.3087,0.000486374,0.000121615,1.28272e-05,0.86,91.7844,-9.95163,866.905
0.209,-0.192335,-0.00766602,0.330352,0.0664505,0.0622742,-0.10429,0.05778,-0.100347,-0.100647,0.327447,0.023022,-0.182809,1.98691e-08,-4.56731e-09,0.3,-0.3,-15.7407,1.80546,2.01828,184.124,1.44979,1.36924,-13.8699,-0.680533,0,185.888,-2.3087,0.000486374,0.000121615,1.28272e-05,0.86,91.7195,-9.83382,866.885
0.21,-0.192335,-0.00766602,0.330352,0.0664505,0.0622742,-0.10429,0.05778,-0.100347,-0.100647,0.327447,0.023022,-0.182809,1.98691e-08,-4.56731e-09,0.3,-0.3,-15.7044,1.79914,1.97872,184.146,1.46075,1.33825,-13.8699,-0.680533,0,185.888,-2.3087,0.000486374,0.000121615,1.28272e-05,0.86,91.6542,-9.71628,866.865
0.211,-0.192335,-0.00766602,0.330352,0.0664505,0.0622742,-0.10429,0.05778,-0.100347,-0.100647,0.327447,0.023022,-0.182809,1.98691e-08,-4.56731e-09,0.3,-0.3,-15.67,1.79745,1.9376,184.267,1.50282,1.4714,-13.8699,-0.680533,0,185.888,-2.3087,0.000486374,0.000121615,1.28272e-05,0.86,90.6267,-8.98773,866.917
0.212,-0.192335,-0.00766602,0.330352,0.0664505,0.0622742,-0.10429,0.05778,-0.100347,-0.100647,0.327447,0.023022,-0.182809,1.98691e-08,-4.56731e-09,0.3,-0.3,-15.6401,1.79824,1.89429,184.188,1.48147,1.28771,-13.8699,-0.680533,0,185.888,-2.3087,0.000486374,0.000121615,1.28272e-05,0.86,91.5196,-9.47862,866.833
0.213,-0.192335,-0.00766602,0.330352,0.0664505,0.0622742,-0.10429,0.05778,-0.100347,-0.100647,0.327447,0.023022,-0.182809,1.98691e-08,-4.56731e-09,0.3,-0.3,-15.6242,1.80572,1.85723,184.207,1.49047,1.27159,-13.8699,-0.680533,0,185.888,-2.3087,0.000486374,0.000121615,1.28272e-05,0.86,91.4489,-9.35656,866.825
0.214,-0.192335,-0.00766602,0.330352,0.0664505,0.0622742,-0.10429,0.05778,-0.100347,-0.100647,0.327447,0.023022,-0.182809,1.98691e-08,-4.56731e-09,0.3,-0.3,-15.6149,1.82374,1.82827,184.223,1.49837,1.26401,-13.8699,-0.680533,0,185.888,-2.3087,0.000486374,0.000121615,1.28272e-05,0.86,91.3749,-9.23087,866.825
0.215,-0.192335,-0.00766602,0.330352,0.0664505,0.0622742,-0.10429,0.05778,-0.100347,-0.100647,0.327447,0.023022,-0.182809,1.98691e-08,-4.56731e-09,0.3,-0.3,-15.5886,1.82011,1.80434,184.24,1.50697,1.24962,-13.8699,-0.680533,0,185.888,-2.3087,0.000486374,0.000121615,1.28272e-05,0.86,91.2997,-9.10456,866.824
0.216,-0.192335,-0.00766602,0.330352,0.0664505,0.0622742,-0.10429,0.05778,-0.100347,-0.100647,0.327447,0.023022,-0.182809,1.98691e-08,-4.56731e-09,0.3,-0.3,-15.5618,1.80231,1.79428,184.259,1.51632,1.23115,-13.8699,-0.680533,0,185.888,-2.3087,0.000486374,0.000121615,1.28272e-05,0.86,91.2239,-8.97814,866.82
0.217,-0.192335,-0.00766602,0.330352,0.0664505,0.0622742,-0.10429,0.05778,-0.100347,-0.100647,0.327447,0.023022,-0.182809,1.98691e-08,-4.56731e-09,0.3,-0.3,-15.5333,1.78076,1.78348,184.28,1.5265,1.21006,-13.8699,-0.680533,0,185.888,-2.3087,0.000486374,0.000121615,1.28272e-05,0.86,91.1474,-8.85182,866.816
0.218,-0.192335,-0.00766602,0.330352,0.0664505,0.0622742,-0.10429,0.05778,-0.100347,-0.100647,0.327447,0.023022,-0.182809,1.98691e-08,-4.56731e-09,0.3,-0.3,-15.5044,1.75953,1.77033,184.302,1.5374,1.18759,-13.8699,-0.680533,0,185.888,-2.3087,0.000486374,0.000121615,1.28272e-05,0.86,91.0702,-8.7256,866.809
0.219,-0.192335,-0.00766602,0.330352,0.0664505,0.0622742,-0.10429,0.05778,-0.100347,-0.100647,0.327447,0.023022,-0.182809,1.98691e-08,-4.56731e-09,0.3,-0.3,-15.4749,1.73955,1.75432,184.325,1.54876,1.1649,-13.8699,-0.680533,0,185.888,-2.3087,0.000486374,0.000121615,1.28272e-05,0.86,90.9921,-8.59932,866.802
0.22,-0.192335,-0.00766602,0.330352,0.0664505,0.0622742,-0.10429,0.05778,-0.100347,-0.100647,0.327447,0.023022,-0.182809,1.98691e-08,-4.56731e-09,0.3,-0.3,-15.4439,1.7196,1.73546,184.349,1.56027,1.1431,-13.8699,-0.680533,0,185.888,-2.3087,0.000486374,0.000121615,1.28272e-05,0.86,90.9129,-8.47271,866.794
0.221,-0.192335,-0.00766602,0.330352,0.0664505,0.0622742,-0.10429,0.05778,-0.100347,-0.100647,0.327447,0.023022,-0.182809,1.98691e-08,-4.56731e-09,0.3,-0.3,-15.4101,1.69699,1.71418,184.391,1.7451,1.18476,-13.8699,-0.680533,0,185.888,-2.3087,0.000486374,0.000121615,1.28272e-05,0.86,90.3315,-8.24206,866.812
0.222,-0.192335,-0.00766602,0.330352,0.0664505,0.0622742,-0.10429,0.05778,-0.100347,-0.100647,0.327447,0.023022,-0.182809,1.98691e-08,-4.56731e-09,0.3,-0.3,-15.3721,1.66809,1.69119,184.394,1.58227,1.1065,-13.8699,-0.680533,0,185.888,-2.3087,0.000486374,0.000121615,1.28272e-05,0.86,90.7499,-8.21695,866.781
0.223,-0.192335,-0.00766602,0.330352,0.0664505,0.0622742,-0.10429,0.05778,-0.100347,-0.100647,0.327447,0.023022,-0.182809,1.98691e-08,-4.56731e-09,0.3,-0.3,-15.3284,1.62871,1.6674,184.414,1.59201,1.09394,-13.8699,-0.680533,0,185.888,-2.3087,0.000486374,0.000121615,1.28272e-05,0.86,90.6651,-8.08684,866.778
0.224,-0.192335,-0.00766602,0.330352,0.0664505,0.0622742,-0.10429,0.05778,-0.100347,-0.100647,0.327447,0.023022,-0.182809,1.98691e-08,-4.56731e-09,0.3,-0.3,-15.2778,1.57439,1.64394,184.431,1.6004,1.08673,-13.8699,-0.680533,0,185.888,-2.3087,0.000486374,0.000121615,1.28272e-05,0.86,90.5774,-7.9545,866.778
0.225,-0.192335,-0.00766602,0.330352,0.0664505,0.0622742,-0.10429,0.05778,-0.100347,-0.100647,0.327447,0.023022,-0.182809,1.98691e-08,-4.56731e-09,0.3,-0.3,-15.2236,1.50142,1.62989,184.449,1.60917,1.07511,-13.8699,-0.680533,0,185.888,-2.3087,0.000486374,0.000121615,1.28272e-05,0.86,90.4877,-7.8206,866.78
0.226,-0.192335,-0.00766602,0.330352,0.0664505,0.0622742,-0.10429,0.05778,-0.100347,-0.100647,0.327447,0.023022,-0.182809,1.98691e-08,-4.56731e-09,0.3,-0.3,-15.1734,1.42217,1.61827,184.469,1.61857,1.06066,-13.8699,-0.680533,0,185.888,-2.3087,0.000486374,0.000121615,1.28272e-05,0.86,90.3962,-7.68564,866.782
0.227,-0.192335,-0.00766602,0.330352,0.0664505,0.0622742,-0.10429,0.05778,-0.100347,-0.100647,0.327447,0.023022,-0.182809,1.98691e-08,-4.56731e-09,0.3,-0.3,-15.1284,1.34128,1.60808,184.489,1.6286,1.04438,-13.8699,-0.680533,0,185.888,-2.3087,0.000486374,0.000121615,1.28272e-05,0.86,90.303,-7.54983,866.784
0.228,-0.192335,-0.00766602,0.330352,0.0664505,0.0622742,-0.10429,0.05778,-0.100347,-0.100647,0.327447,0.023022,-0.182809,1.98691e-08,-4.56731e-09,0.3,-0.3,-15.0889,1.26104,1.59828,184.511,1.63914,1.02717,-13.8699,-0.680533,0,185.888,-2.3087,0.000486374,0.000121615,1.28272e-05,0.86,90.2082,-7.41328,866.787
0.229,-0.192335,-0.00766602,0.330352,0.0664505,0.0622742,-0.10429,0.05778,-0.100347,-0.100647,0.327447,0.023022,-0.182809,1.98691e-08,-4.56731e-09,0.3,-0.3,-15.054,1.18196,1.58829,184.533,1.65,1.00928,-13.8699,-0.680533,0,185.888,-2.3087,0.000486374,0.000121615,1.28272e-05,0.86,90.112,-7.27596,866.79
0.23,-0.192335,-0.00766602,0.330352,0.0664505,0.0622742,-0.10429,0.05778,-0.100347,-0.100647,0.327447,0.023022,-0.182809,1.98691e-08,-4.56731e-09,0.3,-0.3,-15.0236,1.10427,1.57618,184.556,1.66084,0.990334,-13.8699,-0.680533,0,185.888,-2.3087,0.000486374,0.000121615,1.28272e-05,0.86,90.0144,-7.13774,866.789
0.231,-0.192335,-0.00766602,0.330352,0.0664505,0.0622742,-0.10429,0.05778,-0.100347,-0.100647,0.327447,0.023022,-0.182809,1.98691e-08,-4.56731e-09,0.3,-0.3,-14.9973,1.02762,1.55843,184.61,1.85158,0.829348,-13.8699,-0.680533,0,185.888,-2.3087,0.000486374,0.000121615,1.28272e-05,0.86,90.3111,-7.54491,866.712
0.232,-0.192335,-0.00766602,0.330352,0.0664505,0.0622742,-0.10429,0.05778,-0.100347,-0.100647,0.327447,0.023022,-0.182809,1.98691e-08,-4.56731e-09,0.3,-0.3,-14.9735,0.950935,1.53492,184.597,1.68107,0.952829,-13.8699,-0.680533,0,185.888,-2.3087,0.000486374,0.000121615,1.28272e-05,0.86,89.8151,-6.85789,866.779
0.233,-0.192335,-0.00766602,0.330352,0.0664505,0.0622742,-0.10429,0.05778,-0.100347,-0.100647,0.327447,0.023022,-0.182809,1.98691e-08,-4.56731e-09,0.3,-0.3,-14.9502,0.872709,1.50658,184.615,1.68982,0.936203,-13.8699,-0.680533,0,185.888,-2.3087,0.000486374,0.000121615,1.28272e-05,0.86,89.713,-6.71563,866.77
0.234,-0.192335,-0.00766602,0.330352,0.0664505,0.0622742,-0.10429,0.05778,-0.100347,-0.100647,0.327447,0.023022,-0.182809,1.98691e-08,-4.56731e-09,0.3,-0.3,-14.9255,0.791193,1.4745,184.631,1.69729,0.92231,-13.8699,-0.680533,0,185.888,-2.3087,0.000486374,0.000121615,1.28272e-05,0.86,89.6088,-6.57131,866.76
0.235,-0.192335,-0.00766602,0.330352,0.0664505,0.0622742,-0.10429,0.05778,-0.100347,-0.100647,0.327447,0.023022,-0.182809,1.98691e-08,-4.56731e-09,0.3,-0.3,-14.9008,0.705377,1.44429,184.646,1.70474,0.902569,-13.8699,-0.680533,0,185.888,-2.3087,0.000486374,0.000121615,1.28272e-05,0.86,89.5033,-6.4251,866.746
0.236,-0.192335,-0.00766602,0.330352,0.0664505,0.0622742,-0.10429,0.05778,-0.100347,-0.100647,0.327447,0.023022,-0.182809,1.98691e-08,-4.56731e-09,0.3,-0.3,-14.8809,0.622326,1.40898,184.661,1.71229,0.877998,-13.8699,-0.680533,0,185.888,-2.3087,0.000486374,0.000121615,1.28272e-05,0.86,89.3968,-6.27718,866.726
0.237,-0.192335,-0.00766602,0.330352,0.0664505,0.0622742,-0.10429,0.05778,-0.100347,-0.100647,0.327447,0.023022,-0.182809,1.98691e-08,-4.56731e-09,0.3,-0.3,-14.8663,0.545792,1.36755,184.677,1.7199,0.849672,-13.8699,-0.680533,0,185.888,-2.3087,0.000486374,0.000121615,1.28272e-05,0.86,89.2893,-6.12754,866.701
0.238,-0.192335,-0.00766602,0.330352,0.0664505,0.0622742,-0.10429,0.05778,-0.100347,-0.100647,0.327447,0.023022,-0.182809,1.98691e-08,-4.56731e-09,0.3,-0.3,-14.856,0.477984,1.32075,184.693,1.72747,0.818644,-13.8699,-0.680533,0,185.888,-2.3087,0.000486374,0.000121615,1.28272e-05,0.86,89.1808,-5.97609,866.672
0.239,-0.192335,-0.00766602,0.330352,0.0664505,0.0622742,-0.10429,0.05778,-0.100347,-0.100647,0.327447,0.023022,-0.182809,1.98691e-08,-4.56731e-09,0.3,-0.3,-14.8487,0.419957,1.26968,184.708,1.73489,0.785904,-13.8699,-0.680533,0,185.888,-2.3087,0.000486374,0.000121615,1.28272e-05,0.86,89.0713,-5.82277,866.639
0.24,-0.192335,-0.00766602,0.330352,0.0664505,0.0622742,-0.10429,0.05778,-0.100347,-0.100647,0.327447,0.023022,-0.182809,1.98691e-08,-4.56731e-09,0.3,-0.3,-14.843,0.371886,1.2154,184.722,1.74204,0.752428,-13.8699,-0.680533,0,185.888,-2.3087,0.000486374,0.000121615,1.28272e-05,0.86,88.9605,-5.66753,866.604
0.241,-0.192335,-0.00766602,0.330352,0.0664505,0.0622742,-0.10429,0.05778,-0.100347,-0.100647,0.327447,0.023022,-0.182809,1.98691e-08,-4.56731e-09,0.3,-0.3,-14.8377,0.33327,1.15885,184.838,1.54508,0.564516,-13.8699,-0.680533,0,185.888,-2.3087,0.000486374,0.000121615,1.28272e-05,0.86,89.2694,-5.70924,866.482
0.242,-0.192335,-0.00766602,0.330352,0.0664505,0.0622742,-0.10429,0.05778,-0.100347,-0.100647,0.327447,0.023022,-0.182809,1.98691e-08,-4.56731e-09,0.3,-0.3,-14.8314,0.303096,1.10096,184.749,1.75497,0.686983,-13.8699,-0.680533,0,185.888,-2.3087,0.000486374,0.000121615,1.28272e-05,0.86,88.735,-5.35124,866.532
0.243,-0.192335,-0.00766602,0.330352,0.0664505,0.0622742,-0.10429,0.05778,-0.100347,-0.100647,0.327447,0.023022,-0.182809,1.98691e-08,-4.56731e-09,0.3,-0.3,-14.8233,0.279985,1.04255,184.76,1.76048,0.656851,-13.8699,-0.680533,0,185.888,-2.3087,0.000486374,0.000121615,1.28272e-05,0.86,88.6199,-5.19023,866.496
0.244,-0.192335,-0.00766602,0.330352,0.0664505,0.0622742,-0.10429,0.05778,-0.100347,-0.100647,0.327447,0.023022,-0.182809,1.98691e-08,-4.56731e-09,0.3,-0.3,-14.8124,0.262316,0.984487,184.769,1.76517,0.62965,-13.8699,-0.680533,0,185.888,-2.3087,0.000486374,0.000121615,1.28272e-05,0.86,88.5031,-5.02733,866.462
0.245,-0.192335,-0.00766602,0.330352,0.0664505,0.0622742,-0.10429,0.05778,-0.100347,-0.100647,0.327447,0.023022,-0.182809,1.98691e-08,-4.56731e-09,0.3,-0.3,-14.799,0.250722,0.927669,184.781,1.77102,0.599892,-13.8699,-0.680533,0,185.888,-2.3087,0.000486374,0.000121615,1.28272e-05,0.86,88.385,-4.86255,866.425
0.246,-0.192335,-0.00766602,0.330352,0.0664505,0.0622742,-0.10429,0.05778,-0.100347,-0.100647,0.327447,0.023022,-0.182809,1.98691e-08,-4.56731e-09,0.3,-0.3,-14.7846,0.246159,0.868637,184.795,1.77795,0.567955,-13.8699,-0.680533,0,185.888,-2.3087,0.000486374,0.000121615,1.28272e-05,0.86,88.2659,-4.69617,866.386
0.247,-0.192335,-0.00766602,0.330352,0.0664505,0.0622742,-0.10429,0.05778,-0.100347,-0.100647,0.327447,0.023022,-0.182809,1.98691e-08,-4.56731e-09,0.3,-0.3,-14.7693,0.248503,0.806863,184.811,1.78565,0.534302,-13.8699,-0.680533,0,185.888,-2.3087,0.000486374,0.000121615,1.28272e-05,0.86,88.1455,-4.52834,866.344
0.248,-0.192335,-0.00766602,0.330352,0.0664505,0.0622742,-0.10429,0.05778,-0.100347,-0.100647,0.327447,0.023022,-0.182809,1.98691e-08,-4.56731e-09,0.3,-0.3,-14.7529,0.257247,0.742938,184.828,1.79382,0.499393,-13.8699,-0.680533,0,185.888,-2.3087,0.000486374,0.000121615,1.28272e-05,0.86,88.024,-4.35912,866.3
0.249,-0.192335,-0.00766602,0.330352,0.0664505,0.0622742,-0.10429,0.05778,-0.100347,-0.100647,0.327447,0.023022,-0.182809,1.98691e-08,-4.56731e-09,0.3,-0.3,-14.7354,0.271629,0.677665,184.845,1.80211,0.46368,-13.8699,-0.680533,0,185.888,-2.3087,0.000486374,0.000121615,1.28272e-05,0.86,87.9011,-4.18858,866.254
0.25,-0.192335,-0.00766602,0.330352,0.0664505,0.0622742,-0.10429,0.05778,-0.100347,-0.100647,0.327447,0.023022,-0.182809,1.98691e-08,-4.56731e-09,0.3,-0.3,-14.7171,0.290693,0.611811,184.862,1.81018,0.427601,-13.8699,-0.680533,0,185.888,-2.3087,0.000486374,0.000121615,1.28272e-05,0.86,87.7768,-4.01676,866.206
0.251,-0.192335,-0.00766602,0.330352,0.0664505,0.0622742,-0.10429,0.05778,-0.100347,-0.100647,0.327447,0.023022,-0.182809,1.98691e-08,-4.56731e-09,0.3,-0.3,-14.6983,0.313336,0.546078,184.973,1.48184,0.283646,-13.8699,-0.680533,0,185.888,-2.3087,0.000486374,0.000121615,1.28272e-05,0.86,87.7954,-3.42091,866.076
0.252,-0.192335,-0.00766602,0.330352,0.0664505,0.0622742,-0.10429,0.05778,-0.100347,-0.100647,0.327447,0.023022,-0.182809,1.98691e-08,-4.56731e-09,0.3,-0.3,-14.6797,0.338307,0.481122,184.891,1.81172,0.373192,-13.8699,-0.680533,0,185.888,-2.3087,0.000486374,0.000121615,1.28272e-05,0.86,87.5254,-3.66868,866.116
0.253,-0.192335,-0.00766602,0.330352,0.0664505,0.0622742,-0.10429,0.05778,-0.100347,-0.100647,0.327447,0.023022,-0.182809,1.98691e-08,-4.56731e-09,0.3,-0.3,-14.6578,0.366569,0.422556,184.902,1.80702,0.354521,-13.8699,-0.680533,0,185.888,-2.3087,0.000486374,0.000121615,1.28272e-05,0.86,87.3994,-3.49175,866.076
0.254,-0.192335,-0.00766602,0.330352,0.0664505,0.0622742,-0.10429,0.05778,-0.100347,-0.100647,0.327447,0.023022,-0.182809,1.98691e-08,-4.56731e-09,0.3,-0.3,-14.6363,0.398416,0.367111,184.909,1.80389,0.336502,-13.8699,-0.680533,0,185.888,-2.3087,0.000486374,0.000121615,1.28272e-05,0.86,87.2732,-3.3132,866.039
0.255,-0.192335,-0.00766602,0.330352,0.0664505,0.0622742,-0.10429,0.05778,-0.100347,-0.100647,0.327447,0.023022,-0.182809,1.98691e-08,-4.56731e-09,0.3,-0.3,-14.6158,0.433876,0.313342,184.917,1.80015,0.317297,-13.8699,-0.680533,0,185.888,-2.3087,0.000486374,0.000121615,1.28272e-05,0.86,87.147,-3.13327,866.003
0.256,-0.192335,-0.00766602,0.330352,0.0664505,0.0622742,-0.10429,0.05778,-0.100347,-0.100647,0.327447,0.023022,-0.182809,1.98691e-08,-4.56731e-09,0.3,-0.3,-14.5954,0.470626,0.262063,184.928,1.79568,0.297274,-13.8699,-0.680533,0,185.888,-2.3087,0.000486374,0.000121615,1.28272e-05,0.86,87.0208,-2.95215,865.969
0.257,-0.192335,-0.00766602,0.330352,0.0664505,0.0622742,-0.10429,0.05778,-0.100347,-0.100647,0.327447,0.023022,-0.182809,1.98691e-08,-4.56731e-09,0.3,-0.3,-14.5748,0.506919,0.212974,184.939,1.79059,0.276796,-13.8699,-0.680533,0,185.888,-2.3087,0.000486374,0.000121615,1.28272e-05,0.86,86.8946,-2.76998,865.937
0.258,-0.192335,-0.00766602,0.330352,0.0664505,0.0622742,-0.10429,0.05778,-0.100347,-0.100647,0.327447,0.023022,-0.182809,1.98691e-08,-4.56731e-09,0.3,-0.3,-14.5538,0.54177,0.165739,184.951,1.78518,0.25561,-13.8699,-0.680533,0,185.888,-2.3087,0.000486374,0.000121615,1.28272e-05,0.86,86.7684,-2.58684,865.904
0.259,-0.192335,-0.00766602,0.330352,0.0664505,0.0622742,-0.10429,0.05778,-0.100347,-0.100647,0.327447,0.023022,-0.182809,1.98691e-08,-4.56731e-09,0.3,-0.3,-14.5331,0.574989,0.11917,184.965,1.77938,0.233887,-13.8699,-0.680533,0,185.888,-2.3087,0.000486374,0.000121615,1.28272e-05,0.86,86.6419,-2.40277,865.872
0.26,-0.192335,-0.00766602,0.330352,0.0664505,0.0622742,-0.10429,0.05778,-0.100347,-0.100647,0.327447,0.023022,-0.182809,1.98691e-08,-4.56731e-09,0.3,-0.3,-14.5128,0.606543,0.0721238,184.978,1.77353,0.212021,-13.8699,-0.680533,0,185.888,-2.3087,0.000486374,0.000121615,1.28272e-05,0.86,86.5153,-2.21778,865.839
0.261,-0.192335,-0.00766602,0.330352,0.0664505,0.0622742,-0.10429,0.05778,-0.100347,-0.100647,0.327447,0.023022,-0.182809,1.98691e-08,-4.56731e-09,0.3,-0.3,-14.4926,0.636574,0.0245294,185.102,1.65292,0.106642,-13.8699,-0.680533,0,185.888,-2.3087,0.000486374,0.000121615,1.28272e-05,0.86,86.3186,-1.41347,865.73
0.262,-0.192335,-0.00766602,0.330352,0.0664505,0.0622742,-0.10429,0.05778,-0.100347,-0.100647,0.327447,0.023022,-0.182809,1.98691e-08,-4.56731e-09,0.3,-0.3,-14.4915,0.638893,0.0326465,185,1.76117,0.177656,-13.8699,-0.680533,0,185.888,-2.3087,0.000486374,0.000121615,1.28272e-05,0.86,86.2612,-1.85135,865.782
0.263,-0.192335,-0.00766602,0.330352,0.0664505,0.0622742,-0.10429,0.05778,-0.100347,-0.100647,0.327447,0.023022,-0.182809,1.98691e-08,-4.56731e-09,0.3,-0.3,-14.497,0.643447,0.0482469,185.003,1.75577,0.183348,-13.8699,-0.680533,0,185.888,-2.3087,0.000486374,0.000121615,1.28272e-05,0.86,86.1363,-1.67034,865.777
0.264,-0.192335,-0.00766602,0.330352,0.0664505,0.0622742,-0.10429,0.05778,-0.100347,-0.100647,0.327447,0.023022,-0.182809,1.98691e-08,-4.56731e-09,0.3,-0.3,-14.5042,0.650376,0.0667368,185.002,1.75263,0.200714,-13.8699,-0.680533,0,185.888,-2.3087,0.000486374,0.000121615,1.28272e-05,0.86,86.013,-1.49164,865.784
0.265,-0.192335,-0.00766602,0.330352,0.0664505,0.0622742,-0.10429,0.05778,-0.100347,-0.100647,0.327447,0.023022,-0.182809,1.98691e-08,-4.56731e-09,0.3,-0.3,-14.5086,0.658516,0.0837585,184.998,1.74795,0.22736,-13.8699,-0.680533,0,185.888,-2.3087,0.000486374,0.000121615,1.28272e-05,0.86,85.8916,-1.31565,865.8
0.266,-0.192335,-0.00766602,0.330352,0.0664505,0.0622742,-0.10429,0.05778,-0.100347,-0.100647,0.327447,0.023022,-0.182809,1.98691e-08,-4.56731e-09,0.3,-0.3,-14.5129,0.665672,0.0993549,184.993,1.74076,0.25695,-13.8699,-0.680533,0,185.888,-2.3087,0.000486374,0.000121615,1.28272e-05,0.86,85.7716,-1.1418,865.82
0.267,-0.192335,-0.00766602,0.330352,0.0664505,0.0622742,-0.10429,0.05778,-0.100347,-0.100647,0.327447,0.023022,-0.182809,1.98691e-08,-4.56731e-09,0.3,-0.3,-14.5164,0.671438,0.112496,184.99,1.73077,0.28727,-13.8699,-0.680533,0,185.888,-2.3087,0.000486374,0.000121615,1.28272e-05,0.86,85.6533,-0.970039,865.84
0.268,-0.192335,-0.00766602,0.330352,0.0664505,0.0622742,-0.10429,0.05778,-0.100347,-0.100647,0.327447,0.023022,-0.182809,1.98691e-08,-4.56731e-09,0.3,-0.3,-14.5192,0.675776,0.123619,184.987,1.718,0.317833,-13.8699,-0.680533,0,185.888,-2.3087,0.000486374,0.000121615,1.28272e-05,0.86,85.5364,-0.800252,865.86
0.269,-0.192335,-0.00766602,0.330352,0.0664505,0.0622742,-0.10429,0.05778,-0.100347,-0.100647,0.327447,0.023022,-0.182809,1.98691e-08,-4.56731e-09,0.3,-0.3,-14.5213,0.678784,0.133414,184.986,1.70277,0.348848,-13.8699,-0.680533,0,185.888,-2.3087,0.000486374,0.000121615,1.28272e-05,0.86,85.4213,-0.632209,865.88
0.27,-0.192335,-0.00766602,0.330352,0.0664505,0.0622742,-0.10429,0.05778,-0.100347,-0.100647,0.327447,0.023022,-0.182809,1.98691e-08,-4.56731e-09,0.3,-0.3,-14.5235,0.68115,0.142738,184.985,1.68566,0.380571,-13.8699,-0.680533,0,185.888,-2.3087,0.000486374,0.000121615,1.28272e-05,0.86,85.3078,-0.465815,865.901
0.271,-0.192335,-0.00766602,0.330352,0.0664505,0.0622742,-0.10429,0.05778,-0.100347,-0.100647,0.327447,0.023022,-0.182809,1.98691e-08,-4.56731e-09,0.3,-0.3,-14.5249,0.683327,0.153347,185.052,1.62951,0.221704,-13.8699,-0.680533,0,185.888,-2.3087,0.000486374,0.000121615,1.28272e-05,0.86,85.9068,-0.675172,865.825
0.272,-0.192335,-0.00766602,0.330352,0.0664505,0.0622742,-0.10429,0.05778,-0.100347,-0.100647,0.327447,0.023022,-0.182809,1.98691e-08,-4.56731e-09,0.3,-0.3,-14.5262,0.685189,0.165978,184.983,1.64818,0.446045,-13.8699,-0.680533,0,185.888,-2.3087,0.000486374,0.000121615,1.28272e-05,0.86,85.0864,-0.137739,865.945
0.273,-0.192335,-0.00766602,0.330352,0.0664505,0.0622742,-0.10429,0.05778,-0.100347,-0.100647,0.327447,0.023022,-0.182809,1.98691e-08,-4.56731e-09,0.3,-0.3,-14.5275,0.686774,0.180782,184.981,1.6291,0.479828,-13.8699,-0.680533,0,185.888,-2.3087,0.000486374,0.000121615,1.28272e-05,0.86,84.9784,0.0240254,865.968
0.274,-0.192335,-0.00766602,0.330352,0.0664505,0.0622742,-0.10429,0.05778,-0.100347,-0.100647,0.327447,0.023022,-0.182809,1.98691e-08,-4.56731e-09,0.3,-0.3,-14.5287,0.688115,0.197913,184.978,1.61059,0.514349,-13.8699,-0.680533,0,185.888,-2.3087,0.000486374,0.000121615,1.28272e-05,0.86,84.8725,0.184291,865.991
0.275,-0.192335,-0.00766602,0.330352,0.0664505,0.0622742,-0.10429,0.05778,-0.100347,-0.100647,0.327447,0.023022,-0.182809,1.98691e-08,-4.56731e-09,0.3,-0.3,-14.529,0.688757,0.212734,184.979,1.58725,0.551519,-13.8699,-0.680533,0,185.888,-2.3087,0.000486374,0.000121615,1.28272e-05,0.86,84.7678,0.343111,866.017
0.276,-0.192335,-0.00766602,0.330352,0.0664505,0.0622742,-0.10429,0.05778,-0.100347,-0.100647,0.327447,0.023022,-0.182809,1.98691e-08,-4.56731e-09,0.3,-0.3,-14.5296,0.689124,0.228197,184.984,1.55881,0.591146,-13.8699,-0.680533,0,185.888,-2.3087,0.000486374,0.000121615,1.28272e-05,0.86,84.6642,0.500762,866.044
0.277,-0.192335,-0.00766602,0.330352,0.0664505,0.0622742,-0.10429,0.05778,-0.100347,-0.100647,0.327447,0.023022,-0.182809,1.98691e-08,-4.56731e-09,0.3,-0.3,-14.5306,0.689262,0.245022,184.993,1.52619,0.632963,-13.8699,-0.680533,0,185.888,-2.3087,0.000486374,0.000121615,1.28272e-05,0.86,84.5615,0.657448,866.073
0.278,-0.192335,-0.00766602,0.330352,0.0664505,0.0622742,-0.10429,0.05778,-0.100347,-0.100647,0.327447,0.023022,-0.182809,1.98691e-08,-4.56731e-09,0.3,-0.3,-14.5319,0.688908,0.263711,185.005,1.49113,0.6766,-13.8699,-0.680533,0,185.888,-2.3087,0.000486374,0.000121615,1.28272e-05,0.86,84.4598,0.81331,866.103
0.279,-0.192335,-0.00766602,0.330352,0.0664505,0.0622742,-0.10429,0.05778,-0.100347,-0.100647,0.327447,0.023022,-0.182809,1.98691e-08,-4.56731e-09,0.3,-0.3,-14.5344,0.688444,0.284613,185.019,1.45588,0.721701,-13.8699,-0.680533,0,185.888,-2.3087,0.000486374,0.000121615,1.28272e-05,0.86,84.3591,0.968422,866.135
0.28,-0.192335,-0.00766602,0.330352,0.0664505,0.0622742,-0.10429,0.05778,-0.100347,-0.100647,0.327447,0.023022,-0.182809,1.98691e-08,-4.56731e-09,0.3,-0.3,-14.5379,0.686912,0.307913,185.031,1.4229,0.767822,-13.8699,-0.680533,0,185.888,-2.3087,0.000486374,0.000121615,1.28272e-05,0.86,84.2594,1.12279,866.168
0.281,-0.192335,-0.00766602,0.330352,0.0664505,0.0622742,-0.10429,0.05778,-0.100347,-0.100647,0.327447,0.023022,-0.182809,1.98691e-08,-4.56731e-09,0.3,-0.3,-14.5413,0.685982,0.333829,185.015,1.52753,0.532923,-13.8699,-0.680533,0,185.888,-2.3087,0.000486374,0.000121615,1.28272e-05,0.86,85.2329,0.726808,866.059
0.282,-0.192335,-0.00766602,0.330352,0.0664505,0.0622742,-0.10429,0.05778,-0.100347,-0.100647,0.327447,0.023022,-0.182809,1.98691e-08,-4.56731e-09,0.3,-0.3,-14.5462,0.684555,0.362438,185.045,1.37388,0.862043,-13.8699,-0.680533,0,185.888,-2.3087,0.000486374,0.000121615,1.28272e-05,0.86,84.0644,1.42904,866.237
0.283,-0.192335,-0.00766602,0.330352,0.0664505,0.0622742,-0.10429,0.05778,-0.100347,-0.100647,0.327447,0.023022,-0.182809,1.98691e-08,-4.56731e-09,0.3,-0.3,-14.5504,0.682834,0.393882,185.041,1.36263,0.909622,-13.8699,-0.680533,0,185.888,-2.3087,0.000486374,0.000121615,1.28272e-05,0.86,83.9696,1.58064,866.274
0.284,-0.192335,-0.00766602,0.330352,0.0664505,0.0622742,-0.10429,0.05778,-0.100347,-0.100647,0.327447,0.023022,-0.182809,1.98691e-08,-4.56731e-09,0.3,-0.3,-14.5563,0.680948,0.428088,185.028,1.36307,0.957216,-13.8699,-0.680533,0,185.888,-2.3087,0.000486374,0.000121615,1.28272e-05,0.86,83.8772,1.73092,866.313
0.285,-0.192335,-0.00766602,0.330352,0.0664505,0.0622742,-0.10429,0.05778,-0.100347,-0.100647,0.327447,0.023022,-0.182809,1.98691e-08,-4.56731e-09,0.3,-0.3,-14.5602,0.679004,0.459063,185.012,1.36848,1.00756,-13.8699,-0.680533,0,185.888,-2.3087,0.000486374,0.000121615,1.28272e-05,0.86,83.7866,1.87979,866.353
0.286,-0.192335,-0.00766602,0.330352,0.0664505,0.0622742,-0.10429,0.05778,-0.100347,-0.100647,0.327447,0.023022,-0.182809,1.98691e-08,-4.56731e-09,0.3,-0.3,-14.563,0.677258,0.489767,184.996,1.3775,1.06055,-13.8699,-0.680533,0,185.888,-2.3087,0.000486374,0.000121615,1.28272e-05,0.86,83.6978,2.02731,866.396
0.287,-0.192335,-0.00766602,0.330352,0.0664505,0.0622742,-0.10429,0.05778,-0.100347,-0.100647,0.327447,0.023022,-0.182809,1.98691e-08,-4.56731e-09,0.3,-0.3,-14.565,0.675859,0.521007,184.981,1.38933,1.11609,-13.8699,-0.680533,0,185.888,-2.3087,0.000486374,0.000121615,1.28272e-05,0.86,83.6106,2.17352,866.442
0.288,-0.192335,-0.00766602,0.330352,0.0664505,0.0622742,-0.10429,0.05778,-0.100347,-0.100647,0.327447,0.023022,-0.182809,1.98691e-08,-4.56731e-09,0.3,-0.3,-14.5664,0.674662,0.553323,184.966,1.40352,1.17395,-13.8699,-0.680533,0,185.888,-2.3087,0.000486374,0.000121615,1.28272e-05,0.86,83.525,2.31843,866.49
0.289,-0.192335,-0.00766602,0.330352,0.0664505,0.0622742,-0.10429,0.05778,-0.100347,-0.100647,0.327447,0.023022,-0.182809,1.98691e-08,-4.56731e-09,0.3,-0.3,-14.5676,0.67326,0.587134,184.952,1.41987,1.23377,-13.8699,-0.680533,0,185.888,-2.3087,0.000486374,0.000121615,1.28272e-05,0.86,83.4412,2.46201,866.54
0.29,-0.192335,-0.00766602,0.330352,0.0664505,0.0622742,-0.10429,0.05778,-0.100347,-0.100647,0.327447,0.023022,-0.182809,1.98691e-08,-4.56731e-09,0.3,-0.3,-14.5691,0.671928,0.622699,184.939,1.43825,1.2951,-13.8699,-0.680533,0,185.888,-2.3087,0.000486374,0.000121615,1.28272e-05,0.86,83.3591,2.60421,866.592
0.291,-0.192335,-0.00766602,0.330352,0.0664505,0.0622742,-0.10429,0.05778,-0.100347,-0.100647,0.327447,0.023022,-0.182809,1.98691e-08,-4.56731e-09,0.3,-0.3,-14.5697,0.671367,0.660402,184.946,1.52694,1.15072,-13.8699,-0.680533,0,185.888,-2.3087,0.000486374,0.000121615,1.28272e-05,0.86,84.0764,1.87118,866.545
0.292,-0.192335,-0.00766602,0.330352,0.0664505,0.0622742,-0.10429,0.05778,-0.100347,-0.100647,0.327447,0.023022,-0.182809,1.98691e-08,-4.56731e-09,0.3,-0.3,-14.5711,0.670964,0.700579,184.91,1.4813,1.41929,-13.8699,-0.680533,0,185.888,-2.3087,0.000486374,0.000121615,1.28272e-05,0.86,83.2005,2.88436,866.7
0.293,-0.192335,-0.00766602,0.330352,0.0664505,0.0622742,-0.10429,0.05778,-0.100347,-0.100647,0.327447,0.023022,-0.182809,1.98691e-08,-4.56731e-09,0.3,-0.3,-14.5702,0.671696,0.742053,184.893,1.50579,1.48086,-13.8699,-0.680533,0,185.888,-2.3087,0.000486374,0.000121615,1.28272e-05,0.86,83.1242,3.02221,866.754
0.294,-0.192335,-0.00766602,0.330352,0.0664505,0.0622742,-0.10429,0.05778,-0.100347,-0.100647,0.327447,0.023022,-0.182809,1.98691e-08,-4.56731e-09,0.3,-0.3,-14.5699,0.672371,0.785178,184.874,1.53206,1.54177,-13.8699,-0.680533,0,185.888,-2.3087,0.000486374,0.000121615,1.28272e-05,0.86,83.0501,3.15849,866.808
0.295,-0.192335,-0.00766602,0.330352,0.0664505,0.0622742,-0.10429,0.05778,-0.100347,-0.100647,0.327447,0.023022,-0.182809,1.98691e-08,-4.56731e-09,0.3,-0.3,-14.5686,0.672106,0.824761,184.855,1.56046,1.6011,-13.8699,-0.680533,0,185.888,-2.3087,0.000486374,0.000121615,1.28272e-05,0.86,82.9777,3.29339,866.86
0.296,-0.192335,-0.00766602,0.330352,0.0664505,0.0622742,-0.10429,0.05778,-0.100347,-0.100647,0.327447,0.023022,-0.182809,1.98691e-08,-4.56731e-09,0.3,-0.3,-14.567,0.67107,0.860714,184.839,1.58791,1.65732,-13.8699,-0.680533,0,185.888,-2.3087,0.000486374,0.000121615,1.28272e-05,0.86,82.9066,3.4272,866.908
0.297,-0.192335,-0.00766602,0.330352,0.0664505,0.0622742,-0.10429,0.05778,-0.100347,-0.100647,0.327447,0.023022,-0.182809,1.98691e-08,-4.56731e-09,0.3,-0.3,-14.5653,0.66941,0.893556,184.827,1.61245,1.71027,-13.8699,-0.680533,0,185.888,-2.3087,0.000486374,0.000121615,1.28272e-05,0.86,82.8368,3.56008,866.952
0.298,-0.192335,-0.00766602,0.330352,0.0664505,0.0622742,-0.10429,0.05778,-0.100347,-0.100647,0.327447,0.023022,-0.182809,1.98691e-08,-4.56731e-09,0.3,-0.3,-14.5641,0.667404,0.924052,184.821,1.63297,1.7603,-13.8699,-0.680533,0,185.888,-2.3087,0.000486374,0.000121615,1.28272e-05,0.86,82.7683,3.6921,866.993
0.299,-0.192335,-0.00766602,0.330352,0.0664505,0.0622742,-0.10429,0.05778,-0.100347,-0.100647,0.327447,0.023022,-0.182809,1.98691e-08,-4.56731e-09,0.3,-0.3,-14.5636,0.665312,0.952849,184.82,1.64893,1.80792,-13.8699,-0.680533,0,185.888,-2.3087,0.000486374,0.000121615,1.28272e-05,0.86,82.7009,3.82327,867.031
0.3,-0.192335,-0.00766602,0.330352,0.0664505,0.0622742,-0.10429,0.05778,-0.100347,-0.100647,0.327447,0.023022,-0.182809,1.98691e-08,-4.56731e-09,0.3,-0.3,-14.5638,0.663338,0.980504,184.822,1.66029,1.85365,-13.8699,-0.680533,0,185.888,-2.3087,0.000486374,0.000121615,1.28272e-05,0.86,82.6349,3.95353,867.067
0.301,-0.192335,-0.00766602,0.330352,0.0664505,0.0622742,-0.10429,0.05778,-0.100347,-0.100647,0.327447,0.023022,-0.182809,1.98691e-08,-4.56731e-09,0.3,-0.3,-14.5649,0.661621,1.00757,184.982,1.64326,1.84271,-13.8699,-0.680533,0,185.888,-2.3087,0.000486374,0.000121615,1.28272e-05,0.86,82.7976,3.58336,867.073
0.302,-0.192335,-0.00766602,0.330352,0.0664505,0.0622742,-0.10429,0.05778,-0.100347,-0.100647,0.327447,0.023022,-0.182809,1.98691e-08,-4.56731e-09,0.3,-0.3,-14.5667,0.660254,1.03465,184.834,1.67052,1.94151,-13.8699,-0.680533,0,185.888,-2.3087,0.000486374,0.000121615,1.28272e-05,0.86,82.5071,4.21094,867.136
0.303,-0.192335,-0.00766602,0.330352,0.0664505,0.0622742,-0.10429,0.05778,-0.100347,-0.100647,0.327447,0.023022,-0.182809,1.98691e-08,-4.56731e-09,0.3,-0.3,-14.5692,0.65929,1.06243,184.841,1.67054,1.98465,-13.8699,-0.680533,0,185.888,-2.3087,0.000486374,0.000121615,1.28272e-05,0.86,82.4457,4.33777,867.171
0.304,-0.192335,-0.00766602,0.330352,0.0664505,0.0622742,-0.10429,0.05778,-0.100347,-0.100647,0.327447,0.023022,-0.182809,1.98691e-08,-4.56731e-09,0.3,-0.3,-14.5724,0.658747,1.09164,184.847,1.66813,2.02798,-13.8699,-0.680533,0,185.888,-2.3087,0.000486374,0.000121615,1.28272e-05,0.86,82.3862,4.46311,867.207
0.305,-0.192335,-0.00766602,0.330352,0.0664505,0.0622742,-0.10429,0.05778,-0.100347,-0.100647,0.327447,0.023022,-0.182809,1.98691e-08,-4.56731e-09,0.3,-0.3,-14.575,0.657937,1.11656,184.855,1.66194,2.06917,-13.8699,-0.680533,0,185.888,-2.3087,0.000486374,0.000121615,1.28272e-05,0.86,82.3278,4.58747,867.24
0.306,-0.192335,-0.00766602,0.330352,0.0664505,0.0622742,-0.10429,0.05778,-0.100347,-0.100647,0.327447,0.023022,-0.182809,1.98691e-08,-4.56731e-09,0.3,-0.3,-14.577,0.656471,1.13591,184.866,1.65138,2.10604,-13.8699,-0.680533,0,185.888,-2.3087,0.000486374,0.000121615,1.28272e-05,0.86,82.2703,4.71129,867.269
0.307,-0.192335,-0.00766602,0.330352,0.0664505,0.0622742,-0.10429,0.05778,-0.100347,-0.100647,0.327447,0.023022,-0.182809,1.98691e-08,-4.56731e-09,0.3,-0.3,-14.5787,0.654519,1.15089,184.88,1.63686,2.13848,-13.8699,-0.680533,0,185.888,-2.3087,0.000486374,0.000121615,1.28272e-05,0.86,82.2134,4.8348,867.293
0.308,-0.192335,-0.00766602,0.330352,0.0664505,0.0622742,-0.10429,0.05778,-0.100347,-0.100647,0.327447,0.023022,-0.182809,1.98691e-08,-4.56731e-09,0.3,-0.3,-14.5805,0.65244,1.16302,184.897,1.61956,2.16723,-13.8699,-0.680533,0,185.888,-2.3087,0.000486374,0.000121615,1.28272e-05,0.86,82.1571,4.95808,867.313
0.309,-0.192335,-0.00766602,0.330352,0.0664505,0.0622742,-0.10429,0.05778,-0.100347,-0.100647,0.327447,0.023022,-0.182809,1.98691e-08,-4.56731e-09,0.3,-0.3,-14.5826,0.650406,1.17357,184.914,1.6011,2.19332,-13.8699,-0.680533,0,185.888,-2.3087,0.000486374,0.000121615,1.28272e-05,0.86,82.1015,5.08108,867.331
0.31,-0.192335,-0.00766602,0.330352,0.0664505,0.0622742,-0.10429,0.05778,-0.100347,-0.100647,0.327447,0.023022,-0.182809,1.98691e-08,-4.56731e-09,0.3,-0.3,-14.5852,0.648632,1.18362,184.93,1.58336,2.21783,-13.8699,-0.680533,0,185.888,-2.3087,0.000486374,0.000121615,1.28272e-05,0.86,82.0467,5.20364,867.346
0.311,-0.192335,-0.00766602,0.330352,0.0664505,0.0622742,-0.10429,0.05778,-0.100347,-0.100647,0.327447,0.023022,-0.182809,1.98691e-08,-4.56731e-09,0.3,-0.3,-14.5887,0.647142,1.19419,185.005,1.64644,2.21437,-13.8699,-0.680533,0,185.888,-2.3087,0.000486374,0.000121615,1.28272e-05,0.86,82.0637,4.94492,867.349
0.312,-0.192335,-0.00766602,0.330352,0.0664505,0.0622742,-0.10429,0.05778,-0.100347,-0.100647,0.327447,0.023022,-0.182809,1.98691e-08,-4.56731e-09,0.3,-0.3,-14.5933,0.645961,1.20632,184.95,1.55764,2.26632,-13.8699,-0.680533,0,185.888,-2.3087,0.000486374,0.000121615,1.28272e-05,0.86,81.9401,5.4463,867.379
0.313,-0.192335,-0.00766602,0.330352,0.0664505,0.0622742,-0.10429,0.05778,-0.100347,-0.100647,0.327447,0.023022,-0.182809,1.98691e-08,-4.56731e-09,0.3,-0.3,-14.5987,0.645213,1.22116,184.952,1.55325,2.29239,-13.8699,-0.680533,0,185.888,-2.3087,0.000486374,0.000121615,1.28272e-05,0.86,81.8889,5.5656,867.398
0.314,-0.192335,-0.00766602,0.330352,0.0664505,0.0622742,-0.10429,0.05778,-0.100347,-0.100647,0.327447,0.023022,-0.182809,1.98691e-08,-4.56731e-09,0.3,-0.3,-14.6056,0.645087,1.23982,184.946,1.5566,2.32085,-13.8699,-0.680533,0,185.888,-2.3087,0.000486374,0.000121615,1.28272e-05,0.86,81.8395,5.68291,867.42
0.315,-0.192335,-0.00766602,0.330352,0.0664505,0.0622742,-0.10429,0.05778,-0.100347,-0.100647,0.327447,0.023022,-0.182809,1.98691e-08,-4.56731e-09,0.3,-0.3,-14.6109,0.644548,1.25537,184.938,1.565,2.34815,-13.8699,-0.680533,0,185.888,-2.3087,0.000486374,0.000121615,1.28272e-05,0.86,81.7914,5.79858,867.441
0.316,-0.192335,-0.00766602,0.330352,0.0664505,0.0622742,-0.10429,0.05778,-0.100347,-0.100647,0.327447,0.023022,-0.182809,1.98691e-08,-4.56731e-09,0.3,-0.3,-14.615,0.643387,1.26671,184.931,1.57576,2.37219,-13.8699,-0.680533,0,185.888,-2.3087,0.000486374,0.000121615,1.28272e-05,0.86,81.7442,5.91283,867.459
0.317,-0.192335,-0.00766602,0.330352,0.0664505,0.0622742,-0.10429,0.05778,-0.100347,-0.100647,0.327447,0.023022,-0.182809,1.98691e-08,-4.56731e-09,0.3,-0.3,-14.618,0.641727,1.27421,184.927,1.58689,2.39254,-13.8699,-0.680533,0,185.888,-2.3087,0.000486374,0.000121615,1.28272e-05,0.86,81.698,6.02587,867.473
0.318,-0.192335,-0.00766602,0.330352,0.0664505,0.0622742,-0.10429,0.05778,-0.100347,-0.100647,0.327447,0.023022,-0.182809,1.98691e-08,-4.56731e-09,0.3,-0.3,-14.6208,0.639594,1.27927,184.925,1.597,2.40979,-13.8699,-0.680533,0,185.888,-2.3087,0.000486374,0.000121615,1.28272e-05,0.86,81.6526,6.13774,867.483
0.319,-0.192335,-0.00766602,0.330352,0.0664505,0.0622742,-0.10429,0.05778,-0.100347,-0.100647,0.327447,0.023022,-0.182809,1.98691e-08,-4.56731e-09,0.3,-0.3,-14.6237,0.637299,1.28305,184.924,1.60517,2.42495,-13.8699,-0.680533,0,185.888,-2.3087,0.000486374,0.000121615,1.28272e-05,0.86,81.6083,6.24848,867.491
0.32,-0.192335,-0.00766602,0.330352,0.0664505,0.0622742,-0.10429,0.05778,-0.100347,-0.100647,0.327447,0.023022,-0.182809,1.98691e-08,-4.56731e-09,0.3,-0.3,-14.627,0.635125,1.28664,184.924,1.61081,2.43911,-13.8699,-0.680533,0,185.888,-2.3087,0.000486374,0.000121615,1.28272e-05,0.86,81.565,6.35802,867.498
0.321,-0.192335,-0.00766602,0.330352,0.0664505,0.0622742,-0.10429,0.05778,-0.100347,-0.100647,0.327447,0.023022,-0.182809,1.98691e-08,-4.56731e-09,0.3,-0.3,-14.6307,0.63329,1.29104,185.002,1.61729,2.36868,-13.8699,-0.680533,0,185.888,-2.3087,0.000486374,0.000121615,1.28272e-05,0.86,81.8178,5.973,867.462
