TheMarex/ba-thesis/notebook/disturbance_stabilized_logs/2014-10-27-15:26:04_trajectory.csv
"Timestamp","Trajectory_LeftLeg_Joint6","Trajectory_LeftLeg_Joint5","Trajectory_LeftLeg_Joint4","Trajectory_LeftLeg_Joint3","Trajectory_LeftLeg_Joint2","Trajectory_LeftLeg_Joint1","Trajectory_RightLeg_Joint1","Trajectory_RightLeg_Joint2","Trajectory_RightLeg_Joint3","Trajectory_RightLeg_Joint4","Trajectory_RightLeg_Joint5","Trajectory_RightLeg_Joint6","Trajectory_Torso_Joint1","Trajectory_Torso_Joint2","Trajectory_LeftArm_Joint3","Trajectory_RightArm_Joint3","Actual_LeftFootX","Actual_LeftFootY","Actual_LeftFootZ","Actual_RightFootX","Actual_RightFootY","Actual_RightFootZ","Target_LeftFootX","Target_LeftFootY","Target_LeftFootZ","Target_RightFootX","Target_RightFootY","Target_RightFootZ","Target_CoMX","Target_CoMY","Target_CoMZ","Actual_CoMX","Actual_CoMY","Actual_CoMZ"
0.001,-0.192335,-0.00766602,0.330352,0.0664505,0.0622742,-0.10429,0.05778,-0.100347,-0.100647,0.327447,0.023022,-0.182809,1.98691e-08,-4.56731e-09,0.3,-0.3,0,0,0,172.018,-2.98923,-0.0121975,-13.99,-1.09148,0,185.773,-1.92323,0.000486374,0.000121615,1.28272e-05,0.86,94.498,-21.111,892.433
0.002,-0.192335,-0.00766602,0.330352,0.0664505,0.0622742,-0.10429,0.05778,-0.100347,-0.100647,0.327447,0.023022,-0.182809,1.98691e-08,-4.56731e-09,0.3,-0.3,0,0,0,172.018,-2.98923,-0.0121918,-13.99,-1.09148,0,185.773,-1.92323,0.000486374,0.000121615,1.28272e-05,0.86,94.498,-21.111,892.433
0.003,-0.192335,-0.00766602,0.330352,0.0664505,0.0622742,-0.10429,0.05778,-0.100347,-0.100647,0.327447,0.023022,-0.182809,1.98691e-08,-4.56731e-09,0.3,-0.3,0,0,-0.00981,172.01,-2.98587,0.030508,-13.99,-1.09148,0,185.773,-1.92323,0.000486374,0.000121615,1.28272e-05,0.86,94.496,-21.1215,892.442
0.004,-0.192335,-0.00766602,0.330352,0.0664505,0.0622742,-0.10429,0.05778,-0.100347,-0.100647,0.327447,0.023022,-0.182809,1.98691e-08,-4.56731e-09,0.3,-0.3,0.00649278,-0.0101578,-0.00160465,172.01,-2.98597,0.0923576,-13.99,-1.09148,0,185.773,-1.92323,0.000486374,0.000121615,1.28272e-05,0.86,94.4911,-21.1312,892.477
0.005,-0.192335,-0.00766602,0.330352,0.0664505,0.0622742,-0.10429,0.05778,-0.100347,-0.100647,0.327447,0.023022,-0.182809,1.98691e-08,-4.56731e-09,0.3,-0.3,0.0308393,-0.0322415,0.0405583,172.007,-2.98485,0.146629,-13.99,-1.09148,0,185.773,-1.92323,0.000486374,0.000121615,1.28272e-05,0.86,94.4851,-21.1421,892.515
0.006,-0.192335,-0.00766602,0.330352,0.0664505,0.0622742,-0.10429,0.05778,-0.100347,-0.100647,0.327447,0.023022,-0.182809,1.98691e-08,-4.56731e-09,0.3,-0.3,0.0554318,-0.0638302,0.0847182,172.006,-2.98424,0.202099,-13.99,-1.09148,0,185.773,-1.92323,0.000486374,0.000121615,1.28272e-05,0.86,94.4776,-21.1533,892.556
0.007,-0.192335,-0.00766602,0.330352,0.0664505,0.0622742,-0.10429,0.05778,-0.100347,-0.100647,0.327447,0.023022,-0.182809,1.98691e-08,-4.56731e-09,0.3,-0.3,0.0802249,-0.102195,0.134006,172.006,-2.98462,0.259699,-13.99,-1.09148,0,185.773,-1.92323,0.000486374,0.000121615,1.28272e-05,0.86,94.4685,-21.1647,892.6
0.008,-0.192335,-0.00766602,0.330352,0.0664505,0.0622742,-0.10429,0.05778,-0.100347,-0.100647,0.327447,0.023022,-0.182809,1.98691e-08,-4.56731e-09,0.3,-0.3,0.104352,-0.144598,0.188602,172.009,-2.98576,0.319872,-13.99,-1.09148,0,185.773,-1.92323,0.000486374,0.000121615,1.28272e-05,0.86,94.4579,-21.1761,892.646
0.009,-0.192335,-0.00766602,0.330352,0.0664505,0.0622742,-0.10429,0.05778,-0.100347,-0.100647,0.327447,0.023022,-0.182809,1.98691e-08,-4.56731e-09,0.3,-0.3,0.12674,-0.188317,0.248321,172.013,-2.98778,0.378258,-13.99,-1.09148,0,185.773,-1.92323,0.000486374,0.000121615,1.28272e-05,0.86,94.446,-21.1871,892.692
0.01,-0.192335,-0.00766602,0.330352,0.0664505,0.0622742,-0.10429,0.05778,-0.100347,-0.100647,0.327447,0.023022,-0.182809,1.98691e-08,-4.56731e-09,0.3,-0.3,0.14351,-0.230959,0.306622,172.02,-2.99313,0.427402,-13.99,-1.09148,0,185.773,-1.92323,0.000486374,0.000121615,1.28272e-05,0.86,94.4335,-21.1975,892.728
0.011,-0.192335,-0.00766602,0.330352,0.0664505,0.0622742,-0.10429,0.05778,-0.100347,-0.100647,0.327447,0.023022,-0.182809,1.98691e-08,-4.56731e-09,0.3,-0.3,0.151428,-0.27088,0.356016,172.033,-3.01086,0.469923,-13.99,-1.09148,0,185.773,-1.92323,0.000486374,0.000121615,1.28272e-05,0.86,94.4209,-21.208,892.754
0.012,-0.192335,-0.00766602,0.330352,0.0664505,0.0622742,-0.10429,0.05778,-0.100347,-0.100647,0.327447,0.023022,-0.182809,1.98691e-08,-4.56731e-09,0.3,-0.3,0.151036,-0.308724,0.397465,172.05,-3.0374,0.506077,-13.99,-1.09148,0,185.773,-1.92323,0.000486374,0.000121615,1.28272e-05,0.86,94.4082,-21.2186,892.77
0.013,-0.192335,-0.00766602,0.330352,0.0664505,0.0622742,-0.10429,0.05778,-0.100347,-0.100647,0.327447,0.023022,-0.182809,1.98691e-08,-4.56731e-09,0.3,-0.3,0.143667,-0.345546,0.431504,172.07,-3.06858,0.536131,-13.99,-1.09148,0,185.773,-1.92323,0.000486374,0.000121615,1.28272e-05,0.86,94.3953,-21.229,892.777
0.014,-0.192335,-0.00766602,0.330352,0.0664505,0.0622742,-0.10429,0.05778,-0.100347,-0.100647,0.327447,0.023022,-0.182809,1.98691e-08,-4.56731e-09,0.3,-0.3,0.130692,-0.382483,0.458571,172.091,-3.09733,0.560787,-13.99,-1.09148,0,185.773,-1.92323,0.000486374,0.000121615,1.28272e-05,0.86,94.382,-21.2387,892.775
0.015,-0.192335,-0.00766602,0.330352,0.0664505,0.0622742,-0.10429,0.05778,-0.100347,-0.100647,0.327447,0.023022,-0.182809,1.98691e-08,-4.56731e-09,0.3,-0.3,0.113599,-0.420049,0.479562,172.11,-3.11875,0.580374,-13.99,-1.09148,0,185.773,-1.92323,0.000486374,0.000121615,1.28272e-05,0.86,94.3681,-21.2472,892.764
0.016,-0.192335,-0.00766602,0.330352,0.0664505,0.0622742,-0.10429,0.05778,-0.100347,-0.100647,0.327447,0.023022,-0.182809,1.98691e-08,-4.56731e-09,0.3,-0.3,0.0931543,-0.458061,0.495084,172.127,-3.12958,0.595217,-13.99,-1.09148,0,185.773,-1.92323,0.000486374,0.000121615,1.28272e-05,0.86,94.3534,-21.2542,892.745
0.017,-0.192335,-0.00766602,0.330352,0.0664505,0.0622742,-0.10429,0.05778,-0.100347,-0.100647,0.327447,0.023022,-0.182809,1.98691e-08,-4.56731e-09,0.3,-0.3,0.0696144,-0.495836,0.505572,172.142,-3.13683,0.606556,-13.99,-1.09148,0,185.773,-1.92323,0.000486374,0.000121615,1.28272e-05,0.86,94.3379,-21.2605,892.719
0.018,-0.192335,-0.00766602,0.330352,0.0664505,0.0622742,-0.10429,0.05778,-0.100347,-0.100647,0.327447,0.023022,-0.182809,1.98691e-08,-4.56731e-09,0.3,-0.3,0.0432266,-0.53303,0.512375,172.158,-3.14432,0.615263,-13.99,-1.09148,0,185.773,-1.92323,0.000486374,0.000121615,1.28272e-05,0.86,94.3218,-21.2667,892.687
0.019,-0.192335,-0.00766602,0.330352,0.0664505,0.0622742,-0.10429,0.05778,-0.100347,-0.100647,0.327447,0.023022,-0.182809,1.98691e-08,-4.56731e-09,0.3,-0.3,0.0146308,-0.569925,0.516618,172.175,-3.15208,0.621727,-13.99,-1.09148,0,185.773,-1.92323,0.000486374,0.000121615,1.28272e-05,0.86,94.305,-21.2728,892.65
0.02,-0.192335,-0.00766602,0.330352,0.0664505,0.0622742,-0.10429,0.05778,-0.100347,-0.100647,0.327447,0.023022,-0.182809,1.98691e-08,-4.56731e-09,0.3,-0.3,-0.0157905,-0.606846,0.518957,172.192,-3.16012,0.626255,-13.99,-1.09148,0,185.773,-1.92323,0.000486374,0.000121615,1.28272e-05,0.86,94.2875,-21.279,892.608
0.021,-0.192335,-0.00766602,0.330352,0.0664505,0.0622742,-0.10429,0.05778,-0.100347,-0.100647,0.327447,0.023022,-0.182809,1.98691e-08,-4.56731e-09,0.3,-0.3,-0.0478045,-0.644077,0.519743,172.209,-3.16847,0.629108,-13.99,-1.09148,0,185.773,-1.92323,0.000486374,0.000121615,1.28272e-05,0.86,94.2693,-21.2854,892.562
0.022,-0.192335,-0.00766602,0.330352,0.0664505,0.0622742,-0.10429,0.05778,-0.100347,-0.100647,0.327447,0.023022,-0.182809,1.98691e-08,-4.56731e-09,0.3,-0.3,-0.0812513,-0.681844,0.519182,172.228,-3.17708,0.630489,-13.99,-1.09148,0,185.773,-1.92323,0.000486374,0.000121615,1.28272e-05,0.86,94.2504,-21.2919,892.511
0.023,-0.192335,-0.00766602,0.330352,0.0664505,0.0622742,-0.10429,0.05778,-0.100347,-0.100647,0.327447,0.023022,-0.182809,1.98691e-08,-4.56731e-09,0.3,-0.3,-0.116066,-0.720315,0.517459,172.247,-3.18597,0.630571,-13.99,-1.09148,0,185.773,-1.92323,0.000486374,0.000121615,1.28272e-05,0.86,94.2306,-21.2987,892.456
0.024,-0.192335,-0.00766602,0.330352,0.0664505,0.0622742,-0.10429,0.05778,-0.100347,-0.100647,0.327447,0.023022,-0.182809,1.98691e-08,-4.56731e-09,0.3,-0.3,-0.152221,-0.759605,0.514707,172.266,-3.19511,0.629496,-13.99,-1.09148,0,185.773,-1.92323,0.000486374,0.000121615,1.28272e-05,0.86,94.2101,-21.3057,892.398
0.025,-0.192335,-0.00766602,0.330352,0.0664505,0.0622742,-0.10429,0.05778,-0.100347,-0.100647,0.327447,0.023022,-0.182809,1.98691e-08,-4.56731e-09,0.3,-0.3,-0.189723,-0.799794,0.511034,172.286,-3.20452,0.627384,-13.99,-1.09148,0,185.773,-1.92323,0.000486374,0.000121615,1.28272e-05,0.86,94.1888,-21.3131,892.336
0.026,-0.192335,-0.00766602,0.330352,0.0664505,0.0622742,-0.10429,0.05778,-0.100347,-0.100647,0.327447,0.023022,-0.182809,1.98691e-08,-4.56731e-09,0.3,-0.3,-0.228599,-0.840936,0.506525,172.306,-3.21419,0.624334,-13.99,-1.09148,0,185.773,-1.92323,0.000486374,0.000121615,1.28272e-05,0.86,94.1666,-21.3207,892.27
0.027,-0.192335,-0.00766602,0.330352,0.0664505,0.0622742,-0.10429,0.05778,-0.100347,-0.100647,0.327447,0.023022,-0.182809,1.98691e-08,-4.56731e-09,0.3,-0.3,-0.268892,-0.883069,0.50125,172.328,-3.22412,0.620434,-13.99,-1.09148,0,185.773,-1.92323,0.000486374,0.000121615,1.28272e-05,0.86,94.1436,-21.3287,892.2
0.028,-0.192335,-0.00766602,0.330352,0.0664505,0.0622742,-0.10429,0.05778,-0.100347,-0.100647,0.327447,0.023022,-0.182809,1.98691e-08,-4.56731e-09,0.3,-0.3,-0.310655,-0.926225,0.495269,172.349,-3.23432,0.615755,-13.99,-1.09148,0,185.773,-1.92323,0.000486374,0.000121615,1.28272e-05,0.86,94.1198,-21.337,892.128
0.029,-0.192335,-0.00766602,0.330352,0.0664505,0.0622742,-0.10429,0.05778,-0.100347,-0.100647,0.327447,0.023022,-0.182809,1.98691e-08,-4.56731e-09,0.3,-0.3,-0.35394,-0.970434,0.488633,172.372,-3.2448,0.610359,-13.99,-1.09148,0,185.773,-1.92323,0.000486374,0.000121615,1.28272e-05,0.86,94.0951,-21.3458,892.052
0.03,-0.192335,-0.00766602,0.330352,0.0664505,0.0622742,-0.10429,0.05778,-0.100347,-0.100647,0.327447,0.023022,-0.182809,1.98691e-08,-4.56731e-09,0.3,-0.3,-0.3988,-1.01573,0.481386,172.394,-3.25556,0.604298,-13.99,-1.09148,0,185.773,-1.92323,0.000486374,0.000121615,1.28272e-05,0.86,94.0694,-21.355,891.973
0.031,-0.192335,-0.00766602,0.330352,0.0664505,0.0622742,-0.10429,0.05778,-0.100347,-0.100647,0.327447,0.023022,-0.182809,1.98691e-08,-4.56731e-09,0.3,-0.3,-0.445283,-1.06215,0.473566,172.418,-3.26661,0.597616,-13.99,-1.09148,0,185.773,-1.92323,0.000486374,0.000121615,1.28272e-05,0.86,94.0429,-21.3646,891.89
0.032,-0.192335,-0.00766602,0.330352,0.0664505,0.0622742,-0.10429,0.05778,-0.100347,-0.100647,0.327447,0.023022,-0.182809,1.98691e-08,-4.56731e-09,0.3,-0.3,-0.493431,-1.10974,0.465208,172.442,-3.27796,0.590353,-13.99,-1.09148,0,185.773,-1.92323,0.000486374,0.000121615,1.28272e-05,0.86,94.0155,-21.3747,891.805
0.033,-0.192335,-0.00766602,0.330352,0.0664505,0.0622742,-0.10429,0.05778,-0.100347,-0.100647,0.327447,0.023022,-0.182809,1.98691e-08,-4.56731e-09,0.3,-0.3,-0.543279,-1.15855,0.456342,172.467,-3.28961,0.582544,-13.99,-1.09148,0,185.773,-1.92323,0.000486374,0.000121615,1.28272e-05,0.86,93.9871,-21.3853,891.716
0.034,-0.192335,-0.00766602,0.330352,0.0664505,0.0622742,-0.10429,0.05778,-0.100347,-0.100647,0.327447,0.023022,-0.182809,1.98691e-08,-4.56731e-09,0.3,-0.3,-0.594852,-1.20864,0.446994,172.492,-3.30158,0.574217,-13.99,-1.09148,0,185.773,-1.92323,0.000486374,0.000121615,1.28272e-05,0.86,93.9578,-21.3963,891.625
0.035,-0.192335,-0.00766602,0.330352,0.0664505,0.0622742,-0.10429,0.05778,-0.100347,-0.100647,0.327447,0.023022,-0.182809,1.98691e-08,-4.56731e-09,0.3,-0.3,-0.64817,-1.26007,0.437189,172.519,-3.31387,0.565397,-13.99,-1.09148,0,185.773,-1.92323,0.000486374,0.000121615,1.28272e-05,0.86,93.9276,-21.4079,891.531
0.036,-0.192335,-0.00766602,0.330352,0.0664505,0.0622742,-0.10429,0.05778,-0.100347,-0.100647,0.327447,0.023022,-0.182809,1.98691e-08,-4.56731e-09,0.3,-0.3,-0.703241,-1.3129,0.426944,172.546,-3.32648,0.556108,-13.99,-1.09148,0,185.773,-1.92323,0.000486374,0.000121615,1.28272e-05,0.86,93.8964,-21.4201,891.433
0.037,-0.192335,-0.00766602,0.330352,0.0664505,0.0622742,-0.10429,0.05778,-0.100347,-0.100647,0.327447,0.023022,-0.182809,1.98691e-08,-4.56731e-09,0.3,-0.3,-0.76007,-1.3672,0.416277,172.573,-3.33942,0.54637,-13.99,-1.09148,0,185.773,-1.92323,0.000486374,0.000121615,1.28272e-05,0.86,93.8643,-21.4328,891.333
0.038,-0.192335,-0.00766602,0.330352,0.0664505,0.0622742,-0.10429,0.05778,-0.100347,-0.100647,0.327447,0.023022,-0.182809,1.98691e-08,-4.56731e-09,0.3,-0.3,-0.818652,-1.42302,0.4052,172.602,-3.35269,0.536196,-13.99,-1.09148,0,185.773,-1.92323,0.000486374,0.000121615,1.28272e-05,0.86,93.8312,-21.4461,891.23
0.039,-0.192335,-0.00766602,0.330352,0.0664505,0.0622742,-0.10429,0.05778,-0.100347,-0.100647,0.327447,0.023022,-0.182809,1.98691e-08,-4.56731e-09,0.3,-0.3,-0.87898,-1.48043,0.393726,172.631,-3.36629,0.525602,-13.99,-1.09148,0,185.773,-1.92323,0.000486374,0.000121615,1.28272e-05,0.86,93.7972,-21.4599,891.125
0.04,-0.192335,-0.00766602,0.330352,0.0664505,0.0622742,-0.10429,0.05778,-0.100347,-0.100647,0.327447,0.023022,-0.182809,1.98691e-08,-4.56731e-09,0.3,-0.3,-0.941039,-1.53947,0.381861,172.66,-3.38021,0.514606,-13.99,-1.09148,0,185.773,-1.92323,0.000486374,0.000121615,1.28272e-05,0.86,93.7621,-21.4744,891.016
0.041,-0.192335,-0.00766602,0.330352,0.0664505,0.0622742,-0.10429,0.05778,-0.100347,-0.100647,0.327447,0.023022,-0.182809,1.98691e-08,-4.56731e-09,0.3,-0.3,-1.00481,-1.6002,0.369612,172.691,-3.39447,0.503214,-13.99,-1.09148,0,185.773,-1.92323,0.000486374,0.000121615,1.28272e-05,0.86,93.7261,-21.4895,890.905
0.042,-0.192335,-0.00766602,0.330352,0.0664505,0.0622742,-0.10429,0.05778,-0.100347,-0.100647,0.327447,0.023022,-0.182809,1.98691e-08,-4.56731e-09,0.3,-0.3,-1.07028,-1.66264,0.356984,172.722,-3.40906,0.49144,-13.99,-1.09148,0,185.773,-1.92323,0.000486374,0.000121615,1.28272e-05,0.86,93.6892,-21.5052,890.791
0.043,-0.192335,-0.00766602,0.330352,0.0664505,0.0622742,-0.10429,0.05778,-0.100347,-0.100647,0.327447,0.023022,-0.182809,1.98691e-08,-4.56731e-09,0.3,-0.3,-1.13743,-1.72684,0.34398,172.754,-3.42396,0.479292,-13.99,-1.09148,0,185.773,-1.92323,0.000486374,0.000121615,1.28272e-05,0.86,93.6512,-21.5216,890.675
0.044,-0.192335,-0.00766602,0.330352,0.0664505,0.0622742,-0.10429,0.05778,-0.100347,-0.100647,0.327447,0.023022,-0.182809,1.98691e-08,-4.56731e-09,0.3,-0.3,-1.20622,-1.79281,0.330604,172.787,-3.43919,0.466778,-13.99,-1.09148,0,185.773,-1.92323,0.000486374,0.000121615,1.28272e-05,0.86,93.6123,-21.5386,890.556
0.045,-0.192335,-0.00766602,0.330352,0.0664505,0.0622742,-0.10429,0.05778,-0.100347,-0.100647,0.327447,0.023022,-0.182809,1.98691e-08,-4.56731e-09,0.3,-0.3,-1.27665,-1.86056,0.316852,172.82,-3.45469,0.453897,-13.99,-1.09148,0,185.773,-1.92323,0.000486374,0.000121615,1.28272e-05,0.86,93.5724,-21.5563,890.434
0.046,-0.192335,-0.00766602,0.330352,0.0664505,0.0622742,-0.10429,0.05778,-0.100347,-0.100647,0.327447,0.023022,-0.182809,1.98691e-08,-4.56731e-09,0.3,-0.3,-1.34873,-1.93007,0.302726,172.854,-3.47041,0.440649,-13.99,-1.09148,0,185.773,-1.92323,0.000486374,0.000121615,1.28272e-05,0.86,93.5314,-21.5746,890.309
0.047,-0.192335,-0.00766602,0.330352,0.0664505,0.0622742,-0.10429,0.05778,-0.100347,-0.100647,0.327447,0.023022,-0.182809,1.98691e-08,-4.56731e-09,0.3,-0.3,-1.42247,-2.00127,0.288221,172.888,-3.48632,0.427034,-13.99,-1.09148,0,185.773,-1.92323,0.000486374,0.000121615,1.28272e-05,0.86,93.4895,-21.5936,890.183
0.048,-0.192335,-0.00766602,0.330352,0.0664505,0.0622742,-0.10429,0.05778,-0.100347,-0.100647,0.327447,0.023022,-0.182809,1.98691e-08,-4.56731e-09,0.3,-0.3,-1.4979,-2.07406,0.273347,172.923,-3.50259,0.413088,-13.99,-1.09148,0,185.773,-1.92323,0.000486374,0.000121615,1.28272e-05,0.86,93.4465,-21.6133,890.053
0.049,-0.192335,-0.00766602,0.330352,0.0664505,0.0622742,-0.10429,0.05778,-0.100347,-0.100647,0.327447,0.023022,-0.182809,1.98691e-08,-4.56731e-09,0.3,-0.3,-1.57493,-2.14846,0.258093,172.958,-3.51904,0.39879,-13.99,-1.09148,0,185.773,-1.92323,0.000486374,0.000121615,1.28272e-05,0.86,93.4026,-21.6336,889.921
0.05,-0.192335,-0.00766602,0.330352,0.0664505,0.0622742,-0.10429,0.05778,-0.100347,-0.100647,0.327447,0.023022,-0.182809,1.98691e-08,-4.56731e-09,0.3,-0.3,-1.61735,-2.16708,0.269235,172.99,-3.53378,0.404419,-13.99,-1.09148,0,185.773,-1.92323,0.000486374,0.000121615,1.28272e-05,0.86,93.3644,-21.6446,889.807
0.051,-0.192335,-0.00766602,0.330352,0.0664505,0.0622742,-0.10429,0.05778,-0.100347,-0.100647,0.327447,0.023022,-0.182809,1.98691e-08,-4.56731e-09,0.3,-0.3,-1.64647,-2.1497,0.295096,173.023,-3.5426,0.425272,-13.99,-1.09148,0,185.773,-1.92323,0.000486374,0.000121615,1.28272e-05,0.86,93.3286,-21.6528,889.705
0.052,-0.192335,-0.00766602,0.330352,0.0664505,0.0622742,-0.10429,0.05778,-0.100347,-0.100647,0.327447,0.023022,-0.182809,1.98691e-08,-4.56731e-09,0.3,-0.3,-1.67641,-2.1342,0.318222,173.061,-3.54442,0.451851,-13.99,-1.09148,0,185.773,-1.92323,0.000486374,0.000121615,1.28272e-05,0.86,93.295,-21.6586,889.608
0.053,-0.192335,-0.00766602,0.330352,0.0664505,0.0622742,-0.10429,0.05778,-0.100347,-0.100647,0.327447,0.023022,-0.182809,1.98691e-08,-4.56731e-09,0.3,-0.3,-1.70618,-2.11948,0.338067,173.106,-3.53852,0.480114,-13.99,-1.09148,0,185.773,-1.92323,0.000486374,0.000121615,1.28272e-05,0.86,93.2638,-21.6618,889.51
0.054,-0.192335,-0.00766602,0.330352,0.0664505,0.0622742,-0.10429,0.05778,-0.100347,-0.100647,0.327447,0.023022,-0.182809,1.98691e-08,-4.56731e-09,0.3,-0.3,-1.73577,-2.10512,0.356757,173.159,-3.52457,0.508606,-13.99,-1.09148,0,185.773,-1.92323,0.000486374,0.000121615,1.28272e-05,0.86,93.235,-21.6626,889.41
0.055,-0.192335,-0.00766602,0.330352,0.0664505,0.0622742,-0.10429,0.05778,-0.100347,-0.100647,0.327447,0.023022,-0.182809,1.98691e-08,-4.56731e-09,0.3,-0.3,-1.76668,-2.09738,0.375251,173.221,-3.50247,0.537119,-13.99,-1.09148,0,185.773,-1.92323,0.000486374,0.000121615,1.28272e-05,0.86,93.2086,-21.6608,889.307
0.056,-0.192335,-0.00766602,0.330352,0.0664505,0.0622742,-0.10429,0.05778,-0.100347,-0.100647,0.327447,0.023022,-0.182809,1.98691e-08,-4.56731e-09,0.3,-0.3,-1.79711,-2.09023,0.394938,173.291,-3.47242,0.565763,-13.99,-1.09148,0,185.773,-1.92323,0.000486374,0.000121615,1.28272e-05,0.86,93.1847,-21.6565,889.202
0.057,-0.192335,-0.00766602,0.330352,0.0664505,0.0622742,-0.10429,0.05778,-0.100347,-0.100647,0.327447,0.023022,-0.182809,1.98691e-08,-4.56731e-09,0.3,-0.3,-1.82454,-2.07661,0.416973,173.369,-3.43474,0.594671,-13.99,-1.09148,0,185.773,-1.92323,0.000486374,0.000121615,1.28272e-05,0.86,93.1632,-21.6499,889.094
0.058,-0.192335,-0.00766602,0.330352,0.0664505,0.0622742,-0.10429,0.05778,-0.100347,-0.100647,0.327447,0.023022,-0.182809,1.98691e-08,-4.56731e-09,0.3,-0.3,-1.85066,-2.0611,0.44052,173.456,-3.38985,0.623936,-13.99,-1.09148,0,185.773,-1.92323,0.000486374,0.000121615,1.28272e-05,0.86,93.1442,-21.6409,888.985
0.059,-0.192335,-0.00766602,0.330352,0.0664505,0.0622742,-0.10429,0.05778,-0.100347,-0.100647,0.327447,0.023022,-0.182809,1.98691e-08,-4.56731e-09,0.3,-0.3,-1.8764,-2.04638,0.465246,173.55,-3.33827,0.653564,-13.99,-1.09148,0,185.773,-1.92323,0.000486374,0.000121615,1.28272e-05,0.86,93.1274,-21.6297,888.873
0.06,-0.192335,-0.00766602,0.330352,0.0664505,0.0622742,-0.10429,0.05778,-0.100347,-0.100647,0.327447,0.023022,-0.182809,1.98691e-08,-4.56731e-09,0.3,-0.3,-1.90173,-2.03233,0.490898,173.652,-3.28055,0.683521,-13.99,-1.09148,0,185.773,-1.92323,0.000486374,0.000121615,1.28272e-05,0.86,93.1129,-21.6165,888.759
0.061,-0.192335,-0.00766602,0.330352,0.0664505,0.0622742,-0.10429,0.05778,-0.100347,-0.100647,0.327447,0.023022,-0.182809,1.98691e-08,-4.56731e-09,0.3,-0.3,-1.92662,-2.01886,0.517233,173.762,-3.21723,0.713753,-13.99,-1.09148,0,185.773,-1.92323,0.000486374,0.000121615,1.28272e-05,0.86,93.1006,-21.6013,888.644
0.062,-0.192335,-0.00766602,0.330352,0.0664505,0.0622742,-0.10429,0.05778,-0.100347,-0.100647,0.327447,0.023022,-0.182809,1.98691e-08,-4.56731e-09,0.3,-0.3,-1.95108,-2.00589,0.544023,173.878,-3.14891,0.744188,-13.99,-1.09148,0,185.773,-1.92323,0.000486374,0.000121615,1.28272e-05,0.86,93.0904,-21.5842,888.526
0.063,-0.192335,-0.00766602,0.330352,0.0664505,0.0622742,-0.10429,0.05778,-0.100347,-0.100647,0.327447,0.023022,-0.182809,1.98691e-08,-4.56731e-09,0.3,-0.3,-1.97512,-1.99335,0.571055,174.001,-3.07618,0.774755,-13.99,-1.09148,0,185.773,-1.92323,0.000486374,0.000121615,1.28272e-05,0.86,93.0823,-21.5655,888.407
0.064,-0.192335,-0.00766602,0.330352,0.0664505,0.0622742,-0.10429,0.05778,-0.100347,-0.100647,0.327447,0.023022,-0.182809,1.98691e-08,-4.56731e-09,0.3,-0.3,-1.99879,-1.9812,0.59814,174.13,-2.99963,0.805378,-13.99,-1.09148,0,185.773,-1.92323,0.000486374,0.000121615,1.28272e-05,0.86,93.076,-21.5451,888.286
0.065,-0.192335,-0.00766602,0.330352,0.0664505,0.0622742,-0.10429,0.05778,-0.100347,-0.100647,0.327447,0.023022,-0.182809,1.98691e-08,-4.56731e-09,0.3,-0.3,-2.02213,-1.96938,0.625119,174.264,-2.91979,0.835987,-13.99,-1.09148,0,185.773,-1.92323,0.000486374,0.000121615,1.28272e-05,0.86,93.0716,-21.5232,888.163
0.066,-0.192335,-0.00766602,0.330352,0.0664505,0.0622742,-0.10429,0.05778,-0.100347,-0.100647,0.327447,0.023022,-0.182809,1.98691e-08,-4.56731e-09,0.3,-0.3,-2.04519,-1.95785,0.651856,174.403,-2.8372,0.866522,-13.99,-1.09148,0,185.773,-1.92323,0.000486374,0.000121615,1.28272e-05,0.86,93.0689,-21.4999,888.037
0.067,-0.192335,-0.00766602,0.330352,0.0664505,0.0622742,-0.10429,0.05778,-0.100347,-0.100647,0.327447,0.023022,-0.182809,1.98691e-08,-4.56731e-09,0.3,-0.3,-2.06802,-1.94658,0.678245,174.547,-2.75231,0.896921,-13.99,-1.09148,0,185.773,-1.92323,0.000486374,0.000121615,1.28272e-05,0.86,93.0679,-21.4753,887.91
0.068,-0.192335,-0.00766602,0.330352,0.0664505,0.0622742,-0.10429,0.05778,-0.100347,-0.100647,0.327447,0.023022,-0.182809,1.98691e-08,-4.56731e-09,0.3,-0.3,-2.09068,-1.93553,0.704207,174.695,-2.66558,0.927134,-13.99,-1.09148,0,185.773,-1.92323,0.000486374,0.000121615,1.28272e-05,0.86,93.0685,-21.4494,887.781
0.069,-0.192335,-0.00766602,0.330352,0.0664505,0.0622742,-0.10429,0.05778,-0.100347,-0.100647,0.327447,0.023022,-0.182809,1.98691e-08,-4.56731e-09,0.3,-0.3,-2.11321,-1.92466,0.729685,174.847,-2.5774,0.957119,-13.99,-1.09148,0,185.773,-1.92323,0.000486374,0.000121615,1.28272e-05,0.86,93.0706,-21.4223,887.65
0.07,-0.192335,-0.00766602,0.330352,0.0664505,0.0622742,-0.10429,0.05778,-0.100347,-0.100647,0.327447,0.023022,-0.182809,1.98691e-08,-4.56731e-09,0.3,-0.3,-2.13568,-1.91396,0.754648,175.001,-2.48815,0.98683,-13.99,-1.09148,0,185.773,-1.92323,0.000486374,0.000121615,1.28272e-05,0.86,93.0741,-21.3941,887.517
0.071,-0.192335,-0.00766602,0.330352,0.0664505,0.0622742,-0.10429,0.05778,-0.100347,-0.100647,0.327447,0.023022,-0.182809,1.98691e-08,-4.56731e-09,0.3,-0.3,-2.15813,-1.90337,0.779086,175.158,-2.39815,1.01624,-13.99,-1.09148,0,185.773,-1.92323,0.000486374,0.000121615,1.28272e-05,0.86,93.0789,-21.3649,887.382
0.072,-0.192335,-0.00766602,0.330352,0.0664505,0.0622742,-0.10429,0.05778,-0.100347,-0.100647,0.327447,0.023022,-0.182809,1.98691e-08,-4.56731e-09,0.3,-0.3,-2.18059,-1.89288,0.803004,175.318,-2.3077,1.04531,-13.99,-1.09148,0,185.773,-1.92323,0.000486374,0.000121615,1.28272e-05,0.86,93.085,-21.3346,887.245
0.073,-0.192335,-0.00766602,0.330352,0.0664505,0.0622742,-0.10429,0.05778,-0.100347,-0.100647,0.327447,0.023022,-0.182809,1.98691e-08,-4.56731e-09,0.3,-0.3,-2.20311,-1.88245,0.826422,175.479,-2.21707,1.07403,-13.99,-1.09148,0,185.773,-1.92323,0.000486374,0.000121615,1.28272e-05,0.86,93.0924,-21.3033,887.106
0.074,-0.192335,-0.00766602,0.330352,0.0664505,0.0622742,-0.10429,0.05778,-0.100347,-0.100647,0.327447,0.023022,-0.182809,1.98691e-08,-4.56731e-09,0.3,-0.3,-2.22572,-1.87205,0.849373,175.642,-2.12648,1.10237,-13.99,-1.09148,0,185.773,-1.92323,0.000486374,0.000121615,1.28272e-05,0.86,93.101,-21.2711,886.965
0.075,-0.192335,-0.00766602,0.330352,0.0664505,0.0622742,-0.10429,0.05778,-0.100347,-0.100647,0.327447,0.023022,-0.182809,1.98691e-08,-4.56731e-09,0.3,-0.3,-2.24845,-1.86163,0.871895,175.806,-2.03615,1.13032,-13.99,-1.09148,0,185.773,-1.92323,0.000486374,0.000121615,1.28272e-05,0.86,93.1107,-21.2379,886.822
0.076,-0.192335,-0.00766602,0.330352,0.0664505,0.0622742,-0.10429,0.05778,-0.100347,-0.100647,0.327447,0.023022,-0.182809,1.98691e-08,-4.56731e-09,0.3,-0.3,-2.27135,-1.85114,0.894035,175.971,-1.94624,1.15786,-13.99,-1.09148,0,185.773,-1.92323,0.000486374,0.000121615,1.28272e-05,0.86,93.1215,-21.2038,886.677
0.077,-0.192335,-0.00766602,0.330352,0.0664505,0.0622742,-0.10429,0.05778,-0.100347,-0.100647,0.327447,0.023022,-0.182809,1.98691e-08,-4.56731e-09,0.3,-0.3,-2.29448,-1.84053,0.915839,176.137,-1.85692,1.18499,-13.99,-1.09148,0,185.773,-1.92323,0.000486374,0.000121615,1.28272e-05,0.86,93.1334,-21.1688,886.531
0.078,-0.192335,-0.00766602,0.330352,0.0664505,0.0622742,-0.10429,0.05778,-0.100347,-0.100647,0.327447,0.023022,-0.182809,1.98691e-08,-4.56731e-09,0.3,-0.3,-2.31797,-1.82971,0.937354,176.304,-1.76831,1.2117,-13.99,-1.09148,0,185.773,-1.92323,0.000486374,0.000121615,1.28272e-05,0.86,93.1464,-21.1329,886.382
0.079,-0.192335,-0.00766602,0.330352,0.0664505,0.0622742,-0.10429,0.05778,-0.100347,-0.100647,0.327447,0.023022,-0.182809,1.98691e-08,-4.56731e-09,0.3,-0.3,-2.34211,-1.81882,0.95863,176.471,-1.68051,1.23797,-13.99,-1.09148,0,185.773,-1.92323,0.000486374,0.000121615,1.28272e-05,0.86,93.1604,-21.0961,886.232
0.08,-0.192335,-0.00766602,0.330352,0.0664505,0.0622742,-0.10429,0.05778,-0.100347,-0.100647,0.327447,0.023022,-0.182809,1.98691e-08,-4.56731e-09,0.3,-0.3,-2.36627,-1.80836,0.979734,176.638,-1.59362,1.26381,-13.99,-1.09148,0,185.773,-1.92323,0.000486374,0.000121615,1.28272e-05,0.86,93.1755,-21.0584,886.08
0.081,-0.192335,-0.00766602,0.330352,0.0664505,0.0622742,-0.10429,0.05778,-0.100347,-0.100647,0.327447,0.023022,-0.182809,1.98691e-08,-4.56731e-09,0.3,-0.3,-2.39044,-1.79789,1.00064,176.805,-1.50769,1.28922,-13.99,-1.09148,0,185.773,-1.92323,0.000486374,0.000121615,1.28272e-05,0.86,93.1916,-21.0199,885.926
0.082,-0.192335,-0.00766602,0.330352,0.0664505,0.0622742,-0.10429,0.05778,-0.100347,-0.100647,0.327447,0.023022,-0.182809,1.98691e-08,-4.56731e-09,0.3,-0.3,-2.41475,-1.78729,1.0214,176.973,-1.42281,1.3142,-13.99,-1.09148,0,185.773,-1.92323,0.000486374,0.000121615,1.28272e-05,0.86,93.2087,-20.9805,885.771
0.083,-0.192335,-0.00766602,0.330352,0.0664505,0.0622742,-0.10429,0.05778,-0.100347,-0.100647,0.327447,0.023022,-0.182809,1.98691e-08,-4.56731e-09,0.3,-0.3,-2.43929,-1.7766,1.04207,177.141,-1.33901,1.33876,-13.99,-1.09148,0,185.773,-1.92323,0.000486374,0.000121615,1.28272e-05,0.86,93.2269,-20.9403,885.613
0.084,-0.192335,-0.00766602,0.330352,0.0664505,0.0622742,-0.10429,0.05778,-0.100347,-0.100647,0.327447,0.023022,-0.182809,1.98691e-08,-4.56731e-09,0.3,-0.3,-2.46408,-1.76581,1.06267,177.309,-1.25633,1.36289,-13.99,-1.09148,0,185.773,-1.92323,0.000486374,0.000121615,1.28272e-05,0.86,93.2461,-20.8992,885.454
0.085,-0.192335,-0.00766602,0.330352,0.0664505,0.0622742,-0.10429,0.05778,-0.100347,-0.100647,0.327447,0.023022,-0.182809,1.98691e-08,-4.56731e-09,0.3,-0.3,-2.4891,-1.75488,1.08323,177.477,-1.17478,1.38659,-13.99,-1.09148,0,185.773,-1.92323,0.000486374,0.000121615,1.28272e-05,0.86,93.2664,-20.8572,885.294
0.086,-0.192335,-0.00766602,0.330352,0.0664505,0.0622742,-0.10429,0.05778,-0.100347,-0.100647,0.327447,0.023022,-0.182809,1.98691e-08,-4.56731e-09,0.3,-0.3,-2.51439,-1.74375,1.10376,177.645,-1.09437,1.40986,-13.99,-1.09148,0,185.773,-1.92323,0.000486374,0.000121615,1.28272e-05,0.86,93.2878,-20.8144,885.131
0.087,-0.192335,-0.00766602,0.330352,0.0664505,0.0622742,-0.10429,0.05778,-0.100347,-0.100647,0.327447,0.023022,-0.182809,1.98691e-08,-4.56731e-09,0.3,-0.3,-2.53999,-1.73237,1.12426,177.813,-1.01507,1.4327,-13.99,-1.09148,0,185.773,-1.92323,0.000486374,0.000121615,1.28272e-05,0.86,93.3102,-20.7708,884.968
0.088,-0.192335,-0.00766602,0.330352,0.0664505,0.0622742,-0.10429,0.05778,-0.100347,-0.100647,0.327447,0.023022,-0.182809,1.98691e-08,-4.56731e-09,0.3,-0.3,-2.56613,-1.72068,1.14473,177.982,-0.936849,1.4551,-13.99,-1.09148,0,185.773,-1.92323,0.000486374,0.000121615,1.28272e-05,0.86,93.3337,-20.7263,884.802
0.089,-0.192335,-0.00766602,0.330352,0.0664505,0.0622742,-0.10429,0.05778,-0.100347,-0.100647,0.327447,0.023022,-0.182809,1.98691e-08,-4.56731e-09,0.3,-0.3,-2.59276,-1.70897,1.16521,178.151,-0.859664,1.47706,-13.99,-1.09148,0,185.773,-1.92323,0.000486374,0.000121615,1.28272e-05,0.86,93.3583,-20.6809,884.635
0.09,-0.192335,-0.00766602,0.330352,0.0664505,0.0622742,-0.10429,0.05778,-0.100347,-0.100647,0.327447,0.023022,-0.182809,1.98691e-08,-4.56731e-09,0.3,-0.3,-2.6195,-1.69715,1.18567,178.32,-0.783451,1.49857,-13.99,-1.09148,0,185.773,-1.92323,0.000486374,0.000121615,1.28272e-05,0.86,93.3841,-20.6346,884.467
0.091,-0.192335,-0.00766602,0.330352,0.0664505,0.0622742,-0.10429,0.05778,-0.100347,-0.100647,0.327447,0.023022,-0.182809,1.98691e-08,-4.56731e-09,0.3,-0.3,-2.64579,-1.68589,1.206,178.49,-0.708182,1.51967,-13.99,-1.09148,0,185.773,-1.92323,0.000486374,0.000121615,1.28272e-05,0.86,93.4109,-20.5875,884.297
0.092,-0.192335,-0.00766602,0.330352,0.0664505,0.0622742,-0.10429,0.05778,-0.100347,-0.100647,0.327447,0.023022,-0.182809,1.98691e-08,-4.56731e-09,0.3,-0.3,-2.67248,-1.67466,1.22629,178.66,-0.633833,1.54031,-13.99,-1.09148,0,185.773,-1.92323,0.000486374,0.000121615,1.28272e-05,0.86,93.439,-20.5396,884.126
0.093,-0.192335,-0.00766602,0.330352,0.0664505,0.0622742,-0.10429,0.05778,-0.100347,-0.100647,0.327447,0.023022,-0.182809,1.98691e-08,-4.56731e-09,0.3,-0.3,-2.69928,-1.6632,1.24647,178.831,-0.560331,1.56052,-13.99,-1.09148,0,185.773,-1.92323,0.000486374,0.000121615,1.28272e-05,0.86,93.4682,-20.4908,883.953
0.094,-0.192335,-0.00766602,0.330352,0.0664505,0.0622742,-0.10429,0.05778,-0.100347,-0.100647,0.327447,0.023022,-0.182809,1.98691e-08,-4.56731e-09,0.3,-0.3,-2.72623,-1.65163,1.26657,179.003,-0.487618,1.58029,-13.99,-1.09148,0,185.773,-1.92323,0.000486374,0.000121615,1.28272e-05,0.86,93.4986,-20.4412,883.779
0.095,-0.192335,-0.00766602,0.330352,0.0664505,0.0622742,-0.10429,0.05778,-0.100347,-0.100647,0.327447,0.023022,-0.182809,1.98691e-08,-4.56731e-09,0.3,-0.3,-2.75332,-1.63993,1.28657,179.175,-0.415628,1.59961,-13.99,-1.09148,0,185.773,-1.92323,0.000486374,0.000121615,1.28272e-05,0.86,93.5303,-20.3907,883.603
0.096,-0.192335,-0.00766602,0.330352,0.0664505,0.0622742,-0.10429,0.05778,-0.100347,-0.100647,0.327447,0.023022,-0.182809,1.98691e-08,-4.56731e-09,0.3,-0.3,-2.78055,-1.62809,1.30645,179.349,-0.34429,1.61847,-13.99,-1.09148,0,185.773,-1.92323,0.000486374,0.000121615,1.28272e-05,0.86,93.5631,-20.3393,883.427
0.097,-0.192335,-0.00766602,0.330352,0.0664505,0.0622742,-0.10429,0.05778,-0.100347,-0.100647,0.327447,0.023022,-0.182809,1.98691e-08,-4.56731e-09,0.3,-0.3,-2.80793,-1.61608,1.32619,179.523,-0.27353,1.63687,-13.99,-1.09148,0,185.773,-1.92323,0.000486374,0.000121615,1.28272e-05,0.86,93.5972,-20.287,883.248
0.098,-0.192335,-0.00766602,0.330352,0.0664505,0.0622742,-0.10429,0.05778,-0.100347,-0.100647,0.327447,0.023022,-0.182809,1.98691e-08,-4.56731e-09,0.3,-0.3,-2.83553,-1.60388,1.34578,179.698,-0.203272,1.65481,-13.99,-1.09148,0,185.773,-1.92323,0.000486374,0.000121615,1.28272e-05,0.86,93.6325,-20.2339,883.069
0.099,-0.192335,-0.00766602,0.330352,0.0664505,0.0622742,-0.10429,0.05778,-0.100347,-0.100647,0.327447,0.023022,-0.182809,1.98691e-08,-4.56731e-09,0.3,-0.3,-2.86363,-1.59149,1.36519,179.874,-0.133436,1.67227,-13.99,-1.09148,0,185.773,-1.92323,0.000486374,0.000121615,1.28272e-05,0.86,93.6691,-20.1799,882.888
0.1,-0.192335,-0.00766602,0.330352,0.0664505,0.0622742,-0.10429,0.05778,-0.100347,-0.100647,0.327447,0.023022,-0.182809,1.98691e-08,-4.56731e-09,0.3,-0.3,-2.89129,-1.5797,1.38447,180.051,-0.0639583,1.68925,-13.99,-1.09148,0,185.773,-1.92323,0.000486374,0.000121615,1.28272e-05,0.86,93.7069,-20.1251,882.707
0.101,-0.192335,-0.00766602,0.330352,0.0664505,0.0622742,-0.10429,0.05778,-0.100347,-0.100647,0.327447,0.023022,-0.182809,1.98691e-08,-4.56731e-09,0.3,-0.3,-2.91889,-1.56775,1.4035,180.229,0.00523053,1.70575,-13.99,-1.09148,0,185.773,-1.92323,0.000486374,0.000121615,1.28272e-05,0.86,93.746,-20.0694,882.524
0.102,-0.192335,-0.00766602,0.330352,0.0664505,0.0622742,-0.10429,0.05778,-0.100347,-0.100647,0.327447,0.023022,-0.182809,1.98691e-08,-4.56731e-09,0.3,-0.3,-2.94665,-1.55555,1.42228,180.408,0.0741929,1.72177,-13.99,-1.09148,0,185.773,-1.92323,0.000486374,0.000121615,1.28272e-05,0.86,93.7864,-20.0128,882.339
0.103,-0.192335,-0.00766602,0.330352,0.0664505,0.0622742,-0.10429,0.05778,-0.100347,-0.100647,0.327447,0.023022,-0.182809,1.98691e-08,-4.56731e-09,0.3,-0.3,-2.97483,-1.54319,1.44083,180.588,0.142982,1.7373,-13.99,-1.09148,0,185.773,-1.92323,0.000486374,0.000121615,1.28272e-05,0.86,93.8281,-19.9553,882.154
0.104,-0.192335,-0.00766602,0.330352,0.0664505,0.0622742,-0.10429,0.05778,-0.100347,-0.100647,0.327447,0.023022,-0.182809,1.98691e-08,-4.56731e-09,0.3,-0.3,-3.00257,-1.53143,1.45919,180.77,0.21164,1.75232,-13.99,-1.09148,0,185.773,-1.92323,0.000486374,0.000121615,1.28272e-05,0.86,93.871,-19.897,881.968
0.105,-0.192335,-0.00766602,0.330352,0.0664505,0.0622742,-0.10429,0.05778,-0.100347,-0.100647,0.327447,0.023022,-0.182809,1.98691e-08,-4.56731e-09,0.3,-0.3,-3.03019,-1.51953,1.47726,180.952,0.280215,1.76683,-13.99,-1.09148,0,185.773,-1.92323,0.000486374,0.000121615,1.28272e-05,0.86,93.9153,-19.8378,881.781
0.106,-0.192335,-0.00766602,0.330352,0.0664505,0.0622742,-0.10429,0.05778,-0.100347,-0.100647,0.327447,0.023022,-0.182809,1.98691e-08,-4.56731e-09,0.3,-0.3,-3.05793,-1.50739,1.49504,181.135,0.348749,1.78085,-13.99,-1.09148,0,185.773,-1.92323,0.000486374,0.000121615,1.28272e-05,0.86,93.9608,-19.7777,881.592
0.107,-0.192335,-0.00766602,0.330352,0.0664505,0.0622742,-0.10429,0.05778,-0.100347,-0.100647,0.327447,0.023022,-0.182809,1.98691e-08,-4.56731e-09,0.3,-0.3,-3.08601,-1.4951,1.51255,181.319,0.417269,1.79434,-13.99,-1.09148,0,185.773,-1.92323,0.000486374,0.000121615,1.28272e-05,0.86,94.0077,-19.7167,881.403
0.108,-0.192335,-0.00766602,0.330352,0.0664505,0.0622742,-0.10429,0.05778,-0.100347,-0.100647,0.327447,0.023022,-0.182809,1.98691e-08,-4.56731e-09,0.3,-0.3,-3.11374,-1.48355,1.52984,181.504,0.485792,1.8073,-13.99,-1.09148,0,185.773,-1.92323,0.000486374,0.000121615,1.28272e-05,0.86,94.0558,-19.6549,881.213
0.109,-0.192335,-0.00766602,0.330352,0.0664505,0.0622742,-0.10429,0.05778,-0.100347,-0.100647,0.327447,0.023022,-0.182809,1.98691e-08,-4.56731e-09,0.3,-0.3,-3.14125,-1.4719,1.54679,181.69,0.554342,1.81973,-13.99,-1.09148,0,185.773,-1.92323,0.000486374,0.000121615,1.28272e-05,0.86,94.1053,-19.5922,881.022
0.11,-0.192335,-0.00766602,0.330352,0.0664505,0.0622742,-0.10429,0.05778,-0.100347,-0.100647,0.327447,0.023022,-0.182809,1.98691e-08,-4.56731e-09,0.3,-0.3,-3.16878,-1.46003,1.56342,181.877,0.622937,1.83164,-13.99,-1.09148,0,185.773,-1.92323,0.000486374,0.000121615,1.28272e-05,0.86,94.1561,-19.5287,880.83
0.111,-0.192335,-0.00766602,0.330352,0.0664505,0.0622742,-0.10429,0.05778,-0.100347,-0.100647,0.327447,0.023022,-0.182809,1.98691e-08,-4.56731e-09,0.3,-0.3,-3.19633,-1.44805,1.57978,182.065,0.691576,1.84301,-13.99,-1.09148,0,185.773,-1.92323,0.000486374,0.000121615,1.28272e-05,0.86,94.2081,-19.4642,880.637
0.112,-0.192335,-0.00766602,0.330352,0.0664505,0.0622742,-0.10429,0.05778,-0.100347,-0.100647,0.327447,0.023022,-0.182809,1.98691e-08,-4.56731e-09,0.3,-0.3,-3.22397,-1.43593,1.59584,182.253,0.760262,1.85382,-13.99,-1.09148,0,185.773,-1.92323,0.000486374,0.000121615,1.28272e-05,0.86,94.2615,-19.3989,880.443
0.113,-0.192335,-0.00766602,0.330352,0.0664505,0.0622742,-0.10429,0.05778,-0.100347,-0.100647,0.327447,0.023022,-0.182809,1.98691e-08,-4.56731e-09,0.3,-0.3,-3.25199,-1.42372,1.61161,182.442,0.829003,1.86407,-13.99,-1.09148,0,185.773,-1.92323,0.000486374,0.000121615,1.28272e-05,0.86,94.3162,-19.3328,880.249
0.114,-0.192335,-0.00766602,0.330352,0.0664505,0.0622742,-0.10429,0.05778,-0.100347,-0.100647,0.327447,0.023022,-0.182809,1.98691e-08,-4.56731e-09,0.3,-0.3,-3.27946,-1.41194,1.62713,182.632,0.897795,1.87375,-13.99,-1.09148,0,185.773,-1.92323,0.000486374,0.000121615,1.28272e-05,0.86,94.3722,-19.2658,880.054
0.115,-0.192335,-0.00766602,0.330352,0.0664505,0.0622742,-0.10429,0.05778,-0.100347,-0.100647,0.327447,0.023022,-0.182809,1.98691e-08,-4.56731e-09,0.3,-0.3,-3.30689,-1.40003,1.6423,182.823,0.966637,1.88285,-13.99,-1.09148,0,185.773,-1.92323,0.000486374,0.000121615,1.28272e-05,0.86,94.4295,-19.1979,879.858
0.116,-0.192335,-0.00766602,0.330352,0.0664505,0.0622742,-0.10429,0.05778,-0.100347,-0.100647,0.327447,0.023022,-0.182809,1.98691e-08,-4.56731e-09,0.3,-0.3,-3.33456,-1.38799,1.65714,183.014,1.03552,1.89138,-13.99,-1.09148,0,185.773,-1.92323,0.000486374,0.000121615,1.28272e-05,0.86,94.4881,-19.1293,879.662
0.117,-0.192335,-0.00766602,0.330352,0.0664505,0.0622742,-0.10429,0.05778,-0.100347,-0.100647,0.327447,0.023022,-0.182809,1.98691e-08,-4.56731e-09,0.3,-0.3,-3.36172,-1.37654,1.67171,183.205,1.1044,1.89931,-13.99,-1.09148,0,185.773,-1.92323,0.000486374,0.000121615,1.28272e-05,0.86,94.5479,-19.0597,879.465
0.118,-0.192335,-0.00766602,0.330352,0.0664505,0.0622742,-0.10429,0.05778,-0.100347,-0.100647,0.327447,0.023022,-0.182809,1.98691e-08,-4.56731e-09,0.3,-0.3,-3.38876,-1.36495,1.68591,183.397,1.17326,1.90664,-13.99,-1.09148,0,185.773,-1.92323,0.000486374,0.000121615,1.28272e-05,0.86,94.6091,-18.9894,879.267
0.119,-0.192335,-0.00766602,0.330352,0.0664505,0.0622742,-0.10429,0.05778,-0.100347,-0.100647,0.327447,0.023022,-0.182809,1.98691e-08,-4.56731e-09,0.3,-0.3,-3.41588,-1.35315,1.69977,183.59,1.24209,1.91337,-13.99,-1.09148,0,185.773,-1.92323,0.000486374,0.000121615,1.28272e-05,0.86,94.6716,-18.9182,879.07
0.12,-0.192335,-0.00766602,0.330352,0.0664505,0.0622742,-0.10429,0.05778,-0.100347,-0.100647,0.327447,0.023022,-0.182809,1.98691e-08,-4.56731e-09,0.3,-0.3,-3.44337,-1.3412,1.7133,183.782,1.31085,1.91949,-13.99,-1.09148,0,185.773,-1.92323,0.000486374,0.000121615,1.28272e-05,0.86,94.7353,-18.8462,878.871
0.121,-0.192335,-0.00766602,0.330352,0.0664505,0.0622742,-0.10429,0.05778,-0.100347,-0.100647,0.327447,0.023022,-0.182809,1.98691e-08,-4.56731e-09,0.3,-0.3,-3.47038,-1.32992,1.72673,183.85,1.33565,1.93926,-13.99,-1.09148,0,185.773,-1.92323,0.000486374,0.000121615,1.28272e-05,0.86,94.7856,-18.7763,878.677
0.122,-0.192335,-0.00766602,0.330352,0.0664505,0.0622742,-0.10429,0.05778,-0.100347,-0.100647,0.327447,0.023022,-0.182809,1.98691e-08,-4.56731e-09,0.3,-0.3,-3.51435,-1.32534,1.74272,183.85,1.33536,1.95938,-13.99,-1.09148,0,185.773,-1.92323,0.000486374,0.000121615,1.28272e-05,0.86,94.8265,-18.7062,878.488
0.123,-0.192335,-0.00766602,0.330352,0.0664505,0.0622742,-0.10429,0.05778,-0.100347,-0.100647,0.327447,0.023022,-0.182809,1.98691e-08,-4.56731e-09,0.3,-0.3,-3.57139,-1.30752,1.76708,183.842,1.33136,1.97943,-13.99,-1.09148,0,185.773,-1.92323,0.000486374,0.000121615,1.28272e-05,0.86,94.8631,-18.6348,878.303
0.124,-0.192335,-0.00766602,0.330352,0.0664505,0.0622742,-0.10429,0.05778,-0.100347,-0.100647,0.327447,0.023022,-0.182809,1.98691e-08,-4.56731e-09,0.3,-0.3,-3.6424,-1.2798,1.79769,183.831,1.32582,1.99988,-13.99,-1.09148,0,185.773,-1.92323,0.000486374,0.000121615,1.28272e-05,0.86,94.8961,-18.5621,878.122
0.125,-0.192335,-0.00766602,0.330352,0.0664505,0.0622742,-0.10429,0.05778,-0.100347,-0.100647,0.327447,0.023022,-0.182809,1.98691e-08,-4.56731e-09,0.3,-0.3,-3.72713,-1.24538,1.83339,183.819,1.31951,2.02014,-13.99,-1.09148,0,185.773,-1.92323,0.000486374,0.000121615,1.28272e-05,0.86,94.9258,-18.4883,877.943
0.126,-0.192335,-0.00766602,0.330352,0.0664505,0.0622742,-0.10429,0.05778,-0.100347,-0.100647,0.327447,0.023022,-0.182809,1.98691e-08,-4.56731e-09,0.3,-0.3,-3.82465,-1.20621,1.87279,183.806,1.31304,2.03989,-13.99,-1.09148,0,185.773,-1.92323,0.000486374,0.000121615,1.28272e-05,0.86,94.9524,-18.4135,877.765
0.127,-0.192335,-0.00766602,0.330352,0.0664505,0.0622742,-0.10429,0.05778,-0.100347,-0.100647,0.327447,0.023022,-0.182809,1.98691e-08,-4.56731e-09,0.3,-0.3,-3.93472,-1.16383,1.91464,183.794,1.3067,2.05912,-13.99,-1.09148,0,185.773,-1.92323,0.000486374,0.000121615,1.28272e-05,0.86,94.9759,-18.3378,877.589
0.128,-0.192335,-0.00766602,0.330352,0.0664505,0.0622742,-0.10429,0.05778,-0.100347,-0.100647,0.327447,0.023022,-0.182809,1.98691e-08,-4.56731e-09,0.3,-0.3,-4.05694,-1.11958,1.95836,183.782,1.30055,2.07786,-13.99,-1.09148,0,185.773,-1.92323,0.000486374,0.000121615,1.28272e-05,0.86,94.9964,-18.2613,877.413
0.129,-0.192335,-0.00766602,0.330352,0.0664505,0.0622742,-0.10429,0.05778,-0.100347,-0.100647,0.327447,0.023022,-0.182809,1.98691e-08,-4.56731e-09,0.3,-0.3,-4.19046,-1.07453,2.0038,183.77,1.29456,2.09611,-13.99,-1.09148,0,185.773,-1.92323,0.000486374,0.000121615,1.28272e-05,0.86,95.014,-18.1841,877.237
0.13,-0.192335,-0.00766602,0.330352,0.0664505,0.0622742,-0.10429,0.05778,-0.100347,-0.100647,0.327447,0.023022,-0.182809,1.98691e-08,-4.56731e-09,0.3,-0.3,-4.33435,-1.02956,2.05085,183.759,1.28879,2.1139,-13.99,-1.09148,0,185.773,-1.92323,0.000486374,0.000121615,1.28272e-05,0.86,95.0288,-18.1062,877.063
0.131,-0.192335,-0.00766602,0.330352,0.0664505,0.0622742,-0.10429,0.05778,-0.100347,-0.100647,0.327447,0.023022,-0.182809,1.98691e-08,-4.56731e-09,0.3,-0.3,-4.48785,-0.985495,2.09941,183.748,1.28333,2.13127,-13.99,-1.09148,0,185.773,-1.92323,0.000486374,0.000121615,1.28272e-05,0.86,95.0408,-18.0277,876.889
0.132,-0.192335,-0.00766602,0.330352,0.0664505,0.0622742,-0.10429,0.05778,-0.100347,-0.100647,0.327447,0.023022,-0.182809,1.98691e-08,-4.56731e-09,0.3,-0.3,-4.65059,-0.943294,2.14931,183.738,1.27807,2.14818,-13.99,-1.09148,0,185.773,-1.92323,0.000486374,0.000121615,1.28272e-05,0.86,95.05,-17.9486,876.716
0.133,-0.192335,-0.00766602,0.330352,0.0664505,0.0622742,-0.10429,0.05778,-0.100347,-0.100647,0.327447,0.023022,-0.182809,1.98691e-08,-4.56731e-09,0.3,-0.3,-4.82197,-0.903477,2.20036,183.728,1.27316,2.16463,-13.99,-1.09148,0,185.773,-1.92323,0.000486374,0.000121615,1.28272e-05,0.86,95.0565,-17.8691,876.545
0.134,-0.192335,-0.00766602,0.330352,0.0664505,0.0622742,-0.10429,0.05778,-0.100347,-0.100647,0.327447,0.023022,-0.182809,1.98691e-08,-4.56731e-09,0.3,-0.3,-5.00187,-0.866843,2.25242,183.719,1.26855,2.18048,-13.99,-1.09148,0,185.773,-1.92323,0.000486374,0.000121615,1.28272e-05,0.86,95.0604,-17.7892,876.374
0.135,-0.192335,-0.00766602,0.330352,0.0664505,0.0622742,-0.10429,0.05778,-0.100347,-0.100647,0.327447,0.023022,-0.182809,1.98691e-08,-4.56731e-09,0.3,-0.3,-5.19003,-0.833858,2.30521,183.711,1.26425,2.19576,-13.99,-1.09148,0,185.773,-1.92323,0.000486374,0.000121615,1.28272e-05,0.86,95.0616,-17.7088,876.204
0.136,-0.192335,-0.00766602,0.330352,0.0664505,0.0622742,-0.10429,0.05778,-0.100347,-0.100647,0.327447,0.023022,-0.182809,1.98691e-08,-4.56731e-09,0.3,-0.3,-5.3865,-0.805142,2.35842,183.703,1.26014,2.21037,-13.99,-1.09148,0,185.773,-1.92323,0.000486374,0.000121615,1.28272e-05,0.86,95.0603,-17.6281,876.034
0.137,-0.192335,-0.00766602,0.330352,0.0664505,0.0622742,-0.10429,0.05778,-0.100347,-0.100647,0.327447,0.023022,-0.182809,1.98691e-08,-4.56731e-09,0.3,-0.3,-5.59125,-0.780891,2.41172,183.695,1.25627,2.22427,-13.99,-1.09148,0,185.773,-1.92323,0.000486374,0.000121615,1.28272e-05,0.86,95.0563,-17.5471,875.865
0.138,-0.192335,-0.00766602,0.330352,0.0664505,0.0622742,-0.10429,0.05778,-0.100347,-0.100647,0.327447,0.023022,-0.182809,1.98691e-08,-4.56731e-09,0.3,-0.3,-5.80451,-0.761345,2.46487,183.688,1.25267,2.2374,-13.99,-1.09148,0,185.773,-1.92323,0.000486374,0.000121615,1.28272e-05,0.86,95.0498,-17.4658,875.696
0.139,-0.192335,-0.00766602,0.330352,0.0664505,0.0622742,-0.10429,0.05778,-0.100347,-0.100647,0.327447,0.023022,-0.182809,1.98691e-08,-4.56731e-09,0.3,-0.3,-6.02651,-0.746604,2.51763,183.682,1.24934,2.24972,-13.99,-1.09148,0,185.773,-1.92323,0.000486374,0.000121615,1.28272e-05,0.86,95.0407,-17.3842,875.527
0.14,-0.192335,-0.00766602,0.330352,0.0664505,0.0622742,-0.10429,0.05778,-0.100347,-0.100647,0.327447,0.023022,-0.182809,1.98691e-08,-4.56731e-09,0.3,-0.3,-6.25751,-0.736649,2.56985,183.676,1.24627,2.26118,-13.99,-1.09148,0,185.773,-1.92323,0.000486374,0.000121615,1.28272e-05,0.86,95.0291,-17.3024,875.359
0.141,-0.192335,-0.00766602,0.330352,0.0664505,0.0622742,-0.10429,0.05778,-0.100347,-0.100647,0.327447,0.023022,-0.182809,1.98691e-08,-4.56731e-09,0.3,-0.3,-6.49771,-0.731364,2.62141,183.67,1.24345,2.27174,-13.99,-1.09148,0,185.773,-1.92323,0.000486374,0.000121615,1.28272e-05,0.86,95.015,-17.2202,875.191
0.142,-0.192335,-0.00766602,0.330352,0.0664505,0.0622742,-0.10429,0.05778,-0.100347,-0.100647,0.327447,0.023022,-0.182809,1.98691e-08,-4.56731e-09,0.3,-0.3,-6.74722,-0.730511,2.67225,183.666,1.24091,2.28135,-13.99,-1.09148,0,185.773,-1.92323,0.000486374,0.000121615,1.28272e-05,0.86,94.9983,-17.1377,875.023
0.143,-0.192335,-0.00766602,0.330352,0.0664505,0.0622742,-0.10429,0.05778,-0.100347,-0.100647,0.327447,0.023022,-0.182809,1.98691e-08,-4.56731e-09,0.3,-0.3,-7.00619,-0.733978,2.72236,183.661,1.23851,2.28996,-13.99,-1.09148,0,185.773,-1.92323,0.000486374,0.000121615,1.28272e-05,0.86,94.9789,-17.055,874.857
0.144,-0.192335,-0.00766602,0.330352,0.0664505,0.0622742,-0.10429,0.05778,-0.100347,-0.100647,0.327447,0.023022,-0.182809,1.98691e-08,-4.56731e-09,0.3,-0.3,-7.27442,-0.741305,2.77175,183.656,1.23614,2.29751,-13.99,-1.09148,0,185.773,-1.92323,0.000486374,0.000121615,1.28272e-05,0.86,94.957,-16.9719,874.69
0.145,-0.192335,-0.00766602,0.330352,0.0664505,0.0622742,-0.10429,0.05778,-0.100347,-0.100647,0.327447,0.023022,-0.182809,1.98691e-08,-4.56731e-09,0.3,-0.3,-7.55129,-0.75194,2.82057,183.652,1.23385,2.30449,-13.99,-1.09148,0,185.773,-1.92323,0.000486374,0.000121615,1.28272e-05,0.86,94.9326,-16.8884,874.523
0.146,-0.192335,-0.00766602,0.330352,0.0664505,0.0622742,-0.10429,0.05778,-0.100347,-0.100647,0.327447,0.023022,-0.182809,1.98691e-08,-4.56731e-09,0.3,-0.3,-7.83561,-0.764703,2.8683,183.648,1.23188,2.31111,-13.99,-1.09148,0,185.773,-1.92323,0.000486374,0.000121615,1.28272e-05,0.86,94.9062,-16.8044,874.358
0.147,-0.192335,-0.00766602,0.330352,0.0664505,0.0622742,-0.10429,0.05778,-0.100347,-0.100647,0.327447,0.023022,-0.182809,1.98691e-08,-4.56731e-09,0.3,-0.3,-8.12601,-0.778805,2.91469,183.644,1.23007,2.31734,-13.99,-1.09148,0,185.773,-1.92323,0.000486374,0.000121615,1.28272e-05,0.86,94.8777,-16.7199,874.193
0.148,-0.192335,-0.00766602,0.330352,0.0664505,0.0622742,-0.10429,0.05778,-0.100347,-0.100647,0.327447,0.023022,-0.182809,1.98691e-08,-4.56731e-09,0.3,-0.3,-8.42072,-0.793484,2.95989,183.641,1.22846,2.32319,-13.99,-1.09148,0,185.773,-1.92323,0.000486374,0.000121615,1.28272e-05,0.86,94.8475,-16.6348,874.029
0.149,-0.192335,-0.00766602,0.330352,0.0664505,0.0622742,-0.10429,0.05778,-0.100347,-0.100647,0.327447,0.023022,-0.182809,1.98691e-08,-4.56731e-09,0.3,-0.3,-8.71795,-0.80816,3.00398,183.639,1.22704,2.32869,-13.99,-1.09148,0,185.773,-1.92323,0.000486374,0.000121615,1.28272e-05,0.86,94.8156,-16.5489,873.867
0.15,-0.192335,-0.00766602,0.330352,0.0664505,0.0622742,-0.10429,0.05778,-0.100347,-0.100647,0.327447,0.023022,-0.182809,1.98691e-08,-4.56731e-09,0.3,-0.3,-9.01599,-0.822353,3.04698,183.636,1.22581,2.33382,-13.99,-1.09148,0,185.773,-1.92323,0.000486374,0.000121615,1.28272e-05,0.86,94.7823,-16.4623,873.705
0.151,-0.192335,-0.00766602,0.330352,0.0664505,0.0622742,-0.10429,0.05778,-0.100347,-0.100647,0.327447,0.023022,-0.182809,1.98691e-08,-4.56731e-09,0.3,-0.3,-9.31324,-0.835678,3.08888,183.634,1.22478,2.33861,-13.99,-1.09148,0,185.773,-1.92323,0.000486374,0.000121615,1.28272e-05,0.86,94.7476,-16.3749,873.545
0.152,-0.192335,-0.00766602,0.330352,0.0664505,0.0622742,-0.10429,0.05778,-0.100347,-0.100647,0.327447,0.023022,-0.182809,1.98691e-08,-4.56731e-09,0.3,-0.3,-9.60829,-0.847837,3.12963,183.633,1.22395,2.34304,-13.99,-1.09148,0,185.773,-1.92323,0.000486374,0.000121615,1.28272e-05,0.86,94.7118,-16.2867,873.385
0.153,-0.192335,-0.00766602,0.330352,0.0664505,0.0622742,-0.10429,0.05778,-0.100347,-0.100647,0.327447,0.023022,-0.182809,1.98691e-08,-4.56731e-09,0.3,-0.3,-9.89987,-0.858598,3.16918,183.632,1.22332,2.34712,-13.99,-1.09148,0,185.773,-1.92323,0.000486374,0.000121615,1.28272e-05,0.86,94.6748,-16.1977,873.227
0.154,-0.192335,-0.00766602,0.330352,0.0664505,0.0622742,-0.10429,0.05778,-0.100347,-0.100647,0.327447,0.023022,-0.182809,1.98691e-08,-4.56731e-09,0.3,-0.3,-10.1869,-0.867787,3.20741,183.631,1.22287,2.35083,-13.99,-1.09148,0,185.773,-1.92323,0.000486374,0.000121615,1.28272e-05,0.86,94.637,-16.1078,873.071
0.155,-0.192335,-0.00766602,0.330352,0.0664505,0.0622742,-0.10429,0.05778,-0.100347,-0.100647,0.327447,0.023022,-0.182809,1.98691e-08,-4.56731e-09,0.3,-0.3,-10.4685,-0.875264,3.24425,183.63,1.22262,2.35415,-13.99,-1.09148,0,185.773,-1.92323,0.000486374,0.000121615,1.28272e-05,0.86,94.5983,-16.017,872.915
0.156,-0.192335,-0.00766602,0.330352,0.0664505,0.0622742,-0.10429,0.05778,-0.100347,-0.100647,0.327447,0.023022,-0.182809,1.98691e-08,-4.56731e-09,0.3,-0.3,-10.7439,-0.880915,3.27957,183.63,1.22256,2.35707,-13.99,-1.09148,0,185.773,-1.92323,0.000486374,0.000121615,1.28272e-05,0.86,94.5589,-15.9253,872.76
0.157,-0.192335,-0.00766602,0.330352,0.0664505,0.0622742,-0.10429,0.05778,-0.100347,-0.100647,0.327447,0.023022,-0.182809,1.98691e-08,-4.56731e-09,0.3,-0.3,-11.0124,-0.884631,3.31329,183.631,1.22269,2.35957,-13.99,-1.09148,0,185.773,-1.92323,0.000486374,0.000121615,1.28272e-05,0.86,94.5187,-15.8327,872.607
0.158,-0.192335,-0.00766602,0.330352,0.0664505,0.0622742,-0.10429,0.05778,-0.100347,-0.100647,0.327447,0.023022,-0.182809,1.98691e-08,-4.56731e-09,0.3,-0.3,-11.2737,-0.886339,3.34529,183.631,1.22299,2.36162,-13.99,-1.09148,0,185.773,-1.92323,0.000486374,0.000121615,1.28272e-05,0.86,94.4779,-15.7393,872.455
0.159,-0.192335,-0.00766602,0.330352,0.0664505,0.0622742,-0.10429,0.05778,-0.100347,-0.100647,0.327447,0.023022,-0.182809,1.98691e-08,-4.56731e-09,0.3,-0.3,-11.5273,-0.885907,3.37549,183.632,1.22348,2.3632,-13.99,-1.09148,0,185.773,-1.92323,0.000486374,0.000121615,1.28272e-05,0.86,94.4366,-15.6449,872.304
0.16,-0.192335,-0.00766602,0.330352,0.0664505,0.0622742,-0.10429,0.05778,-0.100347,-0.100647,0.327447,0.023022,-0.182809,1.98691e-08,-4.56731e-09,0.3,-0.3,-11.7729,-0.883253,3.40379,183.634,1.22413,2.36427,-13.99,-1.09148,0,185.773,-1.92323,0.000486374,0.000121615,1.28272e-05,0.86,94.3946,-15.5496,872.154
0.161,-0.192335,-0.00766602,0.330352,0.0664505,0.0622742,-0.10429,0.05778,-0.100347,-0.100647,0.327447,0.023022,-0.182809,1.98691e-08,-4.56731e-09,0.3,-0.3,-12.0105,-0.878249,3.43011,183.636,1.22495,2.36481,-13.99,-1.09148,0,185.773,-1.92323,0.000486374,0.000121615,1.28272e-05,0.86,94.3521,-15.4533,872.006
0.162,-0.192335,-0.00766602,0.330352,0.0664505,0.0622742,-0.10429,0.05778,-0.100347,-0.100647,0.327447,0.023022,-0.182809,1.98691e-08,-4.56731e-09,0.3,-0.3,-12.2399,-0.870761,3.45436,183.638,1.22592,2.36477,-13.99,-1.09148,0,185.773,-1.92323,0.000486374,0.000121615,1.28272e-05,0.86,94.3091,-15.3561,871.858
0.163,-0.192335,-0.00766602,0.330352,0.0664505,0.0622742,-0.10429,0.05778,-0.100347,-0.100647,0.327447,0.023022,-0.182809,1.98691e-08,-4.56731e-09,0.3,-0.3,-12.4611,-0.860691,3.47647,183.64,1.22705,2.36414,-13.99,-1.09148,0,185.773,-1.92323,0.000486374,0.000121615,1.28272e-05,0.86,94.2656,-15.258,871.712
0.164,-0.192335,-0.00766602,0.330352,0.0664505,0.0622742,-0.10429,0.05778,-0.100347,-0.100647,0.327447,0.023022,-0.182809,1.98691e-08,-4.56731e-09,0.3,-0.3,-12.674,-0.847914,3.49637,183.642,1.2283,2.36286,-13.99,-1.09148,0,185.773,-1.92323,0.000486374,0.000121615,1.28272e-05,0.86,94.2215,-15.1589,871.567
0.165,-0.192335,-0.00766602,0.330352,0.0664505,0.0622742,-0.10429,0.05778,-0.100347,-0.100647,0.327447,0.023022,-0.182809,1.98691e-08,-4.56731e-09,0.3,-0.3,-12.8788,-0.832281,3.51401,183.645,1.22969,2.36091,-13.99,-1.09148,0,185.773,-1.92323,0.000486374,0.000121615,1.28272e-05,0.86,94.1769,-15.0589,871.422
0.166,-0.192335,-0.00766602,0.330352,0.0664505,0.0622742,-0.10429,0.05778,-0.100347,-0.100647,0.327447,0.023022,-0.182809,1.98691e-08,-4.56731e-09,0.3,-0.3,-13.0755,-0.813668,3.52933,183.648,1.23119,2.35825,-13.99,-1.09148,0,185.773,-1.92323,0.000486374,0.000121615,1.28272e-05,0.86,94.1317,-14.9579,871.28
0.167,-0.192335,-0.00766602,0.330352,0.0664505,0.0622742,-0.10429,0.05778,-0.100347,-0.100647,0.327447,0.023022,-0.182809,1.98691e-08,-4.56731e-09,0.3,-0.3,-13.2643,-0.791957,3.54226,183.651,1.23281,2.35485,-13.99,-1.09148,0,185.773,-1.92323,0.000486374,0.000121615,1.28272e-05,0.86,94.0859,-14.856,871.138
0.168,-0.192335,-0.00766602,0.330352,0.0664505,0.0622742,-0.10429,0.05778,-0.100347,-0.100647,0.327447,0.023022,-0.182809,1.98691e-08,-4.56731e-09,0.3,-0.3,-13.4453,-0.767038,3.55276,183.655,1.23453,2.35066,-13.99,-1.09148,0,185.773,-1.92323,0.000486374,0.000121615,1.28272e-05,0.86,94.0396,-14.7531,870.997
0.169,-0.192335,-0.00766602,0.330352,0.0664505,0.0622742,-0.10429,0.05778,-0.100347,-0.100647,0.327447,0.023022,-0.182809,1.98691e-08,-4.56731e-09,0.3,-0.3,-13.6187,-0.738812,3.56077,183.658,1.23635,2.34565,-13.99,-1.09148,0,185.773,-1.92323,0.000486374,0.000121615,1.28272e-05,0.86,93.9926,-14.6493,870.858
0.17,-0.192335,-0.00766602,0.330352,0.0664505,0.0622742,-0.10429,0.05778,-0.100347,-0.100647,0.327447,0.023022,-0.182809,1.98691e-08,-4.56731e-09,0.3,-0.3,-13.7847,-0.707187,3.56623,183.662,1.23825,2.33978,-13.99,-1.09148,0,185.773,-1.92323,0.000486374,0.000121615,1.28272e-05,0.86,93.9449,-14.5444,870.719
0.171,-0.192335,-0.00766602,0.330352,0.0664505,0.0622742,-0.10429,0.05778,-0.100347,-0.100647,0.327447,0.023022,-0.182809,1.98691e-08,-4.56731e-09,0.3,-0.3,-13.9435,-0.672078,3.56909,183.666,1.24024,2.33302,-13.99,-1.09148,0,185.773,-1.92323,0.000486374,0.000121615,1.28272e-05,0.86,93.8966,-14.4386,870.582
0.172,-0.192335,-0.00766602,0.330352,0.0664505,0.0622742,-0.10429,0.05778,-0.100347,-0.100647,0.327447,0.023022,-0.182809,1.98691e-08,-4.56731e-09,0.3,-0.3,-14.0952,-0.633409,3.5693,183.67,1.2423,2.32532,-13.99,-1.09148,0,185.773,-1.92323,0.000486374,0.000121615,1.28272e-05,0.86,93.8475,-14.3319,870.446
0.173,-0.192335,-0.00766602,0.330352,0.0664505,0.0622742,-0.10429,0.05778,-0.100347,-0.100647,0.327447,0.023022,-0.182809,1.98691e-08,-4.56731e-09,0.3,-0.3,-14.2401,-0.591112,3.56681,183.674,1.24442,2.31666,-13.99,-1.09148,0,185.773,-1.92323,0.000486374,0.000121615,1.28272e-05,0.86,93.7977,-14.2241,870.311
0.174,-0.192335,-0.00766602,0.330352,0.0664505,0.0622742,-0.10429,0.05778,-0.100347,-0.100647,0.327447,0.023022,-0.182809,1.98691e-08,-4.56731e-09,0.3,-0.3,-14.3785,-0.545121,3.56155,183.678,1.24661,2.30699,-13.99,-1.09148,0,185.773,-1.92323,0.000486374,0.000121615,1.28272e-05,0.86,93.7471,-14.1154,870.177
0.175,-0.192335,-0.00766602,0.330352,0.0664505,0.0622742,-0.10429,0.05778,-0.100347,-0.100647,0.327447,0.023022,-0.182809,1.98691e-08,-4.56731e-09,0.3,-0.3,-14.5105,-0.495378,3.55347,183.682,1.24884,2.29628,-13.99,-1.09148,0,185.773,-1.92323,0.000486374,0.000121615,1.28272e-05,0.86,93.6957,-14.0056,870.044
0.176,-0.192335,-0.00766602,0.330352,0.0664505,0.0622742,-0.10429,0.05778,-0.100347,-0.100647,0.327447,0.023022,-0.182809,1.98691e-08,-4.56731e-09,0.3,-0.3,-14.6363,-0.441825,3.54251,183.686,1.25113,2.28449,-13.99,-1.09148,0,185.773,-1.92323,0.000486374,0.000121615,1.28272e-05,0.86,93.6434,-13.8949,869.913
0.177,-0.192335,-0.00766602,0.330352,0.0664505,0.0622742,-0.10429,0.05778,-0.100347,-0.100647,0.327447,0.023022,-0.182809,1.98691e-08,-4.56731e-09,0.3,-0.3,-14.7561,-0.384409,3.5286,183.691,1.25346,2.2716,-13.99,-1.09148,0,185.773,-1.92323,0.000486374,0.000121615,1.28272e-05,0.86,93.5903,-13.7832,869.782
0.178,-0.192335,-0.00766602,0.330352,0.0664505,0.0622742,-0.10429,0.05778,-0.100347,-0.100647,0.327447,0.023022,-0.182809,1.98691e-08,-4.56731e-09,0.3,-0.3,-14.8702,-0.323075,3.5117,183.695,1.25583,2.25756,-13.99,-1.09148,0,185.773,-1.92323,0.000486374,0.000121615,1.28272e-05,0.86,93.5363,-13.6705,869.653
0.179,-0.192335,-0.00766602,0.330352,0.0664505,0.0622742,-0.10429,0.05778,-0.100347,-0.100647,0.327447,0.023022,-0.182809,1.98691e-08,-4.56731e-09,0.3,-0.3,-14.9788,-0.257768,3.49173,183.7,1.25824,2.24236,-13.99,-1.09148,0,185.773,-1.92323,0.000486374,0.000121615,1.28272e-05,0.86,93.4814,-13.5568,869.524
0.18,-0.192335,-0.00766602,0.330352,0.0664505,0.0622742,-0.10429,0.05778,-0.100347,-0.100647,0.327447,0.023022,-0.182809,1.98691e-08,-4.56731e-09,0.3,-0.3,-15.0821,-0.188432,3.46863,183.704,1.26068,2.22594,-13.99,-1.09148,0,185.773,-1.92323,0.000486374,0.000121615,1.28272e-05,0.86,93.4255,-13.4421,869.397
0.181,-0.192335,-0.00766602,0.330352,0.0664505,0.0622742,-0.10429,0.05778,-0.100347,-0.100647,0.327447,0.023022,-0.182809,1.98691e-08,-4.56731e-09,0.3,-0.3,-15.1801,-0.115004,3.44235,183.709,1.26316,2.2083,-13.99,-1.09148,0,185.773,-1.92323,0.000486374,0.000121615,1.28272e-05,0.86,93.3687,-13.3264,869.271
0.182,-0.192335,-0.00766602,0.330352,0.0664505,0.0622742,-0.10429,0.05778,-0.100347,-0.100647,0.327447,0.023022,-0.182809,1.98691e-08,-4.56731e-09,0.3,-0.3,-15.2733,-0.0374204,3.41281,183.713,1.26567,2.18939,-13.99,-1.09148,0,185.773,-1.92323,0.000486374,0.000121615,1.28272e-05,0.86,93.3109,-13.2097,869.146
0.183,-0.192335,-0.00766602,0.330352,0.0664505,0.0622742,-0.10429,0.05778,-0.100347,-0.100647,0.327447,0.023022,-0.182809,1.98691e-08,-4.56731e-09,0.3,-0.3,-15.3616,0.0443887,3.37996,183.718,1.26821,2.16919,-13.99,-1.09148,0,185.773,-1.92323,0.000486374,0.000121615,1.28272e-05,0.86,93.2521,-13.0919,869.022
0.184,-0.192335,-0.00766602,0.330352,0.0664505,0.0622742,-0.10429,0.05778,-0.100347,-0.100647,0.327447,0.023022,-0.182809,1.98691e-08,-4.56731e-09,0.3,-0.3,-15.4453,0.130493,3.34373,183.722,1.27079,2.14768,-13.99,-1.09148,0,185.773,-1.92323,0.000486374,0.000121615,1.28272e-05,0.86,93.1923,-12.9732,868.9
0.185,-0.192335,-0.00766602,0.330352,0.0664505,0.0622742,-0.10429,0.05778,-0.100347,-0.100647,0.327447,0.023022,-0.182809,1.98691e-08,-4.56731e-09,0.3,-0.3,-15.5245,0.220969,3.30407,183.727,1.2734,2.12482,-13.99,-1.09148,0,185.773,-1.92323,0.000486374,0.000121615,1.28272e-05,0.86,93.1314,-12.8533,868.778
0.186,-0.192335,-0.00766602,0.330352,0.0664505,0.0622742,-0.10429,0.05778,-0.100347,-0.100647,0.327447,0.023022,-0.182809,1.98691e-08,-4.56731e-09,0.3,-0.3,-15.5994,0.3159,3.2609,183.731,1.27605,2.10059,-13.99,-1.09148,0,185.773,-1.92323,0.000486374,0.000121615,1.28272e-05,0.86,93.0695,-12.7325,868.658
0.187,-0.192335,-0.00766602,0.330352,0.0664505,0.0622742,-0.10429,0.05778,-0.100347,-0.100647,0.327447,0.023022,-0.182809,1.98691e-08,-4.56731e-09,0.3,-0.3,-15.6702,0.415374,3.21418,183.736,1.27874,2.07496,-13.99,-1.09148,0,185.773,-1.92323,0.000486374,0.000121615,1.28272e-05,0.86,93.0065,-12.6106,868.539
0.188,-0.192335,-0.00766602,0.330352,0.0664505,0.0622742,-0.10429,0.05778,-0.100347,-0.100647,0.327447,0.023022,-0.182809,1.98691e-08,-4.56731e-09,0.3,-0.3,-15.7368,0.519487,3.16385,183.741,1.28148,2.04791,-13.99,-1.09148,0,185.773,-1.92323,0.000486374,0.000121615,1.28272e-05,0.86,92.9424,-12.4876,868.42
0.189,-0.192335,-0.00766602,0.330352,0.0664505,0.0622742,-0.10429,0.05778,-0.100347,-0.100647,0.327447,0.023022,-0.182809,1.98691e-08,-4.56731e-09,0.3,-0.3,-15.7995,0.628337,3.10985,183.746,1.28427,2.01942,-13.99,-1.09148,0,185.773,-1.92323,0.000486374,0.000121615,1.28272e-05,0.86,92.8772,-12.3636,868.303
0.19,-0.192335,-0.00766602,0.330352,0.0664505,0.0622742,-0.10429,0.05778,-0.100347,-0.100647,0.327447,0.023022,-0.182809,1.98691e-08,-4.56731e-09,0.3,-0.3,-15.8584,0.74203,3.05212,183.751,1.2871,1.98946,-13.99,-1.09148,0,185.773,-1.92323,0.000486374,0.000121615,1.28272e-05,0.86,92.811,-12.2385,868.188
0.191,-0.192335,-0.00766602,0.330352,0.0664505,0.0622742,-0.10429,0.05778,-0.100347,-0.100647,0.327447,0.023022,-0.182809,1.98691e-08,-4.56731e-09,0.3,-0.3,-15.9135,0.860672,2.99061,183.756,1.28999,1.95801,-13.99,-1.09148,0,185.773,-1.92323,0.000486374,0.000121615,1.28272e-05,0.86,92.7436,-12.1123,868.073
0.192,-0.192335,-0.00766602,0.330352,0.0664505,0.0622742,-0.10429,0.05778,-0.100347,-0.100647,0.327447,0.023022,-0.182809,1.98691e-08,-4.56731e-09,0.3,-0.3,-15.9649,0.984377,2.92527,183.761,1.29295,1.92504,-13.99,-1.09148,0,185.773,-1.92323,0.000486374,0.000121615,1.28272e-05,0.86,92.6752,-11.9851,867.96
0.193,-0.192335,-0.00766602,0.330352,0.0664505,0.0622742,-0.10429,0.05778,-0.100347,-0.100647,0.327447,0.023022,-0.182809,1.98691e-08,-4.56731e-09,0.3,-0.3,-16.0127,1.11326,2.85605,183.766,1.29597,1.89054,-13.99,-1.09148,0,185.773,-1.92323,0.000486374,0.000121615,1.28272e-05,0.86,92.6056,-11.8567,867.848
0.194,-0.192335,-0.00766602,0.330352,0.0664505,0.0622742,-0.10429,0.05778,-0.100347,-0.100647,0.327447,0.023022,-0.182809,1.98691e-08,-4.56731e-09,0.3,-0.3,-16.0569,1.24744,2.78289,183.771,1.29906,1.85448,-13.99,-1.09148,0,185.773,-1.92323,0.000486374,0.000121615,1.28272e-05,0.86,92.5349,-11.7272,867.736
0.195,-0.192335,-0.00766602,0.330352,0.0664505,0.0622742,-0.10429,0.05778,-0.100347,-0.100647,0.327447,0.023022,-0.182809,1.98691e-08,-4.56731e-09,0.3,-0.3,-16.0975,1.38703,2.70575,183.777,1.30222,1.81684,-13.99,-1.09148,0,185.773,-1.92323,0.000486374,0.000121615,1.28272e-05,0.86,92.4631,-11.5966,867.627
0.196,-0.192335,-0.00766602,0.330352,0.0664505,0.0622742,-0.10429,0.05778,-0.100347,-0.100647,0.327447,0.023022,-0.182809,1.98691e-08,-4.56731e-09,0.3,-0.3,-16.1346,1.53216,2.62459,183.782,1.30546,1.7776,-13.99,-1.09148,0,185.773,-1.92323,0.000486374,0.000121615,1.28272e-05,0.86,92.3901,-11.4649,867.518
0.197,-0.192335,-0.00766602,0.330352,0.0664505,0.0622742,-0.10429,0.05778,-0.100347,-0.100647,0.327447,0.023022,-0.182809,1.98691e-08,-4.56731e-09,0.3,-0.3,-16.1682,1.68295,2.53935,183.788,1.30878,1.73675,-13.99,-1.09148,0,185.773,-1.92323,0.000486374,0.000121615,1.28272e-05,0.86,92.316,-11.332,867.411
0.198,-0.192335,-0.00766602,0.330352,0.0664505,0.0622742,-0.10429,0.05778,-0.100347,-0.100647,0.327447,0.023022,-0.182809,1.98691e-08,-4.56731e-09,0.3,-0.3,-16.1603,1.70566,2.50077,183.792,1.31122,1.69933,-13.99,-1.09148,0,185.773,-1.92323,0.000486374,0.000121615,1.28272e-05,0.86,92.2435,-11.2048,867.318
0.199,-0.192335,-0.00766602,0.330352,0.0664505,0.0622742,-0.10429,0.05778,-0.100347,-0.100647,0.327447,0.023022,-0.182809,1.98691e-08,-4.56731e-09,0.3,-0.3,-16.1463,1.71196,2.47195,183.796,1.3139,1.66448,-13.99,-1.09148,0,185.773,-1.92323,0.000486374,0.000121615,1.28272e-05,0.86,92.171,-11.0784,867.237
0.2,-0.192335,-0.00766602,0.330352,0.0664505,0.0622742,-0.10429,0.05778,-0.100347,-0.100647,0.327447,0.023022,-0.182809,1.98691e-08,-4.56731e-09,0.3,-0.3,-16.1312,1.71814,2.43413,183.802,1.31692,1.63214,-13.99,-1.09148,0,185.773,-1.92323,0.000486374,0.000121615,1.28272e-05,0.86,92.0984,-10.9527,867.168
0.201,-0.192335,-0.00766602,0.330352,0.0664505,0.0622742,-0.10429,0.05778,-0.100347,-0.100647,0.327447,0.023022,-0.182809,1.98691e-08,-4.56731e-09,0.3,-0.3,-16.1146,1.72477,2.3887,183.853,1.37158,1.59518,-13.99,-1.09148,0,185.773,-1.92323,0.000486374,0.000121615,1.28272e-05,0.86,91.8792,-10.938,867.071
0.202,-0.192335,-0.00766602,0.330352,0.0664505,0.0622742,-0.10429,0.05778,-0.100347,-0.100647,0.327447,0.023022,-0.182809,1.98691e-08,-4.56731e-09,0.3,-0.3,-16.0968,1.73148,2.34022,183.816,1.3244,1.57398,-13.99,-1.09148,0,185.773,-1.92323,0.000486374,0.000121615,1.28272e-05,0.86,91.9537,-10.7022,867.061
0.203,-0.192335,-0.00766602,0.330352,0.0664505,0.0622742,-0.10429,0.05778,-0.100347,-0.100647,0.327447,0.023022,-0.182809,1.98691e-08,-4.56731e-09,0.3,-0.3,-16.0783,1.73806,2.29082,183.825,1.32907,1.54758,-13.99,-1.09148,0,185.773,-1.92323,0.000486374,0.000121615,1.28272e-05,0.86,91.8815,-10.5771,867.022
0.204,-0.192335,-0.00766602,0.330352,0.0664505,0.0622742,-0.10429,0.05778,-0.100347,-0.100647,0.327447,0.023022,-0.182809,1.98691e-08,-4.56731e-09,0.3,-0.3,-16.0592,1.74473,2.24152,183.835,1.33441,1.52261,-13.99,-1.09148,0,185.773,-1.92323,0.000486374,0.000121615,1.28272e-05,0.86,91.8093,-10.4519,866.992
0.205,-0.192335,-0.00766602,0.330352,0.0664505,0.0622742,-0.10429,0.05778,-0.100347,-0.100647,0.327447,0.023022,-0.182809,1.98691e-08,-4.56731e-09,0.3,-0.3,-16.0395,1.7514,2.19468,183.849,1.34127,1.49333,-13.99,-1.09148,0,185.773,-1.92323,0.000486374,0.000121615,1.28272e-05,0.86,91.7385,-10.3281,866.965
0.206,-0.192335,-0.00766602,0.330352,0.0664505,0.0622742,-0.10429,0.05778,-0.100347,-0.100647,0.327447,0.023022,-0.182809,1.98691e-08,-4.56731e-09,0.3,-0.3,-16.0197,1.75866,2.1474,183.865,1.34963,1.4614,-13.99,-1.09148,0,185.773,-1.92323,0.000486374,0.000121615,1.28272e-05,0.86,91.6691,-10.2062,866.941
0.207,-0.192335,-0.00766602,0.330352,0.0664505,0.0622742,-0.10429,0.05778,-0.100347,-0.100647,0.327447,0.023022,-0.182809,1.98691e-08,-4.56731e-09,0.3,-0.3,-16,1.76642,2.10058,183.884,1.35928,1.42834,-13.99,-1.09148,0,185.773,-1.92323,0.000486374,0.000121615,1.28272e-05,0.86,91.6012,-10.0861,866.919
0.208,-0.192335,-0.00766602,0.330352,0.0664505,0.0622742,-0.10429,0.05778,-0.100347,-0.100647,0.327447,0.023022,-0.182809,1.98691e-08,-4.56731e-09,0.3,-0.3,-15.9731,1.76839,2.05422,183.906,1.36992,1.39455,-13.99,-1.09148,0,185.773,-1.92323,0.000486374,0.000121615,1.28272e-05,0.86,91.534,-9.96738,866.899
0.209,-0.192335,-0.00766602,0.330352,0.0664505,0.0622742,-0.10429,0.05778,-0.100347,-0.100647,0.327447,0.023022,-0.182809,1.98691e-08,-4.56731e-09,0.3,-0.3,-15.9349,1.75666,2.0068,183.928,1.38093,1.36102,-13.99,-1.09148,0,185.773,-1.92323,0.000486374,0.000121615,1.28272e-05,0.86,91.4672,-9.84951,866.879
0.21,-0.192335,-0.00766602,0.330352,0.0664505,0.0622742,-0.10429,0.05778,-0.100347,-0.100647,0.327447,0.023022,-0.182809,1.98691e-08,-4.56731e-09,0.3,-0.3,-15.8981,1.74982,1.96655,183.95,1.39202,1.32925,-13.99,-1.09148,0,185.773,-1.92323,0.000486374,0.000121615,1.28272e-05,0.86,91.4002,-9.7319,866.859
0.211,-0.192335,-0.00766602,0.330352,0.0664505,0.0622742,-0.10429,0.05778,-0.100347,-0.100647,0.327447,0.023022,-0.182809,1.98691e-08,-4.56731e-09,0.3,-0.3,-15.8629,1.74753,1.92481,184.062,1.45707,1.46089,-16.0265,0.175178,0,183.72,2.86997,0.000486374,0.000121615,1.28272e-05,0.86,90.3691,-8.9926,866.911
0.212,-0.192335,-0.00766602,0.330352,0.0664505,0.0622742,-0.10429,0.05778,-0.100347,-0.100647,0.327447,0.023022,-0.182809,1.98691e-08,-4.56731e-09,0.3,-0.3,-15.8334,1.75234,1.88178,183.993,1.41326,1.27763,-16.0265,0.175178,0,183.72,2.86997,0.000486374,0.000121615,1.28272e-05,0.86,91.2625,-9.49402,866.827
0.213,-0.192335,-0.00766602,0.330352,0.0664505,0.0622742,-0.10429,0.05778,-0.100347,-0.100647,0.327447,0.023022,-0.182809,1.98691e-08,-4.56731e-09,0.3,-0.3,-15.8246,1.76519,1.84542,184.012,1.42252,1.26131,-16.0265,0.175178,0,183.72,2.86997,0.000486374,0.000121615,1.28272e-05,0.86,91.1901,-9.37184,866.819
0.214,-0.192335,-0.00766602,0.330352,0.0664505,0.0622742,-0.10429,0.05778,-0.100347,-0.100647,0.327447,0.023022,-0.182809,1.98691e-08,-4.56731e-09,0.3,-0.3,-15.8167,1.78384,1.81681,184.028,1.43057,1.25382,-16.0265,0.175178,0,183.72,2.86997,0.000486374,0.000121615,1.28272e-05,0.86,91.1144,-9.24609,866.819
0.215,-0.192335,-0.00766602,0.330352,0.0664505,0.0622742,-0.10429,0.05778,-0.100347,-0.100647,0.327447,0.023022,-0.182809,1.98691e-08,-4.56731e-09,0.3,-0.3,-15.7886,1.78149,1.79283,184.046,1.43931,1.23989,-16.0265,0.175178,0,183.72,2.86997,0.000486374,0.000121615,1.28272e-05,0.86,91.0376,-9.11969,866.818
0.216,-0.192335,-0.00766602,0.330352,0.0664505,0.0622742,-0.10429,0.05778,-0.100347,-0.100647,0.327447,0.023022,-0.182809,1.98691e-08,-4.56731e-09,0.3,-0.3,-15.7596,1.75996,1.78253,184.065,1.44863,1.22213,-16.0265,0.175178,0,183.72,2.86997,0.000486374,0.000121615,1.28272e-05,0.86,90.9599,-8.99299,866.815
0.217,-0.192335,-0.00766602,0.330352,0.0664505,0.0622742,-0.10429,0.05778,-0.100347,-0.100647,0.327447,0.023022,-0.182809,1.98691e-08,-4.56731e-09,0.3,-0.3,-15.7286,1.73218,1.77204,184.086,1.45863,1.20195,-16.0265,0.175178,0,183.72,2.86997,0.000486374,0.000121615,1.28272e-05,0.86,90.8814,-8.86618,866.812
0.218,-0.192335,-0.00766602,0.330352,0.0664505,0.0622742,-0.10429,0.05778,-0.100347,-0.100647,0.327447,0.023022,-0.182809,1.98691e-08,-4.56731e-09,0.3,-0.3,-15.6972,1.70227,1.75983,184.107,1.46922,1.18052,-16.0265,0.175178,0,183.72,2.86997,0.000486374,0.000121615,1.28272e-05,0.86,90.8022,-8.73922,866.807
0.219,-0.192335,-0.00766602,0.330352,0.0664505,0.0622742,-0.10429,0.05778,-0.100347,-0.100647,0.327447,0.023022,-0.182809,1.98691e-08,-4.56731e-09,0.3,-0.3,-15.6652,1.67161,1.74533,184.13,1.48019,1.15893,-16.0265,0.175178,0,183.72,2.86997,0.000486374,0.000121615,1.28272e-05,0.86,90.722,-8.61198,866.801
0.22,-0.192335,-0.00766602,0.330352,0.0664505,0.0622742,-0.10429,0.05778,-0.100347,-0.100647,0.327447,0.023022,-0.182809,1.98691e-08,-4.56731e-09,0.3,-0.3,-15.6319,1.63959,1.72847,184.152,1.49128,1.13824,-16.0265,0.175178,0,183.72,2.86997,0.000486374,0.000121615,1.28272e-05,0.86,90.6406,-8.48423,866.795
0.221,-0.192335,-0.00766602,0.330352,0.0664505,0.0622742,-0.10429,0.05778,-0.100347,-0.100647,0.327447,0.023022,-0.182809,1.98691e-08,-4.56731e-09,0.3,-0.3,-15.5961,1.60428,1.70951,184.191,1.69447,1.17829,-16.0265,0.175178,0,183.72,2.86997,0.000486374,0.000121615,1.28272e-05,0.86,90.0615,-8.30859,866.815
0.222,-0.192335,-0.00766602,0.330352,0.0664505,0.0622742,-0.10429,0.05778,-0.100347,-0.100647,0.327447,0.023022,-0.182809,1.98691e-08,-4.56731e-09,0.3,-0.3,-15.5564,1.56289,1.68896,184.196,1.51261,1.10364,-16.0265,0.175178,0,183.72,2.86997,0.000486374,0.000121615,1.28272e-05,0.86,90.4731,-8.22589,866.787
0.223,-0.192335,-0.00766602,0.330352,0.0664505,0.0622742,-0.10429,0.05778,-0.100347,-0.100647,0.327447,0.023022,-0.182809,1.98691e-08,-4.56731e-09,0.3,-0.3,-15.5117,1.51212,1.66751,184.216,1.52221,1.09178,-16.0265,0.175178,0,183.72,2.86997,0.000486374,0.000121615,1.28272e-05,0.86,90.386,-8.09456,866.786
0.224,-0.192335,-0.00766602,0.330352,0.0664505,0.0622742,-0.10429,0.05778,-0.100347,-0.100647,0.327447,0.023022,-0.182809,1.98691e-08,-4.56731e-09,0.3,-0.3,-15.4607,1.44843,1.64601,184.233,1.53066,1.08495,-16.0265,0.175178,0,183.72,2.86997,0.000486374,0.000121615,1.28272e-05,0.86,90.2962,-7.96121,866.788
0.225,-0.192335,-0.00766602,0.330352,0.0664505,0.0622742,-0.10429,0.05778,-0.100347,-0.100647,0.327447,0.023022,-0.182809,1.98691e-08,-4.56731e-09,0.3,-0.3,-15.4066,1.36908,1.63317,184.252,1.53964,1.07393,-16.0265,0.175178,0,183.72,2.86997,0.000486374,0.000121615,1.28272e-05,0.86,90.2044,-7.82659,866.791
0.226,-0.192335,-0.00766602,0.330352,0.0664505,0.0622742,-0.10429,0.05778,-0.100347,-0.100647,0.327447,0.023022,-0.182809,1.98691e-08,-4.56731e-09,0.3,-0.3,-15.3569,1.28723,1.62194,184.272,1.54937,1.06021,-16.0265,0.175178,0,183.72,2.86997,0.000486374,0.000121615,1.28272e-05,0.86,90.1109,-7.69128,866.794
0.227,-0.192335,-0.00766602,0.330352,0.0664505,0.0622742,-0.10429,0.05778,-0.100347,-0.100647,0.327447,0.023022,-0.182809,1.98691e-08,-4.56731e-09,0.3,-0.3,-15.3128,1.20771,1.61125,184.293,1.55982,1.04471,-16.0265,0.175178,0,183.72,2.86997,0.000486374,0.000121615,1.28272e-05,0.86,90.0158,-7.55552,866.797
0.228,-0.192335,-0.00766602,0.330352,0.0664505,0.0622742,-0.10429,0.05778,-0.100347,-0.100647,0.327447,0.023022,-0.182809,1.98691e-08,-4.56731e-09,0.3,-0.3,-15.2743,1.13251,1.60012,184.316,1.57085,1.02829,-16.0265,0.175178,0,183.72,2.86997,0.000486374,0.000121615,1.28272e-05,0.86,89.9193,-7.41937,866.799
0.229,-0.192335,-0.00766602,0.330352,0.0664505,0.0622742,-0.10429,0.05778,-0.100347,-0.100647,0.327447,0.023022,-0.182809,1.98691e-08,-4.56731e-09,0.3,-0.3,-15.2406,1.06166,1.58805,184.34,1.58228,1.01092,-16.0265,0.175178,0,183.72,2.86997,0.000486374,0.000121615,1.28272e-05,0.86,89.8214,-7.2828,866.8
0.23,-0.192335,-0.00766602,0.330352,0.0664505,0.0622742,-0.10429,0.05778,-0.100347,-0.100647,0.327447,0.023022,-0.182809,1.98691e-08,-4.56731e-09,0.3,-0.3,-15.2115,0.994525,1.57292,184.363,1.59373,0.992596,-16.0265,0.175178,0,183.72,2.86997,0.000486374,0.000121615,1.28272e-05,0.86,89.7222,-7.1456,866.798
0.231,-0.192335,-0.00766602,0.330352,0.0664505,0.0622742,-0.10429,0.05778,-0.100347,-0.100647,0.327447,0.023022,-0.182809,1.98691e-08,-4.56731e-09,0.3,-0.3,-15.1861,0.929567,1.55238,184.412,1.77217,0.833778,-16.0265,0.175178,0,183.72,2.86997,0.000486374,0.000121615,1.28272e-05,0.86,90.0098,-7.47762,866.719
0.232,-0.192335,-0.00766602,0.330352,0.0664505,0.0622742,-0.10429,0.05778,-0.100347,-0.100647,0.327447,0.023022,-0.182809,1.98691e-08,-4.56731e-09,0.3,-0.3,-15.1627,0.864575,1.52653,184.407,1.61523,0.956181,-16.0265,0.175178,0,183.72,2.86997,0.000486374,0.000121615,1.28272e-05,0.86,89.5197,-6.86829,866.784
0.233,-0.192335,-0.00766602,0.330352,0.0664505,0.0622742,-0.10429,0.05778,-0.100347,-0.100647,0.327447,0.023022,-0.182809,1.98691e-08,-4.56731e-09,0.3,-0.3,-15.1393,0.796954,1.49614,184.427,1.62458,0.93973,-16.0265,0.175178,0,183.72,2.86997,0.000486374,0.000121615,1.28272e-05,0.86,89.4161,-6.72735,866.774
0.234,-0.192335,-0.00766602,0.330352,0.0664505,0.0622742,-0.10429,0.05778,-0.100347,-0.100647,0.327447,0.023022,-0.182809,1.98691e-08,-4.56731e-09,0.3,-0.3,-15.1142,0.723993,1.46214,184.443,1.63255,0.925543,-16.0265,0.175178,0,183.72,2.86997,0.000486374,0.000121615,1.28272e-05,0.86,89.3104,-6.58424,866.763
0.235,-0.192335,-0.00766602,0.330352,0.0664505,0.0622742,-0.10429,0.05778,-0.100347,-0.100647,0.327447,0.023022,-0.182809,1.98691e-08,-4.56731e-09,0.3,-0.3,-15.0888,0.643878,1.42973,184.458,1.63998,0.904684,-16.0265,0.175178,0,183.72,2.86997,0.000486374,0.000121615,1.28272e-05,0.86,89.2033,-6.43925,866.747
0.236,-0.192335,-0.00766602,0.330352,0.0664505,0.0622742,-0.10429,0.05778,-0.100347,-0.100647,0.327447,0.023022,-0.182809,1.98691e-08,-4.56731e-09,0.3,-0.3,-15.0681,0.565267,1.39163,184.473,1.64702,0.878416,-16.0265,0.175178,0,183.72,2.86997,0.000486374,0.000121615,1.28272e-05,0.86,89.0951,-6.29269,866.724
0.237,-0.192335,-0.00766602,0.330352,0.0664505,0.0622742,-0.10429,0.05778,-0.100347,-0.100647,0.327447,0.023022,-0.182809,1.98691e-08,-4.56731e-09,0.3,-0.3,-15.0526,0.492554,1.34701,184.486,1.65373,0.848051,-16.0265,0.175178,0,183.72,2.86997,0.000486374,0.000121615,1.28272e-05,0.86,88.9859,-6.14459,866.696
0.238,-0.192335,-0.00766602,0.330352,0.0664505,0.0622742,-0.10429,0.05778,-0.100347,-0.100647,0.327447,0.023022,-0.182809,1.98691e-08,-4.56731e-09,0.3,-0.3,-15.0416,0.42809,1.2969,184.499,1.66016,0.81484,-16.0265,0.175178,0,183.72,2.86997,0.000486374,0.000121615,1.28272e-05,0.86,88.8755,-5.99488,866.663
0.239,-0.192335,-0.00766602,0.330352,0.0664505,0.0622742,-0.10429,0.05778,-0.100347,-0.100647,0.327447,0.023022,-0.182809,1.98691e-08,-4.56731e-09,0.3,-0.3,-15.0339,0.372812,1.24263,184.512,1.66635,0.779963,-16.0265,0.175178,0,183.72,2.86997,0.000486374,0.000121615,1.28272e-05,0.86,88.764,-5.84345,866.627
0.24,-0.192335,-0.00766602,0.330352,0.0664505,0.0622742,-0.10429,0.05778,-0.100347,-0.100647,0.327447,0.023022,-0.182809,1.98691e-08,-4.56731e-09,0.3,-0.3,-15.0281,0.32667,1.18545,184.524,1.67232,0.744537,-16.0265,0.175178,0,183.72,2.86997,0.000486374,0.000121615,1.28272e-05,0.86,88.6513,-5.69021,866.59
0.241,-0.192335,-0.00766602,0.330352,0.0664505,0.0622742,-0.10429,0.05778,-0.100347,-0.100647,0.327447,0.023022,-0.182809,1.98691e-08,-4.56731e-09,0.3,-0.3,-15.0231,0.288934,1.12645,184.636,1.46926,0.555355,-16.0265,0.175178,0,183.72,2.86997,0.000486374,0.000121615,1.28272e-05,0.86,88.9532,-5.68001,866.464
0.242,-0.192335,-0.00766602,0.330352,0.0664505,0.0622742,-0.10429,0.05778,-0.100347,-0.100647,0.327447,0.023022,-0.182809,1.98691e-08,-4.56731e-09,0.3,-0.3,-15.0176,0.258418,1.06665,184.547,1.68366,0.676359,-16.0265,0.175178,0,183.72,2.86997,0.000486374,0.000121615,1.28272e-05,0.86,88.4218,-5.37791,866.513
0.243,-0.192335,-0.00766602,0.330352,0.0664505,0.0622742,-0.10429,0.05778,-0.100347,-0.100647,0.327447,0.023022,-0.182809,1.98691e-08,-4.56731e-09,0.3,-0.3,-15.0105,0.233655,1.00698,184.558,1.68901,0.645676,-16.0265,0.175178,0,183.72,2.86997,0.000486374,0.000121615,1.28272e-05,0.86,88.3048,-5.21864,866.475
0.244,-0.192335,-0.00766602,0.330352,0.0664505,0.0622742,-0.10429,0.05778,-0.100347,-0.100647,0.327447,0.023022,-0.182809,1.98691e-08,-4.56731e-09,0.3,-0.3,-15.0009,0.213038,0.94835,184.568,1.6941,0.618618,-16.0265,0.175178,0,183.72,2.86997,0.000486374,0.000121615,1.28272e-05,0.86,88.1861,-5.05714,866.44
0.245,-0.192335,-0.00766602,0.330352,0.0664505,0.0622742,-0.10429,0.05778,-0.100347,-0.100647,0.327447,0.023022,-0.182809,1.98691e-08,-4.56731e-09,0.3,-0.3,-14.989,0.196716,0.892123,184.582,1.70093,0.589649,-16.0265,0.175178,0,183.72,2.86997,0.000486374,0.000121615,1.28272e-05,0.86,88.0664,-4.89324,866.403
0.246,-0.192335,-0.00766602,0.330352,0.0664505,0.0622742,-0.10429,0.05778,-0.100347,-0.100647,0.327447,0.023022,-0.182809,1.98691e-08,-4.56731e-09,0.3,-0.3,-14.9765,0.185805,0.834396,184.6,1.70929,0.558926,-16.0265,0.175178,0,183.72,2.86997,0.000486374,0.000121615,1.28272e-05,0.86,87.9457,-4.72713,866.365
0.247,-0.192335,-0.00766602,0.330352,0.0664505,0.0622742,-0.10429,0.05778,-0.100347,-0.100647,0.327447,0.023022,-0.182809,1.98691e-08,-4.56731e-09,0.3,-0.3,-14.9633,0.180925,0.774249,184.619,1.71876,0.526703,-16.0265,0.175178,0,183.72,2.86997,0.000486374,0.000121615,1.28272e-05,0.86,87.824,-4.55886,866.323
0.248,-0.192335,-0.00766602,0.330352,0.0664505,0.0622742,-0.10429,0.05778,-0.100347,-0.100647,0.327447,0.023022,-0.182809,1.98691e-08,-4.56731e-09,0.3,-0.3,-14.949,0.182539,0.711927,184.64,1.72885,0.493261,-16.0265,0.175178,0,183.72,2.86997,0.000486374,0.000121615,1.28272e-05,0.86,87.7012,-4.38851,866.28
0.249,-0.192335,-0.00766602,0.330352,0.0664505,0.0622742,-0.10429,0.05778,-0.100347,-0.100647,0.327447,0.023022,-0.182809,1.98691e-08,-4.56731e-09,0.3,-0.3,-14.9335,0.190871,0.647957,184.661,1.73904,0.458889,-16.0265,0.175178,0,183.72,2.86997,0.000486374,0.000121615,1.28272e-05,0.86,87.5773,-4.21617,866.234
0.25,-0.192335,-0.00766602,0.330352,0.0664505,0.0622742,-0.10429,0.05778,-0.100347,-0.100647,0.327447,0.023022,-0.182809,1.98691e-08,-4.56731e-09,0.3,-0.3,-14.9168,0.205855,0.582894,184.682,1.74884,0.423891,-16.0265,0.175178,0,183.72,2.86997,0.000486374,0.000121615,1.28272e-05,0.86,87.452,-4.04199,866.188
0.251,-0.192335,-0.00766602,0.330352,0.0664505,0.0622742,-0.10429,0.05778,-0.100347,-0.100647,0.327447,0.023022,-0.182809,1.98691e-08,-4.56731e-09,0.3,-0.3,-14.8991,0.227073,0.517272,184.815,1.37569,0.294575,-16.0265,0.175178,0,183.72,2.86997,0.000486374,0.000121615,1.28272e-05,0.86,87.4539,-3.55748,866.066
0.252,-0.192335,-0.00766602,0.330352,0.0664505,0.0622742,-0.10429,0.05778,-0.100347,-0.100647,0.327447,0.023022,-0.182809,1.98691e-08,-4.56731e-09,0.3,-0.3,-14.8758,0.254708,0.459077,184.717,1.73332,0.388781,-16.0265,0.175178,0,183.72,2.86997,0.000486374,0.000121615,1.28272e-05,0.86,87.2014,-3.68762,866.11
0.253,-0.192335,-0.00766602,0.330352,0.0664505,0.0622742,-0.10429,0.05778,-0.100347,-0.100647,0.327447,0.023022,-0.182809,1.98691e-08,-4.56731e-09,0.3,-0.3,-14.8505,0.289032,0.404353,184.729,1.7279,0.371206,-16.0265,0.175178,0,183.72,2.86997,0.000486374,0.000121615,1.28272e-05,0.86,87.0756,-3.50767,866.076
0.254,-0.192335,-0.00766602,0.330352,0.0664505,0.0622742,-0.10429,0.05778,-0.100347,-0.100647,0.327447,0.023022,-0.182809,1.98691e-08,-4.56731e-09,0.3,-0.3,-14.8239,0.327971,0.353002,184.736,1.72476,0.353716,-16.0265,0.175178,0,183.72,2.86997,0.000486374,0.000121615,1.28272e-05,0.86,86.9491,-3.32635,866.043
0.255,-0.192335,-0.00766602,0.330352,0.0664505,0.0622742,-0.10429,0.05778,-0.100347,-0.100647,0.327447,0.023022,-0.182809,1.98691e-08,-4.56731e-09,0.3,-0.3,-14.7979,0.370833,0.303032,184.74,1.72341,0.332958,-16.0265,0.175178,0,183.72,2.86997,0.000486374,0.000121615,1.28272e-05,0.86,86.822,-3.14402,866.01
0.256,-0.192335,-0.00766602,0.330352,0.0664505,0.0622742,-0.10429,0.05778,-0.100347,-0.100647,0.327447,0.023022,-0.182809,1.98691e-08,-4.56731e-09,0.3,-0.3,-14.7736,0.415123,0.254441,184.74,1.72339,0.308161,-16.0265,0.175178,0,183.72,2.86997,0.000486374,0.000121615,1.28272e-05,0.86,86.6942,-2.96086,865.976
0.257,-0.192335,-0.00766602,0.330352,0.0664505,0.0622742,-0.10429,0.05778,-0.100347,-0.100647,0.327447,0.023022,-0.182809,1.98691e-08,-4.56731e-09,0.3,-0.3,-14.7531,0.459995,0.203579,184.738,1.72421,0.280235,-16.0265,0.175178,0,183.72,2.86997,0.000486374,0.000121615,1.28272e-05,0.86,86.5658,-2.777,865.939
0.258,-0.192335,-0.00766602,0.330352,0.0664505,0.0622742,-0.10429,0.05778,-0.100347,-0.100647,0.327447,0.023022,-0.182809,1.98691e-08,-4.56731e-09,0.3,-0.3,-14.7367,0.504812,0.149582,184.735,1.72565,0.250195,-16.0265,0.175178,0,183.72,2.86997,0.000486374,0.000121615,1.28272e-05,0.86,86.4368,-2.59247,865.899
0.259,-0.192335,-0.00766602,0.330352,0.0664505,0.0622742,-0.10429,0.05778,-0.100347,-0.100647,0.327447,0.023022,-0.182809,1.98691e-08,-4.56731e-09,0.3,-0.3,-14.7238,0.549133,0.0931501,184.732,1.72744,0.219152,-16.0265,0.175178,0,183.72,2.86997,0.000486374,0.000121615,1.28272e-05,0.86,86.3072,-2.40722,865.857
0.26,-0.192335,-0.00766602,0.330352,0.0664505,0.0622742,-0.10429,0.05778,-0.100347,-0.100647,0.327447,0.023022,-0.182809,1.98691e-08,-4.56731e-09,0.3,-0.3,-14.7132,0.592639,0.0354992,184.728,1.72922,0.188244,-16.0265,0.175178,0,183.72,2.86997,0.000486374,0.000121615,1.28272e-05,0.86,86.1772,-2.22118,865.814
0.261,-0.192335,-0.00766602,0.330352,0.0664505,0.0622742,-0.10429,0.05778,-0.100347,-0.100647,0.327447,0.023022,-0.182809,1.98691e-08,-4.56731e-09,0.3,-0.3,-14.702,0.600877,0.00880828,184.836,1.69828,0.070034,-16.0265,0.175178,0,183.72,2.86997,0.000486374,0.000121615,1.28272e-05,0.86,85.9724,-1.52644,865.691
0.262,-0.192335,-0.00766602,0.330352,0.0664505,0.0622742,-0.10429,0.05778,-0.100347,-0.100647,0.327447,0.023022,-0.182809,1.98691e-08,-4.56731e-09,0.3,-0.3,-14.6997,0.60303,0.026209,184.721,1.73753,0.151228,-16.0265,0.175178,0,183.72,2.86997,0.000486374,0.000121615,1.28272e-05,0.86,85.9214,-1.85038,865.759
0.263,-0.192335,-0.00766602,0.330352,0.0664505,0.0622742,-0.10429,0.05778,-0.100347,-0.100647,0.327447,0.023022,-0.182809,1.98691e-08,-4.56731e-09,0.3,-0.3,-14.7092,0.606526,0.0539471,184.712,1.7543,0.157078,-16.0265,0.175178,0,183.72,2.86997,0.000486374,0.000121615,1.28272e-05,0.86,85.7955,-1.66726,865.755
0.264,-0.192335,-0.00766602,0.330352,0.0664505,0.0622742,-0.10429,0.05778,-0.100347,-0.100647,0.327447,0.023022,-0.182809,1.98691e-08,-4.56731e-09,0.3,-0.3,-14.7207,0.611362,0.0766153,184.7,1.77477,0.175011,-16.0265,0.175178,0,183.72,2.86997,0.000486374,0.000121615,1.28272e-05,0.86,85.6717,-1.4864,865.762
0.265,-0.192335,-0.00766602,0.330352,0.0664505,0.0622742,-0.10429,0.05778,-0.100347,-0.100647,0.327447,0.023022,-0.182809,1.98691e-08,-4.56731e-09,0.3,-0.3,-14.7315,0.616584,0.0944979,184.687,1.79021,0.202745,-16.0265,0.175178,0,183.72,2.86997,0.000486374,0.000121615,1.28272e-05,0.86,85.5499,-1.30911,865.777
0.266,-0.192335,-0.00766602,0.330352,0.0664505,0.0622742,-0.10429,0.05778,-0.100347,-0.100647,0.327447,0.023022,-0.182809,1.98691e-08,-4.56731e-09,0.3,-0.3,-14.7418,0.62162,0.107913,184.674,1.79903,0.235533,-16.0265,0.175178,0,183.72,2.86997,0.000486374,0.000121615,1.28272e-05,0.86,85.4304,-1.1346,865.798
0.267,-0.192335,-0.00766602,0.330352,0.0664505,0.0622742,-0.10429,0.05778,-0.100347,-0.100647,0.327447,0.023022,-0.182809,1.98691e-08,-4.56731e-09,0.3,-0.3,-14.7517,0.625806,0.118574,184.664,1.8006,0.270845,-16.0265,0.175178,0,183.72,2.86997,0.000486374,0.000121615,1.28272e-05,0.86,85.3129,-0.96251,865.822
0.268,-0.192335,-0.00766602,0.330352,0.0664505,0.0622742,-0.10429,0.05778,-0.100347,-0.100647,0.327447,0.023022,-0.182809,1.98691e-08,-4.56731e-09,0.3,-0.3,-14.7604,0.629172,0.127806,184.656,1.79485,0.30718,-16.0265,0.175178,0,183.72,2.86997,0.000486374,0.000121615,1.28272e-05,0.86,85.1975,-0.79285,865.847
0.269,-0.192335,-0.00766602,0.330352,0.0664505,0.0622742,-0.10429,0.05778,-0.100347,-0.100647,0.327447,0.023022,-0.182809,1.98691e-08,-4.56731e-09,0.3,-0.3,-14.7679,0.631696,0.13688,184.652,1.78208,0.343792,-16.0265,0.175178,0,183.72,2.86997,0.000486374,0.000121615,1.28272e-05,0.86,85.0841,-0.625553,865.872
0.27,-0.192335,-0.00766602,0.330352,0.0664505,0.0622742,-0.10429,0.05778,-0.100347,-0.100647,0.327447,0.023022,-0.182809,1.98691e-08,-4.56731e-09,0.3,-0.3,-14.7743,0.633458,0.146724,184.65,1.76294,0.380381,-16.0265,0.175178,0,183.72,2.86997,0.000486374,0.000121615,1.28272e-05,0.86,84.9728,-0.460539,865.897
0.271,-0.192335,-0.00766602,0.330352,0.0664505,0.0622742,-0.10429,0.05778,-0.100347,-0.100647,0.327447,0.023022,-0.182809,1.98691e-08,-4.56731e-09,0.3,-0.3,-14.7799,0.634562,0.158003,184.785,1.54706,0.15785,-16.0265,0.175178,0,183.72,2.86997,0.000486374,0.000121615,1.28272e-05,0.86,85.8283,-0.652297,865.785
0.272,-0.192335,-0.00766602,0.330352,0.0664505,0.0622742,-0.10429,0.05778,-0.100347,-0.100647,0.327447,0.023022,-0.182809,1.98691e-08,-4.56731e-09,0.3,-0.3,-14.7848,0.635105,0.171177,184.652,1.7092,0.453455,-16.0265,0.175178,0,183.72,2.86997,0.000486374,0.000121615,1.28272e-05,0.86,84.7564,-0.136965,865.947
0.273,-0.192335,-0.00766602,0.330352,0.0664505,0.0622742,-0.10429,0.05778,-0.100347,-0.100647,0.327447,0.023022,-0.182809,1.98691e-08,-4.56731e-09,0.3,-0.3,-14.7894,0.635145,0.186559,184.655,1.67668,0.490141,-16.0265,0.175178,0,183.72,2.86997,0.000486374,0.000121615,1.28272e-05,0.86,84.6514,0.0217745,865.972
0.274,-0.192335,-0.00766602,0.330352,0.0664505,0.0622742,-0.10429,0.05778,-0.100347,-0.100647,0.327447,0.023022,-0.182809,1.98691e-08,-4.56731e-09,0.3,-0.3,-14.793,0.636462,0.204397,184.656,1.6419,0.527164,-16.0265,0.175178,0,183.72,2.86997,0.000486374,0.000121615,1.28272e-05,0.86,84.5485,0.178601,865.999
0.275,-0.192335,-0.00766602,0.330352,0.0664505,0.0622742,-0.10429,0.05778,-0.100347,-0.100647,0.327447,0.023022,-0.182809,1.98691e-08,-4.56731e-09,0.3,-0.3,-14.7951,0.636863,0.219928,184.663,1.60097,0.566784,-16.0265,0.175178,0,183.72,2.86997,0.000486374,0.000121615,1.28272e-05,0.86,84.447,0.333415,866.026
0.276,-0.192335,-0.00766602,0.330352,0.0664505,0.0622742,-0.10429,0.05778,-0.100347,-0.100647,0.327447,0.023022,-0.182809,1.98691e-08,-4.56731e-09,0.3,-0.3,-14.7976,0.636426,0.23609,184.674,1.5544,0.608807,-16.0265,0.175178,0,183.72,2.86997,0.000486374,0.000121615,1.28272e-05,0.86,84.3466,0.486482,866.056
0.277,-0.192335,-0.00766602,0.330352,0.0664505,0.0622742,-0.10429,0.05778,-0.100347,-0.100647,0.327447,0.023022,-0.182809,1.98691e-08,-4.56731e-09,0.3,-0.3,-14.8005,0.635254,0.253763,184.691,1.50345,0.653069,-16.0265,0.175178,0,183.72,2.86997,0.000486374,0.000121615,1.28272e-05,0.86,84.2472,0.638056,866.088
0.278,-0.192335,-0.00766602,0.330352,0.0664505,0.0622742,-0.10429,0.05778,-0.100347,-0.100647,0.327447,0.023022,-0.182809,1.98691e-08,-4.56731e-09,0.3,-0.3,-14.8058,0.632643,0.273424,184.711,1.44992,0.699183,-16.0265,0.175178,0,183.72,2.86997,0.000486374,0.000121615,1.28272e-05,0.86,84.1487,0.788338,866.12
0.279,-0.192335,-0.00766602,0.330352,0.0664505,0.0622742,-0.10429,0.05778,-0.100347,-0.100647,0.327447,0.023022,-0.182809,1.98691e-08,-4.56731e-09,0.3,-0.3,-14.8115,0.630183,0.295393,184.732,1.39595,0.746786,-16.0265,0.175178,0,183.72,2.86997,0.000486374,0.000121615,1.28272e-05,0.86,84.0511,0.937512,866.155
0.28,-0.192335,-0.00766602,0.330352,0.0664505,0.0622742,-0.10429,0.05778,-0.100347,-0.100647,0.327447,0.023022,-0.182809,1.98691e-08,-4.56731e-09,0.3,-0.3,-14.8175,0.627644,0.319946,184.752,1.34388,0.795469,-16.0265,0.175178,0,183.72,2.86997,0.000486374,0.000121615,1.28272e-05,0.86,83.9545,1.08573,866.191
0.281,-0.192335,-0.00766602,0.330352,0.0664505,0.0622742,-0.10429,0.05778,-0.100347,-0.100647,0.327447,0.023022,-0.182809,1.98691e-08,-4.56731e-09,0.3,-0.3,-14.8238,0.624982,0.34724,184.755,1.36576,0.520823,-16.0265,0.175178,0,183.72,2.86997,0.000486374,0.000121615,1.28272e-05,0.86,85.0544,0.644406,866.059
0.282,-0.192335,-0.00766602,0.330352,0.0664505,0.0622742,-0.10429,0.05778,-0.100347,-0.100647,0.327447,0.023022,-0.182809,1.98691e-08,-4.56731e-09,0.3,-0.3,-14.8303,0.622242,0.377371,184.779,1.25503,0.894487,-16.0265,0.175178,0,183.72,2.86997,0.000486374,0.000121615,1.28272e-05,0.86,83.7654,1.37968,866.266
0.283,-0.192335,-0.00766602,0.330352,0.0664505,0.0622742,-0.10429,0.05778,-0.100347,-0.100647,0.327447,0.023022,-0.182809,1.98691e-08,-4.56731e-09,0.3,-0.3,-14.8367,0.619529,0.410397,184.78,1.22278,0.944115,-16.0265,0.175178,0,183.72,2.86997,0.000486374,0.000121615,1.28272e-05,0.86,83.6735,1.52552,866.305
0.284,-0.192335,-0.00766602,0.330352,0.0664505,0.0622742,-0.10429,0.05778,-0.100347,-0.100647,0.327447,0.023022,-0.182809,1.98691e-08,-4.56731e-09,0.3,-0.3,-14.8427,0.616994,0.446342,184.771,1.2014,0.993437,-16.0265,0.175178,0,183.72,2.86997,0.000486374,0.000121615,1.28272e-05,0.86,83.584,1.67061,866.346
0.285,-0.192335,-0.00766602,0.330352,0.0664505,0.0622742,-0.10429,0.05778,-0.100347,-0.100647,0.327447,0.023022,-0.182809,1.98691e-08,-4.56731e-09,0.3,-0.3,-14.8469,0.614465,0.47889,184.758,1.18423,1.04499,-16.0265,0.175178,0,183.72,2.86997,0.000486374,0.000121615,1.28272e-05,0.86,83.4962,1.81477,866.388
0.286,-0.192335,-0.00766602,0.330352,0.0664505,0.0622742,-0.10429,0.05778,-0.100347,-0.100647,0.327447,0.023022,-0.182809,1.98691e-08,-4.56731e-09,0.3,-0.3,-14.8505,0.611956,0.51139,184.742,1.16969,1.09872,-16.0265,0.175178,0,183.72,2.86997,0.000486374,0.000121615,1.28272e-05,0.86,83.4098,1.95813,866.432
0.287,-0.192335,-0.00766602,0.330352,0.0664505,0.0622742,-0.10429,0.05778,-0.100347,-0.100647,0.327447,0.023022,-0.182809,1.98691e-08,-4.56731e-09,0.3,-0.3,-14.8537,0.609624,0.544515,184.726,1.15712,1.15451,-16.0265,0.175178,0,183.72,2.86997,0.000486374,0.000121615,1.28272e-05,0.86,83.325,2.10078,866.479
0.288,-0.192335,-0.00766602,0.330352,0.0664505,0.0622742,-0.10429,0.05778,-0.100347,-0.100647,0.327447,0.023022,-0.182809,1.98691e-08,-4.56731e-09,0.3,-0.3,-14.8566,0.607475,0.578739,184.71,1.1465,1.2121,-16.0265,0.175178,0,183.72,2.86997,0.000486374,0.000121615,1.28272e-05,0.86,83.2415,2.24272,866.527
0.289,-0.192335,-0.00766602,0.330352,0.0664505,0.0622742,-0.10429,0.05778,-0.100347,-0.100647,0.327447,0.023022,-0.182809,1.98691e-08,-4.56731e-09,0.3,-0.3,-14.8593,0.60549,0.614435,184.693,1.13825,1.27105,-16.0265,0.175178,0,183.72,2.86997,0.000486374,0.000121615,1.28272e-05,0.86,83.1596,2.38391,866.578
0.29,-0.192335,-0.00766602,0.330352,0.0664505,0.0622742,-0.10429,0.05778,-0.100347,-0.100647,0.327447,0.023022,-0.182809,1.98691e-08,-4.56731e-09,0.3,-0.3,-14.8622,0.603661,0.651933,184.676,1.13315,1.33043,-16.0265,0.175178,0,183.72,2.86997,0.000486374,0.000121615,1.28272e-05,0.86,83.0792,2.52436,866.629
0.291,-0.192335,-0.00766602,0.330352,0.0664505,0.0622742,-0.10429,0.05778,-0.100347,-0.100647,0.327447,0.023022,-0.182809,1.98691e-08,-4.56731e-09,0.3,-0.3,-14.865,0.602007,0.691249,184.649,1.29368,1.21324,-16.0265,0.175178,0,183.72,2.86997,0.000486374,0.000121615,1.28272e-05,0.86,83.6734,1.7361,866.595
0.292,-0.192335,-0.00766602,0.330352,0.0664505,0.0622742,-0.10429,0.05778,-0.100347,-0.100647,0.327447,0.023022,-0.182809,1.98691e-08,-4.56731e-09,0.3,-0.3,-14.8681,0.60005,0.731579,184.64,1.13542,1.44847,-16.0265,0.175178,0,183.72,2.86997,0.000486374,0.000121615,1.28272e-05,0.86,82.9232,2.8025,866.732
0.293,-0.192335,-0.00766602,0.330352,0.0664505,0.0622742,-0.10429,0.05778,-0.100347,-0.100647,0.327447,0.023022,-0.182809,1.98691e-08,-4.56731e-09,0.3,-0.3,-14.8708,0.598299,0.77318,184.619,1.14433,1.50642,-16.0265,0.175178,0,183.72,2.86997,0.000486374,0.000121615,1.28272e-05,0.86,82.8481,2.93996,866.783
0.294,-0.192335,-0.00766602,0.330352,0.0664505,0.0622742,-0.10429,0.05778,-0.100347,-0.100647,0.327447,0.023022,-0.182809,1.98691e-08,-4.56731e-09,0.3,-0.3,-14.8739,0.596407,0.816086,184.595,1.15935,1.56369,-16.0265,0.175178,0,183.72,2.86997,0.000486374,0.000121615,1.28272e-05,0.86,82.7751,3.07607,866.834
0.295,-0.192335,-0.00766602,0.330352,0.0664505,0.0622742,-0.10429,0.05778,-0.100347,-0.100647,0.327447,0.023022,-0.182809,1.98691e-08,-4.56731e-09,0.3,-0.3,-14.8761,0.594228,0.854901,184.572,1.17718,1.6192,-16.0265,0.175178,0,183.72,2.86997,0.000486374,0.000121615,1.28272e-05,0.86,82.7036,3.21126,866.883
0.296,-0.192335,-0.00766602,0.330352,0.0664505,0.0622742,-0.10429,0.05778,-0.100347,-0.100647,0.327447,0.023022,-0.182809,1.98691e-08,-4.56731e-09,0.3,-0.3,-14.8779,0.591595,0.889303,184.553,1.19555,1.6714,-16.0265,0.175178,0,183.72,2.86997,0.000486374,0.000121615,1.28272e-05,0.86,82.6334,3.3459,866.928
0.297,-0.192335,-0.00766602,0.330352,0.0664505,0.0622742,-0.10429,0.05778,-0.100347,-0.100647,0.327447,0.023022,-0.182809,1.98691e-08,-4.56731e-09,0.3,-0.3,-14.8784,0.588923,0.919965,184.538,1.21325,1.72029,-16.0265,0.175178,0,183.72,2.86997,0.000486374,0.000121615,1.28272e-05,0.86,82.5644,3.48014,866.969
0.298,-0.192335,-0.00766602,0.330352,0.0664505,0.0622742,-0.10429,0.05778,-0.100347,-0.100647,0.327447,0.023022,-0.182809,1.98691e-08,-4.56731e-09,0.3,-0.3,-14.8786,0.586361,0.947952,184.528,1.2298,1.76635,-16.0265,0.175178,0,183.72,2.86997,0.000486374,0.000121615,1.28272e-05,0.86,82.4966,3.61405,867.006
0.299,-0.192335,-0.00766602,0.330352,0.0664505,0.0622742,-0.10429,0.05778,-0.100347,-0.100647,0.327447,0.023022,-0.182809,1.98691e-08,-4.56731e-09,0.3,-0.3,-14.8788,0.584125,0.974111,184.523,1.2452,1.81023,-16.0265,0.175178,0,183.72,2.86997,0.000486374,0.000121615,1.28272e-05,0.86,82.43,3.74754,867.041
0.3,-0.192335,-0.00766602,0.330352,0.0664505,0.0622742,-0.10429,0.05778,-0.100347,-0.100647,0.327447,0.023022,-0.182809,1.98691e-08,-4.56731e-09,0.3,-0.3,-14.8794,0.582346,0.999176,184.521,1.25975,1.85261,-16.0265,0.175178,0,183.72,2.86997,0.000486374,0.000121615,1.28272e-05,0.86,82.3647,3.88047,867.074
0.301,-0.192335,-0.00766602,0.330352,0.0664505,0.0622742,-0.10429,0.05778,-0.100347,-0.100647,0.327447,0.023022,-0.182809,1.98691e-08,-4.56731e-09,0.3,-0.3,-14.8805,0.581063,1.02386,184.628,1.30805,1.87708,-16.0265,0.175178,0,183.72,2.86997,0.000486374,0.000121615,1.28272e-05,0.86,82.3925,3.52313,867.102
0.302,-0.192335,-0.00766602,0.330352,0.0664505,0.0622742,-0.10429,0.05778,-0.100347,-0.100647,0.327447,0.023022,-0.182809,1.98691e-08,-4.56731e-09,0.3,-0.3,-14.8823,0.580242,1.04889,184.52,1.28798,1.93534,-16.0265,0.175178,0,183.72,2.86997,0.000486374,0.000121615,1.28272e-05,0.86,82.2382,4.14356,867.139
0.303,-0.192335,-0.00766602,0.330352,0.0664505,0.0622742,-0.10429,0.05778,-0.100347,-0.100647,0.327447,0.023022,-0.182809,1.98691e-08,-4.56731e-09,0.3,-0.3,-14.8851,0.579792,1.07509,184.519,1.30253,1.97688,-16.0265,0.175178,0,183.72,2.86997,0.000486374,0.000121615,1.28272e-05,0.86,82.1774,4.27302,867.173
0.304,-0.192335,-0.00766602,0.330352,0.0664505,0.0622742,-0.10429,0.05778,-0.100347,-0.100647,0.327447,0.023022,-0.182809,1.98691e-08,-4.56731e-09,0.3,-0.3,-14.889,0.579582,1.1033,184.515,1.31785,2.01934,-16.0265,0.175178,0,183.72,2.86997,0.000486374,0.000121615,1.28272e-05,0.86,82.1186,4.40053,867.208
0.305,-0.192335,-0.00766602,0.330352,0.0664505,0.0622742,-0.10429,0.05778,-0.100347,-0.100647,0.327447,0.023022,-0.182809,1.98691e-08,-4.56731e-09,0.3,-0.3,-14.893,0.578919,1.12769,184.514,1.33169,2.06024,-16.0265,0.175178,0,183.72,2.86997,0.000486374,0.000121615,1.28272e-05,0.86,82.061,4.52652,867.242
0.306,-0.192335,-0.00766602,0.330352,0.0664505,0.0622742,-0.10429,0.05778,-0.100347,-0.100647,0.327447,0.023022,-0.182809,1.98691e-08,-4.56731e-09,0.3,-0.3,-14.8966,0.577389,1.14669,184.516,1.34183,2.09717,-16.0265,0.175178,0,183.72,2.86997,0.000486374,0.000121615,1.28272e-05,0.86,82.0044,4.65138,867.271
0.307,-0.192335,-0.00766602,0.330352,0.0664505,0.0622742,-0.10429,0.05778,-0.100347,-0.100647,0.327447,0.023022,-0.182809,1.98691e-08,-4.56731e-09,0.3,-0.3,-14.9001,0.575094,1.16141,184.522,1.34726,2.12988,-16.0265,0.175178,0,183.72,2.86997,0.000486374,0.000121615,1.28272e-05,0.86,81.9486,4.77531,867.295
0.308,-0.192335,-0.00766602,0.330352,0.0664505,0.0622742,-0.10429,0.05778,-0.100347,-0.100647,0.327447,0.023022,-0.182809,1.98691e-08,-4.56731e-09,0.3,-0.3,-14.904,0.572307,1.17331,184.532,1.3479,2.15901,-16.0265,0.175178,0,183.72,2.86997,0.000486374,0.000121615,1.28272e-05,0.86,81.8937,4.89838,867.315
0.309,-0.192335,-0.00766602,0.330352,0.0664505,0.0622742,-0.10429,0.05778,-0.100347,-0.100647,0.327447,0.023022,-0.182809,1.98691e-08,-4.56731e-09,0.3,-0.3,-14.9085,0.569314,1.18366,184.544,1.34428,2.18551,-16.0265,0.175178,0,183.72,2.86997,0.000486374,0.000121615,1.28272e-05,0.86,81.8396,5.02056,867.333
0.31,-0.192335,-0.00766602,0.330352,0.0664505,0.0622742,-0.10429,0.05778,-0.100347,-0.100647,0.327447,0.023022,-0.182809,1.98691e-08,-4.56731e-09,0.3,-0.3,-14.9139,0.566348,1.19349,184.556,1.33737,2.2104,-16.0265,0.175178,0,183.72,2.86997,0.000486374,0.000121615,1.28272e-05,0.86,81.7864,5.14175,867.349
0.311,-0.192335,-0.00766602,0.330352,0.0664505,0.0622742,-0.10429,0.05778,-0.100347,-0.100647,0.327447,0.023022,-0.182809,1.98691e-08,-4.56731e-09,0.3,-0.3,-14.9201,0.563587,1.20381,184.689,1.33701,2.20949,-16.0265,0.175178,0,183.72,2.86997,0.000486374,0.000121615,1.28272e-05,0.86,81.811,4.85982,867.351
0.312,-0.192335,-0.00766602,0.330352,0.0664505,0.0622742,-0.10429,0.05778,-0.100347,-0.100647,0.327447,0.023022,-0.182809,1.98691e-08,-4.56731e-09,0.3,-0.3,-14.9273,0.561156,1.21562,184.573,1.31857,2.25932,-16.0265,0.175178,0,183.72,2.86997,0.000486374,0.000121615,1.28272e-05,0.86,81.6836,5.38028,867.382
0.313,-0.192335,-0.00766602,0.330352,0.0664505,0.0622742,-0.10429,0.05778,-0.100347,-0.100647,0.327447,0.023022,-0.182809,1.98691e-08,-4.56731e-09,0.3,-0.3,-14.9352,0.559146,1.23002,184.575,1.30933,2.28536,-16.0265,0.175178,0,183.72,2.86997,0.000486374,0.000121615,1.28272e-05,0.86,81.6346,5.49705,867.401
0.314,-0.192335,-0.00766602,0.330352,0.0664505,0.0622742,-0.10429,0.05778,-0.100347,-0.100647,0.327447,0.023022,-0.182809,1.98691e-08,-4.56731e-09,0.3,-0.3,-14.9438,0.557624,1.24819,184.571,1.30188,2.31371,-16.0265,0.175178,0,183.72,2.86997,0.000486374,0.000121615,1.28272e-05,0.86,81.5874,5.61164,867.423
0.315,-0.192335,-0.00766602,0.330352,0.0664505,0.0622742,-0.10429,0.05778,-0.100347,-0.100647,0.327447,0.023022,-0.182809,1.98691e-08,-4.56731e-09,0.3,-0.3,-14.9519,0.555868,1.26353,184.566,1.29524,2.34061,-16.0265,0.175178,0,183.72,2.86997,0.000486374,0.000121615,1.28272e-05,0.86,81.5415,5.7245,867.444
0.316,-0.192335,-0.00766602,0.330352,0.0664505,0.0622742,-0.10429,0.05778,-0.100347,-0.100647,0.327447,0.023022,-0.182809,1.98691e-08,-4.56731e-09,0.3,-0.3,-14.959,0.55334,1.27448,184.562,1.2879,2.36385,-16.0265,0.175178,0,183.72,2.86997,0.000486374,0.000121615,1.28272e-05,0.86,81.4966,5.83596,867.462
0.317,-0.192335,-0.00766602,0.330352,0.0664505,0.0622742,-0.10429,0.05778,-0.100347,-0.100647,0.327447,0.023022,-0.182809,1.98691e-08,-4.56731e-09,0.3,-0.3,-14.9654,0.550052,1.28157,184.56,1.27909,2.38302,-16.0265,0.175178,0,183.72,2.86997,0.000486374,0.000121615,1.28272e-05,0.86,81.4527,5.94625,867.475
0.318,-0.192335,-0.00766602,0.330352,0.0664505,0.0622742,-0.10429,0.05778,-0.100347,-0.100647,0.327447,0.023022,-0.182809,1.98691e-08,-4.56731e-09,0.3,-0.3,-14.9715,0.546301,1.28617,184.561,1.26852,2.39881,-16.0265,0.175178,0,183.72,2.86997,0.000486374,0.000121615,1.28272e-05,0.86,81.4096,6.05552,867.485
0.319,-0.192335,-0.00766602,0.330352,0.0664505,0.0622742,-0.10429,0.05778,-0.100347,-0.100647,0.327447,0.023022,-0.182809,1.98691e-08,-4.56731e-09,0.3,-0.3,-14.9777,0.542415,1.2895,184.563,1.2563,2.41226,-16.0265,0.175178,0,183.72,2.86997,0.000486374,0.000121615,1.28272e-05,0.86,81.3675,6.16381,867.492
0.32,-0.192335,-0.00766602,0.330352,0.0664505,0.0622742,-0.10429,0.05778,-0.100347,-0.100647,0.327447,0.023022,-0.182809,1.98691e-08,-4.56731e-09,0.3,-0.3,-14.9842,0.538682,1.2926,184.565,1.24276,2.42456,-16.0265,0.175178,0,183.72,2.86997,0.000486374,0.000121615,1.28272e-05,0.86,81.3264,6.27109,867.497
0.321,-0.192335,-0.00766602,0.330352,0.0664505,0.0622742,-0.10429,0.05778,-0.100347,-0.100647,0.327447,0.023022,-0.182809,1.98691e-08,-4.56731e-09,0.3,-0.3,-14.9912,0.535327,1.29647,184.645,1.23149,2.34516,-16.0265,0.175178,0,183.72,2.86997,0.000486374,0.000121615,1.28272e-05,0.86,81.593,5.90776,867.455
0.322,-0.192335,-0.00766602,0.330352,0.0664505,0.0622742,-0.10429,0.05778,-0.100347,-0.100647,0.327447,0.023022,-0.182809,1.98691e-08,-4.56731e-09,0.3,-0.3,-14.9986,0.532524,1.30218,184.564,1.21368,2.45036,-16.0265,0.175178,0,183.72,2.86997,0.000486374,0.000121615,1.28272e-05,0.86,81.2482,6.48217,867.511
