TheMarex/ba-thesis/notebook/disturbance_unstabilized_logs/2014-10-27-16:20:07_trajectory.csv
"Timestamp","Trajectory_LeftLeg_Joint6","Trajectory_LeftLeg_Joint5","Trajectory_LeftLeg_Joint4","Trajectory_LeftLeg_Joint3","Trajectory_LeftLeg_Joint2","Trajectory_LeftLeg_Joint1","Trajectory_RightLeg_Joint1","Trajectory_RightLeg_Joint2","Trajectory_RightLeg_Joint3","Trajectory_RightLeg_Joint4","Trajectory_RightLeg_Joint5","Trajectory_RightLeg_Joint6","Trajectory_Torso_Joint1","Trajectory_Torso_Joint2","Trajectory_LeftArm_Joint3","Trajectory_RightArm_Joint3","Actual_LeftFootX","Actual_LeftFootY","Actual_LeftFootZ","Actual_RightFootX","Actual_RightFootY","Actual_RightFootZ","Actual_CoMX","Actual_CoMY","Actual_CoMZ"
0.001,-0.192335,-0.00766602,0.330352,0.0664505,0.0622742,-0.10429,0.05778,-0.100347,-0.100647,0.327447,0.023022,-0.182809,1.98691e-08,-4.56731e-09,0.3,-0.3,0,0,0,172.018,-2.98923,-0.0121975,94.498,-21.111,892.433
0.002,-0.192335,-0.00766602,0.330352,0.0664505,0.0622742,-0.10429,0.05778,-0.100347,-0.100647,0.327447,0.023022,-0.182809,1.98691e-08,-4.56731e-09,0.3,-0.3,0,0,0,172.018,-2.98923,-0.0121918,94.498,-21.111,892.433
0.003,-0.192335,-0.00766602,0.330352,0.0664505,0.0622742,-0.10429,0.05778,-0.100347,-0.100647,0.327447,0.023022,-0.182809,1.98691e-08,-4.56731e-09,0.3,-0.3,0,0,-0.00981,172.01,-2.98587,0.030508,94.496,-21.1215,892.442
0.004,-0.192335,-0.00766602,0.330352,0.0664505,0.0622742,-0.10429,0.05778,-0.100347,-0.100647,0.327447,0.023022,-0.182809,1.98691e-08,-4.56731e-09,0.3,-0.3,0.00649278,-0.0101578,-0.00160465,172.01,-2.98597,0.0923576,94.4911,-21.1312,892.477
0.005,-0.192335,-0.00766602,0.330352,0.0664505,0.0622742,-0.10429,0.05778,-0.100347,-0.100647,0.327447,0.023022,-0.182809,1.98691e-08,-4.56731e-09,0.3,-0.3,0.0303598,-0.0442543,0.0501227,172.01,-2.98602,0.153328,94.4853,-21.1405,892.514
0.006,-0.192335,-0.00766602,0.330352,0.0664505,0.0622742,-0.10429,0.05778,-0.100347,-0.100647,0.327447,0.023022,-0.182809,1.98691e-08,-4.56731e-09,0.3,-0.3,0.0528538,-0.0989487,0.111819,172.015,-2.98849,0.222403,94.4782,-21.1483,892.552
0.007,-0.192335,-0.00766602,0.330352,0.0664505,0.0622742,-0.10429,0.05778,-0.100347,-0.100647,0.327447,0.023022,-0.182809,1.98691e-08,-4.56731e-09,0.3,-0.3,0.0730961,-0.170108,0.186396,172.025,-2.99337,0.300882,94.4699,-21.1543,892.593
0.008,-0.192335,-0.00766602,0.330352,0.0664505,0.0622742,-0.10429,0.05778,-0.100347,-0.100647,0.327447,0.023022,-0.182809,1.98691e-08,-4.56731e-09,0.3,-0.3,0.0885928,-0.253516,0.272872,172.043,-3.02238,0.37422,94.4614,-21.1604,892.624
0.009,-0.192335,-0.00766602,0.330352,0.0664505,0.0622742,-0.10429,0.05778,-0.100347,-0.100647,0.327447,0.023022,-0.182809,1.98691e-08,-4.56731e-09,0.3,-0.3,0.0919843,-0.346607,0.356774,172.068,-3.07129,0.450048,94.4527,-21.1663,892.644
0.01,-0.192335,-0.00766602,0.330352,0.0664505,0.0622742,-0.10429,0.05778,-0.100347,-0.100647,0.327447,0.023022,-0.182809,1.98691e-08,-4.56731e-09,0.3,-0.3,0.0838144,-0.450084,0.441001,172.1,-3.13769,0.52746,94.4441,-21.1722,892.655
0.011,-0.192335,-0.00766602,0.330352,0.0664505,0.0622742,-0.10429,0.05778,-0.100347,-0.100647,0.327447,0.023022,-0.182809,1.98691e-08,-4.56731e-09,0.3,-0.3,0.064662,-0.564366,0.525735,172.14,-3.21967,0.606098,94.4353,-21.1778,892.656
0.012,-0.192335,-0.00766602,0.330352,0.0664505,0.0622742,-0.10429,0.05778,-0.100347,-0.100647,0.327447,0.023022,-0.182809,1.98691e-08,-4.56731e-09,0.3,-0.3,0.0353848,-0.690113,0.611133,172.186,-3.31561,0.685745,94.4265,-21.1833,892.646
0.013,-0.192335,-0.00766602,0.330352,0.0664505,0.0622742,-0.10429,0.05778,-0.100347,-0.100647,0.327447,0.023022,-0.182809,1.98691e-08,-4.56731e-09,0.3,-0.3,-0.00308992,-0.827983,0.697293,172.239,-3.42414,0.766191,94.4177,-21.1887,892.627
0.014,-0.192335,-0.00766602,0.330352,0.0664505,0.0622742,-0.10429,0.05778,-0.100347,-0.100647,0.327447,0.023022,-0.182809,1.98691e-08,-4.56731e-09,0.3,-0.3,-0.0498658,-0.97854,0.784218,172.298,-3.54411,0.84725,94.409,-21.1938,892.598
0.015,-0.192335,-0.00766602,0.330352,0.0664505,0.0622742,-0.10429,0.05778,-0.100347,-0.100647,0.327447,0.023022,-0.182809,1.98691e-08,-4.56731e-09,0.3,-0.3,-0.104124,-1.1422,0.871843,172.362,-3.67458,0.92874,94.4002,-21.1988,892.559
0.016,-0.192335,-0.00766602,0.330352,0.0664505,0.0622742,-0.10429,0.05778,-0.100347,-0.100647,0.327447,0.023022,-0.182809,1.98691e-08,-4.56731e-09,0.3,-0.3,-0.165149,-1.31919,0.960051,172.432,-3.81478,1.0105,94.3914,-21.2035,892.51
0.017,-0.192335,-0.00766602,0.330352,0.0664505,0.0622742,-0.10429,0.05778,-0.100347,-0.100647,0.327447,0.023022,-0.182809,1.98691e-08,-4.56731e-09,0.3,-0.3,-0.23234,-1.5096,1.0487,172.506,-3.96407,1.09237,94.3826,-21.2081,892.451
0.018,-0.192335,-0.00766602,0.330352,0.0664505,0.0622742,-0.10429,0.05778,-0.100347,-0.100647,0.327447,0.023022,-0.182809,1.98691e-08,-4.56731e-09,0.3,-0.3,-0.305208,-1.71332,1.13761,172.586,-4.12194,1.17419,94.3738,-21.2125,892.382
0.019,-0.192335,-0.00766602,0.330352,0.0664505,0.0622742,-0.10429,0.05778,-0.100347,-0.100647,0.327447,0.023022,-0.182809,1.98691e-08,-4.56731e-09,0.3,-0.3,-0.383372,-1.93013,1.22662,172.67,-4.28799,1.25582,94.3651,-21.2167,892.303
0.02,-0.192335,-0.00766602,0.330352,0.0664505,0.0622742,-0.10429,0.05778,-0.100347,-0.100647,0.327447,0.023022,-0.182809,1.98691e-08,-4.56731e-09,0.3,-0.3,-0.466545,-2.15971,1.31554,172.758,-4.46187,1.33711,94.3564,-21.2208,892.214
0.021,-0.192335,-0.00766602,0.330352,0.0664505,0.0622742,-0.10429,0.05778,-0.100347,-0.100647,0.327447,0.023022,-0.182809,1.98691e-08,-4.56731e-09,0.3,-0.3,-0.554518,-2.40165,1.40421,172.851,-4.6433,1.41793,94.3477,-21.2246,892.116
0.022,-0.192335,-0.00766602,0.330352,0.0664505,0.0622742,-0.10429,0.05778,-0.100347,-0.100647,0.327447,0.023022,-0.182809,1.98691e-08,-4.56731e-09,0.3,-0.3,-0.647146,-2.65548,1.49246,172.947,-4.83205,1.49811,94.339,-21.2283,892.007
0.023,-0.192335,-0.00766602,0.330352,0.0664505,0.0622742,-0.10429,0.05778,-0.100347,-0.100647,0.327447,0.023022,-0.182809,1.98691e-08,-4.56731e-09,0.3,-0.3,-0.744331,-2.92072,1.58013,173.048,-5.0279,1.57754,94.3304,-21.2319,891.889
0.024,-0.192335,-0.00766602,0.330352,0.0664505,0.0622742,-0.10429,0.05778,-0.100347,-0.100647,0.327447,0.023022,-0.182809,1.98691e-08,-4.56731e-09,0.3,-0.3,-0.846012,-3.19685,1.66708,173.154,-5.23066,1.65605,94.3218,-21.2353,891.76
0.025,-0.192335,-0.00766602,0.330352,0.0664505,0.0622742,-0.10429,0.05778,-0.100347,-0.100647,0.327447,0.023022,-0.182809,1.98691e-08,-4.56731e-09,0.3,-0.3,-0.952149,-3.48338,1.75317,173.263,-5.44014,1.73352,94.3133,-21.2385,891.622
0.026,-0.192335,-0.00766602,0.330352,0.0664505,0.0622742,-0.10429,0.05778,-0.100347,-0.100647,0.327447,0.023022,-0.182809,1.98691e-08,-4.56731e-09,0.3,-0.3,-1.06272,-3.77981,1.83826,173.377,-5.65618,1.8098,94.3048,-21.2416,891.474
0.027,-0.192335,-0.00766602,0.330352,0.0664505,0.0622742,-0.10429,0.05778,-0.100347,-0.100647,0.327447,0.023022,-0.182809,1.98691e-08,-4.56731e-09,0.3,-0.3,-1.17769,-4.08566,1.92224,173.496,-5.87859,1.88474,94.2964,-21.2446,891.316
0.028,-0.192335,-0.00766602,0.330352,0.0664505,0.0622742,-0.10429,0.05778,-0.100347,-0.100647,0.327447,0.023022,-0.182809,1.98691e-08,-4.56731e-09,0.3,-0.3,-1.29703,-4.40049,2.00498,173.619,-6.10719,1.95823,94.288,-21.2475,891.148
0.029,-0.192335,-0.00766602,0.330352,0.0664505,0.0622742,-0.10429,0.05778,-0.100347,-0.100647,0.327447,0.023022,-0.182809,1.98691e-08,-4.56731e-09,0.3,-0.3,-1.42069,-4.72387,2.08637,173.746,-6.34178,2.03009,94.2797,-21.2502,890.971
0.03,-0.192335,-0.00766602,0.330352,0.0664505,0.0622742,-0.10429,0.05778,-0.100347,-0.100647,0.327447,0.023022,-0.182809,1.98691e-08,-4.56731e-09,0.3,-0.3,-1.54864,-5.05538,2.16629,173.878,-6.58216,2.1002,94.2715,-21.2529,890.783
0.031,-0.192335,-0.00766602,0.330352,0.0664505,0.0622742,-0.10429,0.05778,-0.100347,-0.100647,0.327447,0.023022,-0.182809,1.98691e-08,-4.56731e-09,0.3,-0.3,-1.68082,-5.39464,2.24462,174.014,-6.82813,2.1684,94.2633,-21.2554,890.586
0.032,-0.192335,-0.00766602,0.330352,0.0664505,0.0622742,-0.10429,0.05778,-0.100347,-0.100647,0.327447,0.023022,-0.182809,1.98691e-08,-4.56731e-09,0.3,-0.3,-1.81717,-5.74126,2.32125,174.155,-7.07948,2.23455,94.2552,-21.2578,890.378
0.033,-0.192335,-0.00766602,0.330352,0.0664505,0.0622742,-0.10429,0.05778,-0.100347,-0.100647,0.327447,0.023022,-0.182809,1.98691e-08,-4.56731e-09,0.3,-0.3,-1.95763,-6.09487,2.39604,174.3,-7.33599,2.29848,94.2471,-21.2601,890.161
0.034,-0.192335,-0.00766602,0.330352,0.0664505,0.0622742,-0.10429,0.05778,-0.100347,-0.100647,0.327447,0.023022,-0.182809,1.98691e-08,-4.56731e-09,0.3,-0.3,-2.10213,-6.45512,2.46888,174.45,-7.59746,2.36005,94.2391,-21.2624,889.934
0.035,-0.192335,-0.00766602,0.330352,0.0664505,0.0622742,-0.10429,0.05778,-0.100347,-0.100647,0.327447,0.023022,-0.182809,1.98691e-08,-4.56731e-09,0.3,-0.3,-2.25059,-6.82166,2.53963,174.604,-7.86364,2.41909,94.2311,-21.2645,889.698
0.036,-0.192335,-0.00766602,0.330352,0.0664505,0.0622742,-0.10429,0.05778,-0.100347,-0.100647,0.327447,0.023022,-0.182809,1.98691e-08,-4.56731e-09,0.3,-0.3,-2.40292,-7.19414,2.60814,174.763,-8.13434,2.47543,94.2233,-21.2666,889.451
0.037,-0.192335,-0.00766602,0.330352,0.0664505,0.0622742,-0.10429,0.05778,-0.100347,-0.100647,0.327447,0.023022,-0.182809,1.98691e-08,-4.56731e-09,0.3,-0.3,-2.55904,-7.5722,2.67427,174.926,-8.4093,2.52891,94.2154,-21.2686,889.194
0.038,-0.192335,-0.00766602,0.330352,0.0664505,0.0622742,-0.10429,0.05778,-0.100347,-0.100647,0.327447,0.023022,-0.182809,1.98691e-08,-4.56731e-09,0.3,-0.3,-2.71885,-7.95551,2.73786,175.093,-8.68831,2.57934,94.2076,-21.2705,888.928
0.039,-0.192335,-0.00766602,0.330352,0.0664505,0.0622742,-0.10429,0.05778,-0.100347,-0.100647,0.327447,0.023022,-0.182809,1.98691e-08,-4.56731e-09,0.3,-0.3,-2.88225,-8.34372,2.79873,175.265,-8.97113,2.62655,94.1999,-21.2724,888.652
0.04,-0.192335,-0.00766602,0.330352,0.0664505,0.0622742,-0.10429,0.05778,-0.100347,-0.100647,0.327447,0.023022,-0.182809,1.98691e-08,-4.56731e-09,0.3,-0.3,-3.04914,-8.73646,2.85671,175.441,-9.25753,2.67035,94.1922,-21.2742,888.366
0.041,-0.192335,-0.00766602,0.330352,0.0664505,0.0622742,-0.10429,0.05778,-0.100347,-0.100647,0.327447,0.023022,-0.182809,1.98691e-08,-4.56731e-09,0.3,-0.3,-3.2194,-9.13339,2.91162,175.621,-9.54728,2.71054,94.1846,-21.2759,888.071
0.042,-0.192335,-0.00766602,0.330352,0.0664505,0.0622742,-0.10429,0.05778,-0.100347,-0.100647,0.327447,0.023022,-0.182809,1.98691e-08,-4.56731e-09,0.3,-0.3,-3.39292,-9.53416,2.96326,175.805,-9.84013,2.74692,94.177,-21.2776,887.765
0.043,-0.192335,-0.00766602,0.330352,0.0664505,0.0622742,-0.10429,0.05778,-0.100347,-0.100647,0.327447,0.023022,-0.182809,1.98691e-08,-4.56731e-09,0.3,-0.3,-3.56959,-9.93839,3.01141,175.993,-10.1358,2.77928,94.1694,-21.2792,887.45
0.044,-0.192335,-0.00766602,0.330352,0.0664505,0.0622742,-0.10429,0.05778,-0.100347,-0.100647,0.327447,0.023022,-0.182809,1.98691e-08,-4.56731e-09,0.3,-0.3,-3.74929,-10.3457,3.05587,176.185,-10.4342,2.80741,94.1619,-21.2808,887.125
0.045,-0.192335,-0.00766602,0.330352,0.0664505,0.0622742,-0.10429,0.05778,-0.100347,-0.100647,0.327447,0.023022,-0.182809,1.98691e-08,-4.56731e-09,0.3,-0.3,-3.9319,-10.7558,3.0964,176.381,-10.7349,2.83107,94.1545,-21.2823,886.79
0.046,-0.192335,-0.00766602,0.330352,0.0664505,0.0622742,-0.10429,0.05778,-0.100347,-0.100647,0.327447,0.023022,-0.182809,1.98691e-08,-4.56731e-09,0.3,-0.3,-4.11728,-11.1682,3.13276,176.58,-11.0378,2.85004,94.147,-21.2838,886.446
0.047,-0.192335,-0.00766602,0.330352,0.0664505,0.0622742,-0.10429,0.05778,-0.100347,-0.100647,0.327447,0.023022,-0.182809,1.98691e-08,-4.56731e-09,0.3,-0.3,-4.30532,-11.5827,3.16471,176.783,-11.3426,2.86408,94.1397,-21.2853,886.091
0.048,-0.192335,-0.00766602,0.330352,0.0664505,0.0622742,-0.10429,0.05778,-0.100347,-0.100647,0.327447,0.023022,-0.182809,1.98691e-08,-4.56731e-09,0.3,-0.3,-4.49587,-11.9988,3.19199,176.99,-11.649,2.87294,94.1323,-21.2868,885.727
0.049,-0.192335,-0.00766602,0.330352,0.0664505,0.0622742,-0.10429,0.05778,-0.100347,-0.100647,0.327447,0.023022,-0.182809,1.98691e-08,-4.56731e-09,0.3,-0.3,-4.68879,-12.4161,3.21432,177.2,-11.9568,2.87635,94.125,-21.2882,885.354
0.05,-0.192335,-0.00766602,0.330352,0.0664505,0.0622742,-0.10429,0.05778,-0.100347,-0.100647,0.327447,0.023022,-0.182809,1.98691e-08,-4.56731e-09,0.3,-0.3,-4.88395,-12.8344,3.23143,177.413,-12.2658,2.87407,94.1178,-21.2896,884.97
0.051,-0.192335,-0.00766602,0.330352,0.0664505,0.0622742,-0.10429,0.05778,-0.100347,-0.100647,0.327447,0.023022,-0.182809,1.98691e-08,-4.56731e-09,0.3,-0.3,-5.0812,-13.2532,3.24302,177.629,-12.5756,2.8658,94.1105,-21.2911,884.577
0.052,-0.192335,-0.00766602,0.330352,0.0664505,0.0622742,-0.10429,0.05778,-0.100347,-0.100647,0.327447,0.023022,-0.182809,1.98691e-08,-4.56731e-09,0.3,-0.3,-5.28039,-13.6722,3.24879,177.848,-12.8862,2.85128,94.1033,-21.2925,884.174
0.053,-0.192335,-0.00766602,0.330352,0.0664505,0.0622742,-0.10429,0.05778,-0.100347,-0.100647,0.327447,0.023022,-0.182809,1.98691e-08,-4.56731e-09,0.3,-0.3,-5.48135,-14.0909,3.24843,178.07,-13.1971,2.8302,94.0961,-21.2939,883.761
0.054,-0.192335,-0.00766602,0.330352,0.0664505,0.0622742,-0.10429,0.05778,-0.100347,-0.100647,0.327447,0.023022,-0.182809,1.98691e-08,-4.56731e-09,0.3,-0.3,-5.68393,-14.5092,3.24162,178.294,-13.5081,2.80227,94.089,-21.2953,883.339
0.055,-0.192335,-0.00766602,0.330352,0.0664505,0.0622742,-0.10429,0.05778,-0.100347,-0.100647,0.327447,0.023022,-0.182809,1.98691e-08,-4.56731e-09,0.3,-0.3,-5.88796,-14.9266,3.22802,178.521,-13.8191,2.76718,94.0818,-21.2967,882.907
0.056,-0.192335,-0.00766602,0.330352,0.0664505,0.0622742,-0.10429,0.05778,-0.100347,-0.100647,0.327447,0.023022,-0.182809,1.98691e-08,-4.56731e-09,0.3,-0.3,-6.09328,-15.3427,3.20729,178.75,-14.1296,2.72461,94.0747,-21.2981,882.465
0.057,-0.192335,-0.00766602,0.330352,0.0664505,0.0622742,-0.10429,0.05778,-0.100347,-0.100647,0.327447,0.023022,-0.182809,1.98691e-08,-4.56731e-09,0.3,-0.3,-6.2997,-15.7572,3.17908,178.981,-14.4395,2.67423,94.0676,-21.2996,882.013
0.058,-0.192335,-0.00766602,0.330352,0.0664505,0.0622742,-0.10429,0.05778,-0.100347,-0.100647,0.327447,0.023022,-0.182809,1.98691e-08,-4.56731e-09,0.3,-0.3,-6.50704,-16.1698,3.14303,179.213,-14.7486,2.61572,94.0605,-21.3011,881.552
0.059,-0.192335,-0.00766602,0.330352,0.0664505,0.0622742,-0.10429,0.05778,-0.100347,-0.100647,0.327447,0.023022,-0.182809,1.98691e-08,-4.56731e-09,0.3,-0.3,-6.71511,-16.5801,3.09876,179.448,-15.0564,2.54872,94.0535,-21.3026,881.081
0.06,-0.192335,-0.00766602,0.330352,0.0664505,0.0622742,-0.10429,0.05778,-0.100347,-0.100647,0.327447,0.023022,-0.182809,1.98691e-08,-4.56731e-09,0.3,-0.3,-6.92372,-16.9878,3.04588,179.683,-15.3629,2.47288,94.0464,-21.3041,880.601
0.061,-0.192335,-0.00766602,0.330352,0.0664505,0.0622742,-0.10429,0.05778,-0.100347,-0.100647,0.327447,0.023022,-0.182809,1.98691e-08,-4.56731e-09,0.3,-0.3,-7.13268,-17.3926,2.98402,179.92,-15.6677,2.38784,94.0394,-21.3057,880.111
0.062,-0.192335,-0.00766602,0.330352,0.0664505,0.0622742,-0.10429,0.05778,-0.100347,-0.100647,0.327447,0.023022,-0.182809,1.98691e-08,-4.56731e-09,0.3,-0.3,-7.34178,-17.7941,2.91276,180.158,-15.9705,2.29323,94.0323,-21.3073,879.611
0.063,-0.192335,-0.00766602,0.330352,0.0664505,0.0622742,-0.10429,0.05778,-0.100347,-0.100647,0.327447,0.023022,-0.182809,1.98691e-08,-4.56731e-09,0.3,-0.3,-7.55081,-18.1921,2.8317,180.396,-16.2712,2.18867,94.0253,-21.309,879.101
0.064,-0.192335,-0.00766602,0.330352,0.0664505,0.0622742,-0.10429,0.05778,-0.100347,-0.100647,0.327447,0.023022,-0.182809,1.98691e-08,-4.56731e-09,0.3,-0.3,-7.75957,-18.5861,2.74041,180.635,-16.5694,2.07378,94.0182,-21.3107,878.582
0.065,-0.192335,-0.00766602,0.330352,0.0664505,0.0622742,-0.10429,0.05778,-0.100347,-0.100647,0.327447,0.023022,-0.182809,1.98691e-08,-4.56731e-09,0.3,-0.3,-7.96783,-18.9758,2.63847,180.874,-16.8648,1.94816,94.0112,-21.3125,878.054
0.066,-0.192335,-0.00766602,0.330352,0.0664505,0.0622742,-0.10429,0.05778,-0.100347,-0.100647,0.327447,0.023022,-0.182809,1.98691e-08,-4.56731e-09,0.3,-0.3,-8.17538,-19.361,2.52544,181.113,-17.1573,1.81142,94.0042,-21.3143,877.516
0.067,-0.192335,-0.00766602,0.330352,0.0664505,0.0622742,-0.10429,0.05778,-0.100347,-0.100647,0.327447,0.023022,-0.182809,1.98691e-08,-4.56731e-09,0.3,-0.3,-8.38199,-19.7413,2.40088,181.352,-17.4465,1.66313,93.9971,-21.3162,876.968
0.068,-0.192335,-0.00766602,0.330352,0.0664505,0.0622742,-0.10429,0.05778,-0.100347,-0.100647,0.327447,0.023022,-0.182809,1.98691e-08,-4.56731e-09,0.3,-0.3,-8.58743,-20.1165,2.26432,181.59,-17.7322,1.50288,93.99,-21.3181,876.41
0.069,-0.192335,-0.00766602,0.330352,0.0664505,0.0622742,-0.10429,0.05778,-0.100347,-0.100647,0.327447,0.023022,-0.182809,1.98691e-08,-4.56731e-09,0.3,-0.3,-8.79147,-20.4861,2.11531,181.827,-18.0141,1.33025,93.9829,-21.3201,875.843
0.07,-0.192335,-0.00766602,0.330352,0.0664505,0.0622742,-0.10429,0.05778,-0.100347,-0.100647,0.327447,0.023022,-0.182809,1.98691e-08,-4.56731e-09,0.3,-0.3,-8.99388,-20.8499,1.95338,182.063,-18.292,1.1448,93.9758,-21.3222,875.267
0.071,-0.192335,-0.00766602,0.330352,0.0664505,0.0622742,-0.10429,0.05778,-0.100347,-0.100647,0.327447,0.023022,-0.182809,1.98691e-08,-4.56731e-09,0.3,-0.3,-9.19441,-21.2076,1.77805,182.297,-18.5656,0.946108,93.9687,-21.3244,874.68
0.072,-0.192335,-0.00766602,0.330352,0.0664505,0.0622742,-0.10429,0.05778,-0.100347,-0.100647,0.327447,0.023022,-0.182809,1.98691e-08,-4.56731e-09,0.3,-0.3,-9.39416,-21.5575,1.58888,182.42,-18.663,0.787148,93.9497,-21.3209,874.096
0.073,-0.192335,-0.00766602,0.330352,0.0664505,0.0622742,-0.10429,0.05778,-0.100347,-0.100647,0.327447,0.023022,-0.182809,1.98691e-08,-4.56731e-09,0.3,-0.3,-9.59146,-21.8995,1.4012,182.504,-18.701,0.623726,93.9246,-21.3129,873.513
0.074,-0.192335,-0.00766602,0.330352,0.0664505,0.0622742,-0.10429,0.05778,-0.100347,-0.100647,0.327447,0.023022,-0.182809,1.98691e-08,-4.56731e-09,0.3,-0.3,-9.79612,-22.231,1.21047,182.581,-18.7355,0.458706,93.8961,-21.3062,872.934
0.075,-0.192335,-0.00766602,0.330352,0.0664505,0.0622742,-0.10429,0.05778,-0.100347,-0.100647,0.327447,0.023022,-0.182809,1.98691e-08,-4.56731e-09,0.3,-0.3,-10.0125,-22.5499,1.02339,182.58,-18.7354,0.439611,93.8489,-21.277,872.419
0.076,-0.192335,-0.00766602,0.330352,0.0664505,0.0622742,-0.10429,0.05778,-0.100347,-0.100647,0.327447,0.023022,-0.182809,1.98691e-08,-4.56731e-09,0.3,-0.3,-10.2142,-22.8581,0.890364,182.58,-18.7354,0.440466,93.8005,-21.2468,871.931
0.077,-0.192335,-0.00766602,0.330352,0.0664505,0.0622742,-0.10429,0.05778,-0.100347,-0.100647,0.327447,0.023022,-0.182809,1.98691e-08,-4.56731e-09,0.3,-0.3,-10.4032,-23.1357,0.771456,182.58,-18.7354,0.460272,93.7506,-21.216,871.468
0.078,-0.192335,-0.00766602,0.330352,0.0664505,0.0622742,-0.10429,0.05778,-0.100347,-0.100647,0.327447,0.023022,-0.182809,1.98691e-08,-4.56731e-09,0.3,-0.3,-10.5776,-23.3796,0.669829,182.581,-18.7354,0.477955,93.697,-21.1858,871.026
0.079,-0.192335,-0.00766602,0.330352,0.0664505,0.0622742,-0.10429,0.05778,-0.100347,-0.100647,0.327447,0.023022,-0.182809,1.98691e-08,-4.56731e-09,0.3,-0.3,-10.7444,-23.5919,0.583284,182.581,-18.7354,0.493671,93.6395,-21.1563,870.605
0.08,-0.192335,-0.00766602,0.330352,0.0664505,0.0622742,-0.10429,0.05778,-0.100347,-0.100647,0.327447,0.023022,-0.182809,1.98691e-08,-4.56731e-09,0.3,-0.3,-10.7845,-23.6681,0.569403,182.581,-18.7354,0.507298,93.589,-21.1189,870.219
0.081,-0.192335,-0.00766602,0.330352,0.0664505,0.0622742,-0.10429,0.05778,-0.100347,-0.100647,0.327447,0.023022,-0.182809,1.98691e-08,-4.56731e-09,0.3,-0.3,-10.7223,-23.6496,0.567673,182.581,-18.7354,0.520182,93.5367,-21.0829,869.862
0.082,-0.192335,-0.00766602,0.330352,0.0664505,0.0622742,-0.10429,0.05778,-0.100347,-0.100647,0.327447,0.023022,-0.182809,1.98691e-08,-4.56731e-09,0.3,-0.3,-10.6734,-23.6321,0.561025,182.581,-18.7354,0.532534,93.4826,-21.0489,869.525
0.083,-0.192335,-0.00766602,0.330352,0.0664505,0.0622742,-0.10429,0.05778,-0.100347,-0.100647,0.327447,0.023022,-0.182809,1.98691e-08,-4.56731e-09,0.3,-0.3,-10.6485,-23.5942,0.548409,182.581,-18.7354,0.54442,93.4244,-21.0164,869.205
0.084,-0.192335,-0.00766602,0.330352,0.0664505,0.0622742,-0.10429,0.05778,-0.100347,-0.100647,0.327447,0.023022,-0.182809,1.98691e-08,-4.56731e-09,0.3,-0.3,-10.693,-23.5278,0.536178,182.581,-18.7354,0.555155,93.3624,-20.9852,868.904
0.085,-0.192335,-0.00766602,0.330352,0.0664505,0.0622742,-0.10429,0.05778,-0.100347,-0.100647,0.327447,0.023022,-0.182809,1.98691e-08,-4.56731e-09,0.3,-0.3,-10.7633,-23.4376,0.531631,182.581,-18.7354,0.564623,93.296,-20.9552,868.621
0.086,-0.192335,-0.00766602,0.330352,0.0664505,0.0622742,-0.10429,0.05778,-0.100347,-0.100647,0.327447,0.023022,-0.182809,1.98691e-08,-4.56731e-09,0.3,-0.3,-10.8513,-23.3228,0.534919,182.581,-18.7354,0.572802,93.225,-20.9264,868.356
0.087,-0.192335,-0.00766602,0.330352,0.0664505,0.0622742,-0.10429,0.05778,-0.100347,-0.100647,0.327447,0.023022,-0.182809,1.98691e-08,-4.56731e-09,0.3,-0.3,-10.9523,-23.1827,0.545823,182.581,-18.7354,0.579706,93.1494,-20.8988,868.109
0.088,-0.192335,-0.00766602,0.330352,0.0664505,0.0622742,-0.10429,0.05778,-0.100347,-0.100647,0.327447,0.023022,-0.182809,1.98691e-08,-4.56731e-09,0.3,-0.3,-11.0635,-23.0174,0.563819,182.581,-18.7353,0.585375,93.0692,-20.8724,867.879
0.089,-0.192335,-0.00766602,0.330352,0.0664505,0.0622742,-0.10429,0.05778,-0.100347,-0.100647,0.327447,0.023022,-0.182809,1.98691e-08,-4.56731e-09,0.3,-0.3,-11.1828,-22.8278,0.587817,182.582,-18.7353,0.589725,92.9843,-20.8476,867.666
0.09,-0.192335,-0.00766602,0.330352,0.0664505,0.0622742,-0.10429,0.05778,-0.100347,-0.100647,0.327447,0.023022,-0.182809,1.98691e-08,-4.56731e-09,0.3,-0.3,-11.3086,-22.6199,0.615526,182.582,-18.7353,0.592993,92.895,-20.8249,867.469
0.091,-0.192335,-0.00766602,0.330352,0.0664505,0.0622742,-0.10429,0.05778,-0.100347,-0.100647,0.327447,0.023022,-0.182809,1.98691e-08,-4.56731e-09,0.3,-0.3,-11.4396,-22.3967,0.645438,182.582,-18.7353,0.595175,92.8014,-20.8041,867.285
0.092,-0.192335,-0.00766602,0.330352,0.0664505,0.0622742,-0.10429,0.05778,-0.100347,-0.100647,0.327447,0.023022,-0.182809,1.98691e-08,-4.56731e-09,0.3,-0.3,-11.5761,-22.161,0.675008,182.582,-18.7353,0.59623,92.7036,-20.7853,867.112
0.093,-0.192335,-0.00766602,0.330352,0.0664505,0.0622742,-0.10429,0.05778,-0.100347,-0.100647,0.327447,0.023022,-0.182809,1.98691e-08,-4.56731e-09,0.3,-0.3,-11.7183,-21.9153,0.702109,182.582,-18.7353,0.596128,92.6016,-20.7691,866.951
0.094,-0.192335,-0.00766602,0.330352,0.0664505,0.0622742,-0.10429,0.05778,-0.100347,-0.100647,0.327447,0.023022,-0.182809,1.98691e-08,-4.56731e-09,0.3,-0.3,-11.866,-21.6625,0.725783,182.582,-18.7353,0.59506,92.4957,-20.7562,866.802
0.095,-0.192335,-0.00766602,0.330352,0.0664505,0.0622742,-0.10429,0.05778,-0.100347,-0.100647,0.327447,0.023022,-0.182809,1.98691e-08,-4.56731e-09,0.3,-0.3,-12.0184,-21.4058,0.746121,182.582,-18.7353,0.59297,92.3857,-20.7468,866.663
0.096,-0.192335,-0.00766602,0.330352,0.0664505,0.0622742,-0.10429,0.05778,-0.100347,-0.100647,0.327447,0.023022,-0.182809,1.98691e-08,-4.56731e-09,0.3,-0.3,-12.1745,-21.1471,0.761282,182.58,-18.7347,0.589846,92.2716,-20.7411,866.534
0.097,-0.192335,-0.00766602,0.330352,0.0664505,0.0622742,-0.10429,0.05778,-0.100347,-0.100647,0.327447,0.023022,-0.182809,1.98691e-08,-4.56731e-09,0.3,-0.3,-12.3353,-20.8888,0.770042,182.574,-18.7322,0.585938,92.1534,-20.739,866.415
0.098,-0.192335,-0.00766602,0.330352,0.0664505,0.0622742,-0.10429,0.05778,-0.100347,-0.100647,0.327447,0.023022,-0.182809,1.98691e-08,-4.56731e-09,0.3,-0.3,-12.5014,-20.6307,0.771328,182.565,-18.7279,0.581244,92.0308,-20.7406,866.306
0.099,-0.192335,-0.00766602,0.330352,0.0664505,0.0622742,-0.10429,0.05778,-0.100347,-0.100647,0.327447,0.023022,-0.182809,1.98691e-08,-4.56731e-09,0.3,-0.3,-12.6732,-20.3713,0.763959,182.551,-18.7221,0.575691,91.9041,-20.7458,866.206
0.1,-0.192335,-0.00766602,0.330352,0.0664505,0.0622742,-0.10429,0.05778,-0.100347,-0.100647,0.327447,0.023022,-0.182809,1.98691e-08,-4.56731e-09,0.3,-0.3,-12.8518,-20.1095,0.747641,182.536,-18.7155,0.569153,91.7733,-20.7547,866.117
0.101,-0.192335,-0.00766602,0.330352,0.0664505,0.0622742,-0.10429,0.05778,-0.100347,-0.100647,0.327447,0.023022,-0.182809,1.98691e-08,-4.56731e-09,0.3,-0.3,-13.0374,-19.8434,0.721894,182.521,-18.7086,0.561554,91.6386,-20.7674,866.037
0.102,-0.192335,-0.00766602,0.330352,0.0664505,0.0622742,-0.10429,0.05778,-0.100347,-0.100647,0.327447,0.023022,-0.182809,1.98691e-08,-4.56731e-09,0.3,-0.3,-13.2302,-19.5719,0.686222,182.505,-18.7017,0.552841,91.4999,-20.7838,865.967
0.103,-0.192335,-0.00766602,0.330352,0.0664505,0.0622742,-0.10429,0.05778,-0.100347,-0.100647,0.327447,0.023022,-0.182809,1.98691e-08,-4.56731e-09,0.3,-0.3,-13.4304,-19.294,0.64018,182.49,-18.6949,0.542957,91.3574,-20.804,865.907
0.104,-0.192335,-0.00766602,0.330352,0.0664505,0.0622742,-0.10429,0.05778,-0.100347,-0.100647,0.327447,0.023022,-0.182809,1.98691e-08,-4.56731e-09,0.3,-0.3,-13.6381,-19.0115,0.585298,182.453,-18.6792,0.534891,91.2149,-20.8284,865.854
0.105,-0.192335,-0.00766602,0.330352,0.0664505,0.0622742,-0.10429,0.05778,-0.100347,-0.100647,0.327447,0.023022,-0.182809,1.98691e-08,-4.56731e-09,0.3,-0.3,-13.7148,-18.8946,0.593991,182.421,-18.6648,0.534639,91.0828,-20.8668,865.82
0.106,-0.192335,-0.00766602,0.330352,0.0664505,0.0622742,-0.10429,0.05778,-0.100347,-0.100647,0.327447,0.023022,-0.182809,1.98691e-08,-4.56731e-09,0.3,-0.3,-13.6839,-18.8997,0.608344,182.387,-18.65,0.525724,90.9534,-20.9123,865.8
0.107,-0.192335,-0.00766602,0.330352,0.0664505,0.0622742,-0.10429,0.05778,-0.100347,-0.100647,0.327447,0.023022,-0.182809,1.98691e-08,-4.56731e-09,0.3,-0.3,-13.6507,-18.8999,0.608543,182.381,-18.6366,0.515213,90.8277,-20.9603,865.788
0.108,-0.192335,-0.00766602,0.330352,0.0664505,0.0622742,-0.10429,0.05778,-0.100347,-0.100647,0.327447,0.023022,-0.182809,1.98691e-08,-4.56731e-09,0.3,-0.3,-13.6171,-18.8983,0.603965,182.402,-18.6263,0.516489,90.7057,-21.0093,865.786
0.109,-0.192335,-0.00766602,0.330352,0.0664505,0.0622742,-0.10429,0.05778,-0.100347,-0.100647,0.327447,0.023022,-0.182809,1.98691e-08,-4.56731e-09,0.3,-0.3,-13.5828,-18.8951,0.597135,182.426,-18.6147,0.522005,90.5855,-21.0588,865.794
0.11,-0.192335,-0.00766602,0.330352,0.0664505,0.0622742,-0.10429,0.05778,-0.100347,-0.100647,0.327447,0.023022,-0.182809,1.98691e-08,-4.56731e-09,0.3,-0.3,-13.5483,-18.8905,0.589031,182.438,-18.5909,0.5308,90.4661,-21.1072,865.806
0.111,-0.192335,-0.00766602,0.330352,0.0664505,0.0622742,-0.10429,0.05778,-0.100347,-0.100647,0.327447,0.023022,-0.182809,1.98691e-08,-4.56731e-09,0.3,-0.3,-13.5141,-18.8846,0.578745,182.437,-18.5533,0.544224,90.3469,-21.1535,865.82
0.112,-0.192335,-0.00766602,0.330352,0.0664505,0.0622742,-0.10429,0.05778,-0.100347,-0.100647,0.327447,0.023022,-0.182809,1.98691e-08,-4.56731e-09,0.3,-0.3,-13.4799,-18.877,0.567511,182.427,-18.507,0.560453,90.228,-21.198,865.837
0.113,-0.192335,-0.00766602,0.330352,0.0664505,0.0622742,-0.10429,0.05778,-0.100347,-0.100647,0.327447,0.023022,-0.182809,1.98691e-08,-4.56731e-09,0.3,-0.3,-13.4464,-18.8685,0.555864,182.411,-18.4564,0.578369,90.1096,-21.241,865.854
0.114,-0.192335,-0.00766602,0.330352,0.0664505,0.0622742,-0.10429,0.05778,-0.100347,-0.100647,0.327447,0.023022,-0.182809,1.98691e-08,-4.56731e-09,0.3,-0.3,-13.4138,-18.8593,0.544502,182.394,-18.4043,0.597218,89.9917,-21.2826,865.871
0.115,-0.192335,-0.00766602,0.330352,0.0664505,0.0622742,-0.10429,0.05778,-0.100347,-0.100647,0.327447,0.023022,-0.182809,1.98691e-08,-4.56731e-09,0.3,-0.3,-13.3821,-18.8494,0.533893,182.376,-18.353,0.616535,89.8745,-21.3228,865.888
0.116,-0.192335,-0.00766602,0.330352,0.0664505,0.0622742,-0.10429,0.05778,-0.100347,-0.100647,0.327447,0.023022,-0.182809,1.98691e-08,-4.56731e-09,0.3,-0.3,-13.3514,-18.839,0.524284,182.362,-18.3042,0.636019,89.7581,-21.3618,865.905
0.117,-0.192335,-0.00766602,0.330352,0.0664505,0.0622742,-0.10429,0.05778,-0.100347,-0.100647,0.327447,0.023022,-0.182809,1.98691e-08,-4.56731e-09,0.3,-0.3,-13.3217,-18.8282,0.515786,182.351,-18.2591,0.655476,89.6425,-21.3996,865.921
0.118,-0.192335,-0.00766602,0.330352,0.0664505,0.0622742,-0.10429,0.05778,-0.100347,-0.100647,0.327447,0.023022,-0.182809,1.98691e-08,-4.56731e-09,0.3,-0.3,-13.2928,-18.8171,0.508412,182.345,-18.2186,0.674791,89.5278,-21.4363,865.937
0.119,-0.192335,-0.00766602,0.330352,0.0664505,0.0622742,-0.10429,0.05778,-0.100347,-0.100647,0.327447,0.023022,-0.182809,1.98691e-08,-4.56731e-09,0.3,-0.3,-13.2648,-18.8058,0.50211,182.346,-18.1833,0.693937,89.4142,-21.4721,865.952
0.12,-0.192335,-0.00766602,0.330352,0.0664505,0.0622742,-0.10429,0.05778,-0.100347,-0.100647,0.327447,0.023022,-0.182809,1.98691e-08,-4.56731e-09,0.3,-0.3,-13.2375,-18.7944,0.496786,182.354,-18.1534,0.712917,89.3015,-21.5069,865.967
0.121,-0.192335,-0.00766602,0.330352,0.0664505,0.0622742,-0.10429,0.05778,-0.100347,-0.100647,0.327447,0.023022,-0.182809,1.98691e-08,-4.56731e-09,0.3,-0.3,-13.2109,-18.7828,0.492316,182.368,-18.1292,0.731783,89.1899,-21.5408,865.981
0.122,-0.192335,-0.00766602,0.330352,0.0664505,0.0622742,-0.10429,0.05778,-0.100347,-0.100647,0.327447,0.023022,-0.182809,1.98691e-08,-4.56731e-09,0.3,-0.3,-13.1849,-18.7712,0.488561,182.391,-18.1105,0.750595,89.0793,-21.5738,865.995
0.123,-0.192335,-0.00766602,0.330352,0.0664505,0.0622742,-0.10429,0.05778,-0.100347,-0.100647,0.327447,0.023022,-0.182809,1.98691e-08,-4.56731e-09,0.3,-0.3,-13.1597,-18.7598,0.485323,182.42,-18.0972,0.769432,88.9697,-21.6061,866.008
0.124,-0.192335,-0.00766602,0.330352,0.0664505,0.0622742,-0.10429,0.05778,-0.100347,-0.100647,0.327447,0.023022,-0.182809,1.98691e-08,-4.56731e-09,0.3,-0.3,-13.1349,-18.7484,0.48266,182.457,-18.089,0.788414,88.8611,-21.6374,866.022
0.125,-0.192335,-0.00766602,0.330352,0.0664505,0.0622742,-0.10429,0.05778,-0.100347,-0.100647,0.327447,0.023022,-0.182809,1.98691e-08,-4.56731e-09,0.3,-0.3,-13.1106,-18.7372,0.480291,182.5,-18.0856,0.807596,88.7535,-21.668,866.036
0.126,-0.192335,-0.00766602,0.330352,0.0664505,0.0622742,-0.10429,0.05778,-0.100347,-0.100647,0.327447,0.023022,-0.182809,1.98691e-08,-4.56731e-09,0.3,-0.3,-13.0866,-18.7259,0.478302,182.55,-18.0866,0.827068,88.6468,-21.6978,866.05
0.127,-0.192335,-0.00766602,0.330352,0.0664505,0.0622742,-0.10429,0.05778,-0.100347,-0.100647,0.327447,0.023022,-0.182809,1.98691e-08,-4.56731e-09,0.3,-0.3,-13.063,-18.7149,0.476554,182.606,-18.0915,0.846874,88.541,-21.7266,866.064
0.128,-0.192335,-0.00766602,0.330352,0.0664505,0.0622742,-0.10429,0.05778,-0.100347,-0.100647,0.327447,0.023022,-0.182809,1.98691e-08,-4.56731e-09,0.3,-0.3,-13.0401,-18.7042,0.474934,182.667,-18.0998,0.867022,88.436,-21.7547,866.078
0.129,-0.192335,-0.00766602,0.330352,0.0664505,0.0622742,-0.10429,0.05778,-0.100347,-0.100647,0.327447,0.023022,-0.182809,1.98691e-08,-4.56731e-09,0.3,-0.3,-13.0176,-18.6936,0.473484,182.734,-18.1111,0.887489,88.3318,-21.7819,866.093
0.13,-0.192335,-0.00766602,0.330352,0.0664505,0.0622742,-0.10429,0.05778,-0.100347,-0.100647,0.327447,0.023022,-0.182809,1.98691e-08,-4.56731e-09,0.3,-0.3,-12.9953,-18.6831,0.472256,182.805,-18.1248,0.908104,88.2282,-21.8082,866.109
0.131,-0.192335,-0.00766602,0.330352,0.0664505,0.0622742,-0.10429,0.05778,-0.100347,-0.100647,0.327447,0.023022,-0.182809,1.98691e-08,-4.56731e-09,0.3,-0.3,-12.9735,-18.6728,0.470906,182.88,-18.1406,0.928963,88.1254,-21.8335,866.124
0.132,-0.192335,-0.00766602,0.330352,0.0664505,0.0622742,-0.10429,0.05778,-0.100347,-0.100647,0.327447,0.023022,-0.182809,1.98691e-08,-4.56731e-09,0.3,-0.3,-12.9522,-18.6627,0.469306,182.959,-18.1578,0.949764,88.0233,-21.8578,866.14
0.133,-0.192335,-0.00766602,0.330352,0.0664505,0.0622742,-0.10429,0.05778,-0.100347,-0.100647,0.327447,0.023022,-0.182809,1.98691e-08,-4.56731e-09,0.3,-0.3,-12.9322,-18.6534,0.467393,183.041,-18.1762,0.970245,87.9218,-21.8811,866.155
0.134,-0.192335,-0.00766602,0.330352,0.0664505,0.0622742,-0.10429,0.05778,-0.100347,-0.100647,0.327447,0.023022,-0.182809,1.98691e-08,-4.56731e-09,0.3,-0.3,-12.9156,-18.6515,0.47645,183.124,-18.1954,0.994762,87.8226,-21.9034,866.173
0.135,-0.192335,-0.00766602,0.330352,0.0664505,0.0622742,-0.10429,0.05778,-0.100347,-0.100647,0.327447,0.023022,-0.182809,1.98691e-08,-4.56731e-09,0.3,-0.3,-12.898,-18.6712,0.493766,183.21,-18.2149,1.02082,87.7246,-21.9247,866.193
0.136,-0.192335,-0.00766602,0.330352,0.0664505,0.0622742,-0.10429,0.05778,-0.100347,-0.100647,0.327447,0.023022,-0.182809,1.98691e-08,-4.56731e-09,0.3,-0.3,-12.8812,-18.6891,0.507223,183.298,-18.2345,1.04846,87.628,-21.9452,866.215
0.137,-0.192335,-0.00766602,0.330352,0.0664505,0.0622742,-0.10429,0.05778,-0.100347,-0.100647,0.327447,0.023022,-0.182809,1.98691e-08,-4.56731e-09,0.3,-0.3,-12.8651,-18.7055,0.517795,183.387,-18.2543,1.07736,87.5328,-21.9648,866.239
0.138,-0.192335,-0.00766602,0.330352,0.0664505,0.0622742,-0.10429,0.05778,-0.100347,-0.100647,0.327447,0.023022,-0.182809,1.98691e-08,-4.56731e-09,0.3,-0.3,-12.8498,-18.7206,0.52633,183.477,-18.2743,1.1071,87.439,-21.9834,866.263
0.139,-0.192335,-0.00766602,0.330352,0.0664505,0.0622742,-0.10429,0.05778,-0.100347,-0.100647,0.327447,0.023022,-0.182809,1.98691e-08,-4.56731e-09,0.3,-0.3,-12.835,-18.7346,0.533511,183.568,-18.2947,1.1373,87.3468,-22.001,866.288
0.14,-0.192335,-0.00766602,0.330352,0.0664505,0.0622742,-0.10429,0.05778,-0.100347,-0.100647,0.327447,0.023022,-0.182809,1.98691e-08,-4.56731e-09,0.3,-0.3,-12.8206,-18.7477,0.539914,183.661,-18.3155,1.1674,87.256,-22.0175,866.314
0.141,-0.192335,-0.00766602,0.330352,0.0664505,0.0622742,-0.10429,0.05778,-0.100347,-0.100647,0.327447,0.023022,-0.182809,1.98691e-08,-4.56731e-09,0.3,-0.3,-12.8065,-18.7598,0.545797,183.754,-18.3368,1.1972,87.1667,-22.033,866.34
0.142,-0.192335,-0.00766602,0.330352,0.0664505,0.0622742,-0.10429,0.05778,-0.100347,-0.100647,0.327447,0.023022,-0.182809,1.98691e-08,-4.56731e-09,0.3,-0.3,-12.7928,-18.771,0.551202,183.849,-18.3586,1.22636,87.079,-22.0474,866.364
0.143,-0.192335,-0.00766602,0.330352,0.0664505,0.0622742,-0.10429,0.05778,-0.100347,-0.100647,0.327447,0.023022,-0.182809,1.98691e-08,-4.56731e-09,0.3,-0.3,-12.7793,-18.7814,0.556421,183.945,-18.3809,1.2547,86.9928,-22.0606,866.389
0.144,-0.192335,-0.00766602,0.330352,0.0664505,0.0622742,-0.10429,0.05778,-0.100347,-0.100647,0.327447,0.023022,-0.182809,1.98691e-08,-4.56731e-09,0.3,-0.3,-12.766,-18.791,0.561664,184.042,-18.4037,1.28214,86.9081,-22.0728,866.412
0.145,-0.192335,-0.00766602,0.330352,0.0664505,0.0622742,-0.10429,0.05778,-0.100347,-0.100647,0.327447,0.023022,-0.182809,1.98691e-08,-4.56731e-09,0.3,-0.3,-12.753,-18.7999,0.56704,184.14,-18.4269,1.30864,86.8249,-22.0838,866.434
0.146,-0.192335,-0.00766602,0.330352,0.0664505,0.0622742,-0.10429,0.05778,-0.100347,-0.100647,0.327447,0.023022,-0.182809,1.98691e-08,-4.56731e-09,0.3,-0.3,-12.7401,-18.8081,0.572583,184.238,-18.4504,1.33418,86.7432,-22.0937,866.456
0.147,-0.192335,-0.00766602,0.330352,0.0664505,0.0622742,-0.10429,0.05778,-0.100347,-0.100647,0.327447,0.023022,-0.182809,1.98691e-08,-4.56731e-09,0.3,-0.3,-12.7274,-18.8159,0.578283,184.337,-18.4741,1.35875,86.663,-22.1025,866.477
0.148,-0.192335,-0.00766602,0.330352,0.0664505,0.0622742,-0.10429,0.05778,-0.100347,-0.100647,0.327447,0.023022,-0.182809,1.98691e-08,-4.56731e-09,0.3,-0.3,-12.7148,-18.8232,0.5841,184.435,-18.4979,1.38235,86.5842,-22.1102,866.497
0.149,-0.192335,-0.00766602,0.330352,0.0664505,0.0622742,-0.10429,0.05778,-0.100347,-0.100647,0.327447,0.023022,-0.182809,1.98691e-08,-4.56731e-09,0.3,-0.3,-12.7021,-18.8301,0.589979,184.533,-18.5217,1.40499,86.5069,-22.1167,866.516
0.15,-0.192335,-0.00766602,0.330352,0.0664505,0.0622742,-0.10429,0.05778,-0.100347,-0.100647,0.327447,0.023022,-0.182809,1.98691e-08,-4.56731e-09,0.3,-0.3,-12.6894,-18.8367,0.595854,184.631,-18.5453,1.42669,86.4311,-22.1222,866.534
0.151,-0.192335,-0.00766602,0.330352,0.0664505,0.0622742,-0.10429,0.05778,-0.100347,-0.100647,0.327447,0.023022,-0.182809,1.98691e-08,-4.56731e-09,0.3,-0.3,-12.6767,-18.8431,0.601659,184.729,-18.5687,1.44745,86.3566,-22.1265,866.552
0.152,-0.192335,-0.00766602,0.330352,0.0664505,0.0622742,-0.10429,0.05778,-0.100347,-0.100647,0.327447,0.023022,-0.182809,1.98691e-08,-4.56731e-09,0.3,-0.3,-12.6632,-18.8498,0.607367,184.825,-18.5917,1.46729,86.2834,-22.1297,866.569
0.153,-0.192335,-0.00766602,0.330352,0.0664505,0.0622742,-0.10429,0.05778,-0.100347,-0.100647,0.327447,0.023022,-0.182809,1.98691e-08,-4.56731e-09,0.3,-0.3,-12.6493,-18.8565,0.612832,184.92,-18.6142,1.48625,86.2116,-22.1317,866.585
0.154,-0.192335,-0.00766602,0.330352,0.0664505,0.0622742,-0.10429,0.05778,-0.100347,-0.100647,0.327447,0.023022,-0.182809,1.98691e-08,-4.56731e-09,0.3,-0.3,-12.635,-18.8632,0.618036,185.015,-18.6362,1.50435,86.1411,-22.1326,866.601
0.155,-0.192335,-0.00766602,0.330352,0.0664505,0.0622742,-0.10429,0.05778,-0.100347,-0.100647,0.327447,0.023022,-0.182809,1.98691e-08,-4.56731e-09,0.3,-0.3,-12.6201,-18.8702,0.622954,185.107,-18.6574,1.52161,86.0719,-22.1323,866.616
0.156,-0.192335,-0.00766602,0.330352,0.0664505,0.0622742,-0.10429,0.05778,-0.100347,-0.100647,0.327447,0.023022,-0.182809,1.98691e-08,-4.56731e-09,0.3,-0.3,-12.6036,-18.8776,0.62747,185.199,-18.678,1.5381,86.0041,-22.1309,866.63
0.157,-0.192335,-0.00766602,0.330352,0.0664505,0.0622742,-0.10429,0.05778,-0.100347,-0.100647,0.327447,0.023022,-0.182809,1.98691e-08,-4.56731e-09,0.3,-0.3,-12.5871,-18.8851,0.631611,185.289,-18.6979,1.55381,85.9375,-22.1283,866.644
0.158,-0.192335,-0.00766602,0.330352,0.0664505,0.0622742,-0.10429,0.05778,-0.100347,-0.100647,0.327447,0.023022,-0.182809,1.98691e-08,-4.56731e-09,0.3,-0.3,-12.5692,-18.8931,0.635354,185.377,-18.717,1.56879,85.8721,-22.1245,866.657
0.159,-0.192335,-0.00766602,0.330352,0.0664505,0.0622742,-0.10429,0.05778,-0.100347,-0.100647,0.327447,0.023022,-0.182809,1.98691e-08,-4.56731e-09,0.3,-0.3,-12.5507,-18.9013,0.638632,185.464,-18.7353,1.58307,85.808,-22.1196,866.669
0.16,-0.192335,-0.00766602,0.330352,0.0664505,0.0622742,-0.10429,0.05778,-0.100347,-0.100647,0.327447,0.023022,-0.182809,1.98691e-08,-4.56731e-09,0.3,-0.3,-12.5316,-18.9098,0.641463,185.55,-18.7529,1.59669,85.7451,-22.1135,866.681
0.161,-0.192335,-0.00766602,0.330352,0.0664505,0.0622742,-0.10429,0.05778,-0.100347,-0.100647,0.327447,0.023022,-0.182809,1.98691e-08,-4.56731e-09,0.3,-0.3,-12.5113,-18.9188,0.643887,185.634,-18.7697,1.60967,85.6835,-22.1063,866.693
0.162,-0.192335,-0.00766602,0.330352,0.0664505,0.0622742,-0.10429,0.05778,-0.100347,-0.100647,0.327447,0.023022,-0.182809,1.98691e-08,-4.56731e-09,0.3,-0.3,-12.4903,-18.9281,0.64583,185.716,-18.7858,1.62204,85.6231,-22.0978,866.704
0.163,-0.192335,-0.00766602,0.330352,0.0664505,0.0622742,-0.10429,0.05778,-0.100347,-0.100647,0.327447,0.023022,-0.182809,1.98691e-08,-4.56731e-09,0.3,-0.3,-12.4688,-18.9375,0.64734,185.797,-18.8013,1.63384,85.564,-22.0882,866.714
0.164,-0.192335,-0.00766602,0.330352,0.0664505,0.0622742,-0.10429,0.05778,-0.100347,-0.100647,0.327447,0.023022,-0.182809,1.98691e-08,-4.56731e-09,0.3,-0.3,-12.4468,-18.947,0.648441,185.876,-18.8162,1.64509,85.5061,-22.0774,866.724
0.165,-0.192335,-0.00766602,0.330352,0.0664505,0.0622742,-0.10429,0.05778,-0.100347,-0.100647,0.327447,0.023022,-0.182809,1.98691e-08,-4.56731e-09,0.3,-0.3,-12.4239,-18.9575,0.649172,185.954,-18.8306,1.65581,85.4494,-22.0654,866.734
0.166,-0.192335,-0.00766602,0.330352,0.0664505,0.0622742,-0.10429,0.05778,-0.100347,-0.100647,0.327447,0.023022,-0.182809,1.98691e-08,-4.56731e-09,0.3,-0.3,-12.4004,-18.9681,0.649458,186.03,-18.8445,1.66603,85.3939,-22.0523,866.743
0.167,-0.192335,-0.00766602,0.330352,0.0664505,0.0622742,-0.10429,0.05778,-0.100347,-0.100647,0.327447,0.023022,-0.182809,1.98691e-08,-4.56731e-09,0.3,-0.3,-12.3765,-18.9786,0.649375,186.105,-18.8581,1.67579,85.3397,-22.038,866.752
0.168,-0.192335,-0.00766602,0.330352,0.0664505,0.0622742,-0.10429,0.05778,-0.100347,-0.100647,0.327447,0.023022,-0.182809,1.98691e-08,-4.56731e-09,0.3,-0.3,-12.3523,-18.9893,0.648954,186.179,-18.8715,1.68509,85.2868,-22.0226,866.76
0.169,-0.192335,-0.00766602,0.330352,0.0664505,0.0622742,-0.10429,0.05778,-0.100347,-0.100647,0.327447,0.023022,-0.182809,1.98691e-08,-4.56731e-09,0.3,-0.3,-12.3277,-19,0.648206,186.252,-18.8848,1.69396,85.2351,-22.006,866.768
0.17,-0.192335,-0.00766602,0.330352,0.0664505,0.0622742,-0.10429,0.05778,-0.100347,-0.100647,0.327447,0.023022,-0.182809,1.98691e-08,-4.56731e-09,0.3,-0.3,-12.303,-19.0108,0.647148,186.324,-18.8981,1.7024,85.1846,-21.9883,866.776
0.171,-0.192335,-0.00766602,0.330352,0.0664505,0.0622742,-0.10429,0.05778,-0.100347,-0.100647,0.327447,0.023022,-0.182809,1.98691e-08,-4.56731e-09,0.3,-0.3,-12.2782,-19.0216,0.645793,186.395,-18.9114,1.71045,85.1354,-21.9695,866.783
0.172,-0.192335,-0.00766602,0.330352,0.0664505,0.0622742,-0.10429,0.05778,-0.100347,-0.100647,0.327447,0.023022,-0.182809,1.98691e-08,-4.56731e-09,0.3,-0.3,-12.2535,-19.0324,0.644154,186.465,-18.925,1.7181,85.0874,-21.9496,866.79
0.173,-0.192335,-0.00766602,0.330352,0.0664505,0.0622742,-0.10429,0.05778,-0.100347,-0.100647,0.327447,0.023022,-0.182809,1.98691e-08,-4.56731e-09,0.3,-0.3,-12.229,-19.0432,0.642262,186.534,-18.9389,1.72537,85.0407,-21.9286,866.797
0.174,-0.192335,-0.00766602,0.330352,0.0664505,0.0622742,-0.10429,0.05778,-0.100347,-0.100647,0.327447,0.023022,-0.182809,1.98691e-08,-4.56731e-09,0.3,-0.3,-12.204,-19.0543,0.640144,186.602,-18.9531,1.73226,84.9952,-21.9064,866.803
0.175,-0.192335,-0.00766602,0.330352,0.0664505,0.0622742,-0.10429,0.05778,-0.100347,-0.100647,0.327447,0.023022,-0.182809,1.98691e-08,-4.56731e-09,0.3,-0.3,-12.1791,-19.0652,0.63772,186.67,-18.9679,1.73879,84.951,-21.8832,866.808
0.176,-0.192335,-0.00766602,0.330352,0.0664505,0.0622742,-0.10429,0.05778,-0.100347,-0.100647,0.327447,0.023022,-0.182809,1.98691e-08,-4.56731e-09,0.3,-0.3,-12.1545,-19.0761,0.63503,186.736,-18.9833,1.74498,84.9081,-21.859,866.814
0.177,-0.192335,-0.00766602,0.330352,0.0664505,0.0622742,-0.10429,0.05778,-0.100347,-0.100647,0.327447,0.023022,-0.182809,1.98691e-08,-4.56731e-09,0.3,-0.3,-12.1302,-19.0874,0.632127,186.802,-18.9993,1.75081,84.8664,-21.8337,866.819
0.178,-0.192335,-0.00766602,0.330352,0.0664505,0.0622742,-0.10429,0.05778,-0.100347,-0.100647,0.327447,0.023022,-0.182809,1.98691e-08,-4.56731e-09,0.3,-0.3,-12.106,-19.0986,0.628922,186.867,-19.0162,1.7563,84.826,-21.8073,866.823
0.179,-0.192335,-0.00766602,0.330352,0.0664505,0.0622742,-0.10429,0.05778,-0.100347,-0.100647,0.327447,0.023022,-0.182809,1.98691e-08,-4.56731e-09,0.3,-0.3,-12.0819,-19.1096,0.62546,186.932,-19.034,1.76147,84.7868,-21.7799,866.827
0.18,-0.192335,-0.00766602,0.330352,0.0664505,0.0622742,-0.10429,0.05778,-0.100347,-0.100647,0.327447,0.023022,-0.182809,1.98691e-08,-4.56731e-09,0.3,-0.3,-12.0582,-19.1204,0.621771,186.995,-19.0526,1.76631,84.749,-21.7515,866.831
0.181,-0.192335,-0.00766602,0.330352,0.0664505,0.0622742,-0.10429,0.05778,-0.100347,-0.100647,0.327447,0.023022,-0.182809,1.98691e-08,-4.56731e-09,0.3,-0.3,-12.0349,-19.131,0.617851,187.058,-19.0723,1.77083,84.7123,-21.7221,866.834
0.182,-0.192335,-0.00766602,0.330352,0.0664505,0.0622742,-0.10429,0.05778,-0.100347,-0.100647,0.327447,0.023022,-0.182809,1.98691e-08,-4.56731e-09,0.3,-0.3,-12.0119,-19.1415,0.613702,187.12,-19.0931,1.77502,84.677,-21.6917,866.837
0.183,-0.192335,-0.00766602,0.330352,0.0664505,0.0622742,-0.10429,0.05778,-0.100347,-0.100647,0.327447,0.023022,-0.182809,1.98691e-08,-4.56731e-09,0.3,-0.3,-11.9893,-19.1519,0.609321,187.181,-19.1149,1.7789,84.6429,-21.6602,866.84
0.184,-0.192335,-0.00766602,0.330352,0.0664505,0.0622742,-0.10429,0.05778,-0.100347,-0.100647,0.327447,0.023022,-0.182809,1.98691e-08,-4.56731e-09,0.3,-0.3,-11.967,-19.162,0.60471,187.242,-19.1379,1.78245,84.61,-21.6278,866.842
0.185,-0.192335,-0.00766602,0.330352,0.0664505,0.0622742,-0.10429,0.05778,-0.100347,-0.100647,0.327447,0.023022,-0.182809,1.98691e-08,-4.56731e-09,0.3,-0.3,-11.9451,-19.1721,0.599865,187.301,-19.162,1.78569,84.5784,-21.5943,866.844
0.186,-0.192335,-0.00766602,0.330352,0.0664505,0.0622742,-0.10429,0.05778,-0.100347,-0.100647,0.327447,0.023022,-0.182809,1.98691e-08,-4.56731e-09,0.3,-0.3,-11.9236,-19.1819,0.594783,187.359,-19.1872,1.7886,84.5481,-21.5599,866.845
0.187,-0.192335,-0.00766602,0.330352,0.0664505,0.0622742,-0.10429,0.05778,-0.100347,-0.100647,0.327447,0.023022,-0.182809,1.98691e-08,-4.56731e-09,0.3,-0.3,-11.9023,-19.1916,0.589464,187.417,-19.2136,1.7912,84.5189,-21.5244,866.846
0.188,-0.192335,-0.00766602,0.330352,0.0664505,0.0622742,-0.10429,0.05778,-0.100347,-0.100647,0.327447,0.023022,-0.182809,1.98691e-08,-4.56731e-09,0.3,-0.3,-11.8813,-19.2012,0.583903,187.473,-19.2411,1.79349,84.491,-21.488,866.847
0.189,-0.192335,-0.00766602,0.330352,0.0664505,0.0622742,-0.10429,0.05778,-0.100347,-0.100647,0.327447,0.023022,-0.182809,1.98691e-08,-4.56731e-09,0.3,-0.3,-11.8606,-19.2107,0.578099,187.528,-19.2698,1.79547,84.4642,-21.4505,866.847
0.19,-0.192335,-0.00766602,0.330352,0.0664505,0.0622742,-0.10429,0.05778,-0.100347,-0.100647,0.327447,0.023022,-0.182809,1.98691e-08,-4.56731e-09,0.3,-0.3,-11.8401,-19.22,0.572048,187.581,-19.2995,1.79713,84.4387,-21.4121,866.846
0.191,-0.192335,-0.00766602,0.330352,0.0664505,0.0622742,-0.10429,0.05778,-0.100347,-0.100647,0.327447,0.023022,-0.182809,1.98691e-08,-4.56731e-09,0.3,-0.3,-11.8198,-19.2292,0.565749,187.633,-19.3304,1.79849,84.4144,-21.3726,866.846
0.192,-0.192335,-0.00766602,0.330352,0.0664505,0.0622742,-0.10429,0.05778,-0.100347,-0.100647,0.327447,0.023022,-0.182809,1.98691e-08,-4.56731e-09,0.3,-0.3,-11.7996,-19.2383,0.559199,187.684,-19.3623,1.79954,84.3912,-21.3322,866.845
0.193,-0.192335,-0.00766602,0.330352,0.0664505,0.0622742,-0.10429,0.05778,-0.100347,-0.100647,0.327447,0.023022,-0.182809,1.98691e-08,-4.56731e-09,0.3,-0.3,-11.7797,-19.2473,0.552396,187.733,-19.3953,1.8003,84.3692,-21.2907,866.843
0.194,-0.192335,-0.00766602,0.330352,0.0664505,0.0622742,-0.10429,0.05778,-0.100347,-0.100647,0.327447,0.023022,-0.182809,1.98691e-08,-4.56731e-09,0.3,-0.3,-11.76,-19.2562,0.545337,187.78,-19.4293,1.80075,84.3484,-21.2482,866.841
0.195,-0.192335,-0.00766602,0.330352,0.0664505,0.0622742,-0.10429,0.05778,-0.100347,-0.100647,0.327447,0.023022,-0.182809,1.98691e-08,-4.56731e-09,0.3,-0.3,-11.7406,-19.2649,0.53802,187.825,-19.4643,1.80092,84.3287,-21.2047,866.839
0.196,-0.192335,-0.00766602,0.330352,0.0664505,0.0622742,-0.10429,0.05778,-0.100347,-0.100647,0.327447,0.023022,-0.182809,1.98691e-08,-4.56731e-09,0.3,-0.3,-11.7207,-19.2741,0.53048,187.868,-19.5003,1.80079,84.3102,-21.1602,866.836
0.197,-0.192335,-0.00766602,0.330352,0.0664505,0.0622742,-0.10429,0.05778,-0.100347,-0.100647,0.327447,0.023022,-0.182809,1.98691e-08,-4.56731e-09,0.3,-0.3,-11.7009,-19.2832,0.522636,187.909,-19.5372,1.80039,84.2928,-21.1146,866.833
0.198,-0.192335,-0.00766602,0.330352,0.0664505,0.0622742,-0.10429,0.05778,-0.100347,-0.100647,0.327447,0.023022,-0.182809,1.98691e-08,-4.56731e-09,0.3,-0.3,-11.6812,-19.2921,0.514522,187.948,-19.5751,1.79973,84.2765,-21.0681,866.829
0.199,-0.192335,-0.00766602,0.330352,0.0664505,0.0622742,-0.10429,0.05778,-0.100347,-0.100647,0.327447,0.023022,-0.182809,1.98691e-08,-4.56731e-09,0.3,-0.3,-11.6618,-19.3014,0.506182,187.985,-19.6139,1.79878,84.2613,-21.0205,866.825
0.2,-0.192335,-0.00766602,0.330352,0.0664505,0.0622742,-0.10429,0.05778,-0.100347,-0.100647,0.327447,0.023022,-0.182809,1.98691e-08,-4.56731e-09,0.3,-0.3,-11.6419,-19.3108,0.497532,188.019,-19.6536,1.79758,84.2472,-20.9718,866.821
0.201,-0.192335,-0.00766602,0.330352,0.0664505,0.0622742,-0.10429,0.05778,-0.100347,-0.100647,0.327447,0.023022,-0.182809,1.98691e-08,-4.56731e-09,0.3,-0.3,-11.6219,-19.3202,0.488602,188.052,-19.6943,1.79615,84.2343,-20.9222,866.816
0.202,-0.192335,-0.00766602,0.330352,0.0664505,0.0622742,-0.10429,0.05778,-0.100347,-0.100647,0.327447,0.023022,-0.182809,1.98691e-08,-4.56731e-09,0.3,-0.3,-11.6017,-19.3297,0.479416,188.081,-19.7359,1.79448,84.2225,-20.8715,866.81
0.203,-0.192335,-0.00766602,0.330352,0.0664505,0.0622742,-0.10429,0.05778,-0.100347,-0.100647,0.327447,0.023022,-0.182809,1.98691e-08,-4.56731e-09,0.3,-0.3,-11.5813,-19.3392,0.469969,188.108,-19.7785,1.79258,84.2117,-20.8198,866.805
0.204,-0.192335,-0.00766602,0.330352,0.0664505,0.0622742,-0.10429,0.05778,-0.100347,-0.100647,0.327447,0.023022,-0.182809,1.98691e-08,-4.56731e-09,0.3,-0.3,-11.5608,-19.3488,0.460158,188.133,-19.8222,1.78996,84.2021,-20.7671,866.798
0.205,-0.192335,-0.00766602,0.330352,0.0664505,0.0622742,-0.10429,0.05778,-0.100347,-0.100647,0.327447,0.023022,-0.182809,1.98691e-08,-4.56731e-09,0.3,-0.3,-11.54,-19.3585,0.449944,188.156,-19.8667,1.78647,84.1935,-20.7135,866.791
0.206,-0.192335,-0.00766602,0.330352,0.0664505,0.0622742,-0.10429,0.05778,-0.100347,-0.100647,0.327447,0.023022,-0.182809,1.98691e-08,-4.56731e-09,0.3,-0.3,-11.519,-19.3683,0.4395,188.176,-19.9119,1.78222,84.1859,-20.6588,866.784
0.207,-0.192335,-0.00766602,0.330352,0.0664505,0.0622742,-0.10429,0.05778,-0.100347,-0.100647,0.327447,0.023022,-0.182809,1.98691e-08,-4.56731e-09,0.3,-0.3,-11.4979,-19.3781,0.428845,188.195,-19.9577,1.7773,84.1795,-20.6031,866.776
0.208,-0.192335,-0.00766602,0.330352,0.0664505,0.0622742,-0.10429,0.05778,-0.100347,-0.100647,0.327447,0.023022,-0.182809,1.98691e-08,-4.56731e-09,0.3,-0.3,-11.4766,-19.388,0.417973,188.212,-20.0041,1.77176,84.1743,-20.5464,866.768
0.209,-0.192335,-0.00766602,0.330352,0.0664505,0.0622742,-0.10429,0.05778,-0.100347,-0.100647,0.327447,0.023022,-0.182809,1.98691e-08,-4.56731e-09,0.3,-0.3,-11.4552,-19.398,0.406875,188.228,-20.0508,1.76565,84.1701,-20.4886,866.759
0.21,-0.192335,-0.00766602,0.330352,0.0664505,0.0622742,-0.10429,0.05778,-0.100347,-0.100647,0.327447,0.023022,-0.182809,1.98691e-08,-4.56731e-09,0.3,-0.3,-11.4336,-19.408,0.395545,188.242,-20.0977,1.75898,84.1672,-20.4298,866.75
0.211,-0.192335,-0.00766602,0.330352,0.0664505,0.0622742,-0.10429,0.05778,-0.100347,-0.100647,0.327447,0.023022,-0.182809,1.98691e-08,-4.56731e-09,0.3,-0.3,-11.4119,-19.4181,0.383985,188.257,-20.1449,1.7518,84.1656,-20.3698,866.74
0.212,-0.192335,-0.00766602,0.330352,0.0664505,0.0622742,-0.10429,0.05778,-0.100347,-0.100647,0.327447,0.023022,-0.182809,1.98691e-08,-4.56731e-09,0.3,-0.3,-11.39,-19.4282,0.372196,188.27,-20.1922,1.7441,84.1651,-20.3088,866.731
0.213,-0.192335,-0.00766602,0.330352,0.0664505,0.0622742,-0.10429,0.05778,-0.100347,-0.100647,0.327447,0.023022,-0.182809,1.98691e-08,-4.56731e-09,0.3,-0.3,-11.3681,-19.4384,0.360181,188.283,-20.2395,1.7359,84.166,-20.2467,866.72
0.214,-0.192335,-0.00766602,0.330352,0.0664505,0.0622742,-0.10429,0.05778,-0.100347,-0.100647,0.327447,0.023022,-0.182809,1.98691e-08,-4.56731e-09,0.3,-0.3,-11.346,-19.4485,0.347943,188.296,-20.2868,1.72721,84.1682,-20.1835,866.71
0.215,-0.192335,-0.00766602,0.330352,0.0664505,0.0622742,-0.10429,0.05778,-0.100347,-0.100647,0.327447,0.023022,-0.182809,1.98691e-08,-4.56731e-09,0.3,-0.3,-11.3239,-19.4586,0.335483,188.308,-20.334,1.71804,84.1716,-20.1191,866.699
0.216,-0.192335,-0.00766602,0.330352,0.0664505,0.0622742,-0.10429,0.05778,-0.100347,-0.100647,0.327447,0.023022,-0.182809,1.98691e-08,-4.56731e-09,0.3,-0.3,-11.3017,-19.4687,0.322803,188.321,-20.3811,1.70838,84.1765,-20.0536,866.688
0.217,-0.192335,-0.00766602,0.330352,0.0664505,0.0622742,-0.10429,0.05778,-0.100347,-0.100647,0.327447,0.023022,-0.182809,1.98691e-08,-4.56731e-09,0.3,-0.3,-11.3008,-19.473,0.331319,188.327,-20.4304,1.70542,84.1799,-19.9908,866.685
0.218,-0.192335,-0.00766602,0.330352,0.0664505,0.0622742,-0.10429,0.05778,-0.100347,-0.100647,0.327447,0.023022,-0.182809,1.98691e-08,-4.56731e-09,0.3,-0.3,-11.3159,-19.4811,0.352366,188.327,-20.4821,1.70864,84.1845,-19.9288,866.689
0.219,-0.192335,-0.00766602,0.330352,0.0664505,0.0622742,-0.10429,0.05778,-0.100347,-0.100647,0.327447,0.023022,-0.182809,1.98691e-08,-4.56731e-09,0.3,-0.3,-11.334,-19.4883,0.369432,188.322,-20.5347,1.71349,84.1902,-19.8677,866.696
0.22,-0.192335,-0.00766602,0.330352,0.0664505,0.0622742,-0.10429,0.05778,-0.100347,-0.100647,0.327447,0.023022,-0.182809,1.98691e-08,-4.56731e-09,0.3,-0.3,-11.3531,-19.4947,0.381631,188.315,-20.5879,1.71758,84.1967,-19.8078,866.703
0.221,-0.192335,-0.00766602,0.330352,0.0664505,0.0622742,-0.10429,0.05778,-0.100347,-0.100647,0.327447,0.023022,-0.182809,1.98691e-08,-4.56731e-09,0.3,-0.3,-11.373,-19.5014,0.390618,188.304,-20.6413,1.7201,84.2042,-19.749,866.71
0.222,-0.192335,-0.00766602,0.330352,0.0664505,0.0622742,-0.10429,0.05778,-0.100347,-0.100647,0.327447,0.023022,-0.182809,1.98691e-08,-4.56731e-09,0.3,-0.3,-11.3929,-19.5086,0.397785,188.29,-20.6949,1.72109,84.2127,-19.6916,866.714
0.223,-0.192335,-0.00766602,0.330352,0.0664505,0.0622742,-0.10429,0.05778,-0.100347,-0.100647,0.327447,0.023022,-0.182809,1.98691e-08,-4.56731e-09,0.3,-0.3,-11.4128,-19.5162,0.404265,188.274,-20.7484,1.72082,84.2222,-19.6355,866.718
0.224,-0.192335,-0.00766602,0.330352,0.0664505,0.0622742,-0.10429,0.05778,-0.100347,-0.100647,0.327447,0.023022,-0.182809,1.98691e-08,-4.56731e-09,0.3,-0.3,-11.4325,-19.524,0.410653,188.255,-20.8016,1.71961,84.2327,-19.5809,866.721
0.225,-0.192335,-0.00766602,0.330352,0.0664505,0.0622742,-0.10429,0.05778,-0.100347,-0.100647,0.327447,0.023022,-0.182809,1.98691e-08,-4.56731e-09,0.3,-0.3,-11.452,-19.532,0.417259,188.234,-20.8544,1.7177,84.2441,-19.5276,866.723
0.226,-0.192335,-0.00766602,0.330352,0.0664505,0.0622742,-0.10429,0.05778,-0.100347,-0.100647,0.327447,0.023022,-0.182809,1.98691e-08,-4.56731e-09,0.3,-0.3,-11.4712,-19.5402,0.424228,188.21,-20.9065,1.71529,84.2566,-19.4756,866.725
0.227,-0.192335,-0.00766602,0.330352,0.0664505,0.0622742,-0.10429,0.05778,-0.100347,-0.100647,0.327447,0.023022,-0.182809,1.98691e-08,-4.56731e-09,0.3,-0.3,-11.4901,-19.5485,0.431602,188.184,-20.9577,1.71247,84.2702,-19.425,866.727
0.228,-0.192335,-0.00766602,0.330352,0.0664505,0.0622742,-0.10429,0.05778,-0.100347,-0.100647,0.327447,0.023022,-0.182809,1.98691e-08,-4.56731e-09,0.3,-0.3,-11.5088,-19.557,0.439366,188.156,-21.0079,1.70935,84.2848,-19.3756,866.729
0.229,-0.192335,-0.00766602,0.330352,0.0664505,0.0622742,-0.10429,0.05778,-0.100347,-0.100647,0.327447,0.023022,-0.182809,1.98691e-08,-4.56731e-09,0.3,-0.3,-11.5271,-19.5655,0.447464,188.127,-21.057,1.70597,84.3006,-19.3274,866.731
0.23,-0.192335,-0.00766602,0.330352,0.0664505,0.0622742,-0.10429,0.05778,-0.100347,-0.100647,0.327447,0.023022,-0.182809,1.98691e-08,-4.56731e-09,0.3,-0.3,-11.5453,-19.574,0.455823,188.096,-21.1048,1.70235,84.3174,-19.2803,866.732
0.231,-0.192335,-0.00766602,0.330352,0.0664505,0.0622742,-0.10429,0.05778,-0.100347,-0.100647,0.327447,0.023022,-0.182809,1.98691e-08,-4.56731e-09,0.3,-0.3,-11.5633,-19.5827,0.464355,188.063,-21.1513,1.69851,84.3355,-19.2344,866.734
0.232,-0.192335,-0.00766602,0.330352,0.0664505,0.0622742,-0.10429,0.05778,-0.100347,-0.100647,0.327447,0.023022,-0.182809,1.98691e-08,-4.56731e-09,0.3,-0.3,-11.5813,-19.5913,0.472967,188.03,-21.1965,1.69445,84.3547,-19.1896,866.735
0.233,-0.192335,-0.00766602,0.330352,0.0664505,0.0622742,-0.10429,0.05778,-0.100347,-0.100647,0.327447,0.023022,-0.182809,1.98691e-08,-4.56731e-09,0.3,-0.3,-11.5992,-19.6001,0.481571,187.996,-21.2403,1.69017,84.3751,-19.1459,866.736
0.234,-0.192335,-0.00766602,0.330352,0.0664505,0.0622742,-0.10429,0.05778,-0.100347,-0.100647,0.327447,0.023022,-0.182809,1.98691e-08,-4.56731e-09,0.3,-0.3,-11.6172,-19.6088,0.490083,187.962,-21.2828,1.68565,84.3968,-19.1032,866.738
0.235,-0.192335,-0.00766602,0.330352,0.0664505,0.0622742,-0.10429,0.05778,-0.100347,-0.100647,0.327447,0.023022,-0.182809,1.98691e-08,-4.56731e-09,0.3,-0.3,-11.6352,-19.6176,0.498426,187.927,-21.3241,1.68089,84.4198,-19.0616,866.739
0.236,-0.192335,-0.00766602,0.330352,0.0664505,0.0622742,-0.10429,0.05778,-0.100347,-0.100647,0.327447,0.023022,-0.182809,1.98691e-08,-4.56731e-09,0.3,-0.3,-11.6534,-19.6265,0.506536,187.893,-21.3643,1.67586,84.4441,-19.021,866.74
0.237,-0.192335,-0.00766602,0.330352,0.0664505,0.0622742,-0.10429,0.05778,-0.100347,-0.100647,0.327447,0.023022,-0.182809,1.98691e-08,-4.56731e-09,0.3,-0.3,-11.6718,-19.6354,0.514359,187.859,-21.4036,1.67055,84.4698,-18.9815,866.74
0.238,-0.192335,-0.00766602,0.330352,0.0664505,0.0622742,-0.10429,0.05778,-0.100347,-0.100647,0.327447,0.023022,-0.182809,1.98691e-08,-4.56731e-09,0.3,-0.3,-11.6904,-19.6443,0.521854,187.825,-21.4419,1.66494,84.4968,-18.943,866.741
0.239,-0.192335,-0.00766602,0.330352,0.0664505,0.0622742,-0.10429,0.05778,-0.100347,-0.100647,0.327447,0.023022,-0.182809,1.98691e-08,-4.56731e-09,0.3,-0.3,-11.7092,-19.6534,0.528987,187.792,-21.4795,1.659,84.5252,-18.9055,866.741
0.24,-0.192335,-0.00766602,0.330352,0.0664505,0.0622742,-0.10429,0.05778,-0.100347,-0.100647,0.327447,0.023022,-0.182809,1.98691e-08,-4.56731e-09,0.3,-0.3,-11.7283,-19.6624,0.535736,187.76,-21.5165,1.65271,84.555,-18.8691,866.741
0.241,-0.192335,-0.00766602,0.330352,0.0664505,0.0622742,-0.10429,0.05778,-0.100347,-0.100647,0.327447,0.023022,-0.182809,1.98691e-08,-4.56731e-09,0.3,-0.3,-11.7476,-19.6716,0.542089,187.729,-21.5531,1.64606,84.5862,-18.8338,866.741
0.242,-0.192335,-0.00766602,0.330352,0.0664505,0.0622742,-0.10429,0.05778,-0.100347,-0.100647,0.327447,0.023022,-0.182809,1.98691e-08,-4.56731e-09,0.3,-0.3,-11.7672,-19.6808,0.548038,187.699,-21.5893,1.63901,84.6189,-18.7996,866.74
0.243,-0.192335,-0.00766602,0.330352,0.0664505,0.0622742,-0.10429,0.05778,-0.100347,-0.100647,0.327447,0.023022,-0.182809,1.98691e-08,-4.56731e-09,0.3,-0.3,-11.7871,-19.6902,0.553583,187.67,-21.6254,1.63155,84.653,-18.7666,866.74
0.244,-0.192335,-0.00766602,0.330352,0.0664505,0.0622742,-0.10429,0.05778,-0.100347,-0.100647,0.327447,0.023022,-0.182809,1.98691e-08,-4.56731e-09,0.3,-0.3,-11.8073,-19.6996,0.558727,187.642,-21.6613,1.62365,84.6886,-18.7346,866.738
0.245,-0.192335,-0.00766602,0.330352,0.0664505,0.0622742,-0.10429,0.05778,-0.100347,-0.100647,0.327447,0.023022,-0.182809,1.98691e-08,-4.56731e-09,0.3,-0.3,-11.828,-19.7092,0.563462,187.616,-21.6973,1.6153,84.7256,-18.7038,866.737
0.246,-0.192335,-0.00766602,0.330352,0.0664505,0.0622742,-0.10429,0.05778,-0.100347,-0.100647,0.327447,0.023022,-0.182809,1.98691e-08,-4.56731e-09,0.3,-0.3,-11.849,-19.7188,0.56785,187.59,-21.7334,1.60645,84.7641,-18.6741,866.735
0.247,-0.192335,-0.00766602,0.330352,0.0664505,0.0622742,-0.10429,0.05778,-0.100347,-0.100647,0.327447,0.023022,-0.182809,1.98691e-08,-4.56731e-09,0.3,-0.3,-11.8698,-19.728,0.571889,187.566,-21.7697,1.59712,84.8041,-18.6456,866.732
0.248,-0.192335,-0.00766602,0.330352,0.0664505,0.0622742,-0.10429,0.05778,-0.100347,-0.100647,0.327447,0.023022,-0.182809,1.98691e-08,-4.56731e-09,0.3,-0.3,-11.8906,-19.7373,0.575462,187.543,-21.8062,1.58728,84.8455,-18.6182,866.73
0.249,-0.192335,-0.00766602,0.330352,0.0664505,0.0622742,-0.10429,0.05778,-0.100347,-0.100647,0.327447,0.023022,-0.182809,1.98691e-08,-4.56731e-09,0.3,-0.3,-11.9114,-19.7467,0.578704,187.521,-21.8429,1.57692,84.8884,-18.592,866.726
0.25,-0.192335,-0.00766602,0.330352,0.0664505,0.0622742,-0.10429,0.05778,-0.100347,-0.100647,0.327447,0.023022,-0.182809,1.98691e-08,-4.56731e-09,0.3,-0.3,-11.9323,-19.7561,0.581619,187.5,-21.88,1.56601,84.9327,-18.567,866.723
0.251,-0.192335,-0.00766602,0.330352,0.0664505,0.0622742,-0.10429,0.05778,-0.100347,-0.100647,0.327447,0.023022,-0.182809,1.98691e-08,-4.56731e-09,0.3,-0.3,-11.9532,-19.7656,0.584216,187.481,-21.9174,1.55454,84.9785,-18.5432,866.719
0.252,-0.192335,-0.00766602,0.330352,0.0664505,0.0622742,-0.10429,0.05778,-0.100347,-0.100647,0.327447,0.023022,-0.182809,1.98691e-08,-4.56731e-09,0.3,-0.3,-11.9741,-19.7751,0.586506,187.462,-21.9551,1.54249,85.0257,-18.5206,866.714
0.253,-0.192335,-0.00766602,0.330352,0.0664505,0.0622742,-0.10429,0.05778,-0.100347,-0.100647,0.327447,0.023022,-0.182809,1.98691e-08,-4.56731e-09,0.3,-0.3,-11.995,-19.7846,0.588498,187.444,-21.9932,1.52985,85.0743,-18.4991,866.709
0.254,-0.192335,-0.00766602,0.330352,0.0664505,0.0622742,-0.10429,0.05778,-0.100347,-0.100647,0.327447,0.023022,-0.182809,1.98691e-08,-4.56731e-09,0.3,-0.3,-12.0159,-19.7941,0.590201,187.426,-22.0316,1.51662,85.1243,-18.4788,866.704
0.255,-0.192335,-0.00766602,0.330352,0.0664505,0.0622742,-0.10429,0.05778,-0.100347,-0.100647,0.327447,0.023022,-0.182809,1.98691e-08,-4.56731e-09,0.3,-0.3,-12.0369,-19.8036,0.591623,187.409,-22.0702,1.50279,85.1757,-18.4597,866.698
0.256,-0.192335,-0.00766602,0.330352,0.0664505,0.0622742,-0.10429,0.05778,-0.100347,-0.100647,0.327447,0.023022,-0.182809,1.98691e-08,-4.56731e-09,0.3,-0.3,-12.0578,-19.8131,0.592771,187.393,-22.1092,1.48834,85.2285,-18.4418,866.691
0.257,-0.192335,-0.00766602,0.330352,0.0664505,0.0622742,-0.10429,0.05778,-0.100347,-0.100647,0.327447,0.023022,-0.182809,1.98691e-08,-4.56731e-09,0.3,-0.3,-12.0787,-19.8225,0.593652,187.377,-22.1484,1.47328,85.2827,-18.425,866.685
0.258,-0.192335,-0.00766602,0.330352,0.0664505,0.0622742,-0.10429,0.05778,-0.100347,-0.100647,0.327447,0.023022,-0.182809,1.98691e-08,-4.56731e-09,0.3,-0.3,-12.0995,-19.832,0.594271,187.362,-22.1878,1.4576,85.3382,-18.4094,866.677
0.259,-0.192335,-0.00766602,0.330352,0.0664505,0.0622742,-0.10429,0.05778,-0.100347,-0.100647,0.327447,0.023022,-0.182809,1.98691e-08,-4.56731e-09,0.3,-0.3,-12.1203,-19.8414,0.594634,187.346,-22.2274,1.44129,85.3951,-18.3949,866.669
0.26,-0.192335,-0.00766602,0.330352,0.0664505,0.0622742,-0.10429,0.05778,-0.100347,-0.100647,0.327447,0.023022,-0.182809,1.98691e-08,-4.56731e-09,0.3,-0.3,-12.141,-19.8507,0.594744,187.331,-22.2672,1.42437,85.4532,-18.3817,866.661
0.261,-0.192335,-0.00766602,0.330352,0.0664505,0.0622742,-0.10429,0.05778,-0.100347,-0.100647,0.327447,0.023022,-0.182809,1.98691e-08,-4.56731e-09,0.3,-0.3,-12.1617,-19.86,0.594606,187.315,-22.3071,1.40682,85.5127,-18.3695,866.652
0.262,-0.192335,-0.00766602,0.330352,0.0664505,0.0622742,-0.10429,0.05778,-0.100347,-0.100647,0.327447,0.023022,-0.182809,1.98691e-08,-4.56731e-09,0.3,-0.3,-12.1823,-19.8693,0.594224,187.3,-22.3471,1.38865,85.5735,-18.3585,866.643
0.263,-0.192335,-0.00766602,0.330352,0.0664505,0.0622742,-0.10429,0.05778,-0.100347,-0.100647,0.327447,0.023022,-0.182809,1.98691e-08,-4.56731e-09,0.3,-0.3,-12.2028,-19.8786,0.593601,187.284,-22.3872,1.36987,85.6356,-18.3486,866.634
0.264,-0.192335,-0.00766602,0.330352,0.0664505,0.0622742,-0.10429,0.05778,-0.100347,-0.100647,0.327447,0.023022,-0.182809,1.98691e-08,-4.56731e-09,0.3,-0.3,-12.2232,-19.8878,0.592738,187.269,-22.4273,1.35047,85.699,-18.3399,866.624
0.265,-0.192335,-0.00766602,0.330352,0.0664505,0.0622742,-0.10429,0.05778,-0.100347,-0.100647,0.327447,0.023022,-0.182809,1.98691e-08,-4.56731e-09,0.3,-0.3,-12.2435,-19.897,0.591638,187.253,-22.4674,1.33046,85.7636,-18.3323,866.613
0.266,-0.192335,-0.00766602,0.330352,0.0664505,0.0622742,-0.10429,0.05778,-0.100347,-0.100647,0.327447,0.023022,-0.182809,1.98691e-08,-4.56731e-09,0.3,-0.3,-12.2638,-19.9062,0.590303,187.236,-22.5076,1.30984,85.8296,-18.3258,866.602
0.267,-0.192335,-0.00766602,0.330352,0.0664505,0.0622742,-0.10429,0.05778,-0.100347,-0.100647,0.327447,0.023022,-0.182809,1.98691e-08,-4.56731e-09,0.3,-0.3,-12.284,-19.9153,0.588733,187.219,-22.5478,1.28862,85.8968,-18.3205,866.591
0.268,-0.192335,-0.00766602,0.330352,0.0664505,0.0622742,-0.10429,0.05778,-0.100347,-0.100647,0.327447,0.023022,-0.182809,1.98691e-08,-4.56731e-09,0.3,-0.3,-12.3042,-19.9244,0.58693,187.202,-22.5879,1.26681,85.9652,-18.3163,866.579
0.269,-0.192335,-0.00766602,0.330352,0.0664505,0.0622742,-0.10429,0.05778,-0.100347,-0.100647,0.327447,0.023022,-0.182809,1.98691e-08,-4.56731e-09,0.3,-0.3,-12.3242,-19.9335,0.584893,187.185,-22.628,1.2444,86.035,-18.3132,866.567
0.27,-0.192335,-0.00766602,0.330352,0.0664505,0.0622742,-0.10429,0.05778,-0.100347,-0.100647,0.327447,0.023022,-0.182809,1.98691e-08,-4.56731e-09,0.3,-0.3,-12.3443,-19.9426,0.582624,187.167,-22.6681,1.22141,86.106,-18.3112,866.554
0.271,-0.192335,-0.00766602,0.330352,0.0664505,0.0622742,-0.10429,0.05778,-0.100347,-0.100647,0.327447,0.023022,-0.182809,1.98691e-08,-4.56731e-09,0.3,-0.3,-12.3643,-19.9516,0.580121,187.149,-22.7082,1.19784,86.1783,-18.3103,866.541
0.272,-0.192335,-0.00766602,0.330352,0.0664505,0.0622742,-0.10429,0.05778,-0.100347,-0.100647,0.327447,0.023022,-0.182809,1.98691e-08,-4.56731e-09,0.3,-0.3,-12.3842,-19.9606,0.577384,187.13,-22.7482,1.17369,86.2518,-18.3106,866.528
0.273,-0.192335,-0.00766602,0.330352,0.0664505,0.0622742,-0.10429,0.05778,-0.100347,-0.100647,0.327447,0.023022,-0.182809,1.98691e-08,-4.56731e-09,0.3,-0.3,-12.4041,-19.9697,0.574413,187.111,-22.7882,1.14897,86.3266,-18.312,866.514
0.274,-0.192335,-0.00766602,0.330352,0.0664505,0.0622742,-0.10429,0.05778,-0.100347,-0.100647,0.327447,0.023022,-0.182809,1.98691e-08,-4.56731e-09,0.3,-0.3,-12.424,-19.9787,0.571206,187.091,-22.8281,1.12368,86.4027,-18.3145,866.499
0.275,-0.192335,-0.00766602,0.330352,0.0664505,0.0622742,-0.10429,0.05778,-0.100347,-0.100647,0.327447,0.023022,-0.182809,1.98691e-08,-4.56731e-09,0.3,-0.3,-12.4439,-19.9877,0.567762,187.072,-22.8681,1.09782,86.48,-18.3182,866.485
0.276,-0.192335,-0.00766602,0.330352,0.0664505,0.0622742,-0.10429,0.05778,-0.100347,-0.100647,0.327447,0.023022,-0.182809,1.98691e-08,-4.56731e-09,0.3,-0.3,-12.4637,-19.9966,0.564079,187.052,-22.908,1.07141,86.5586,-18.3229,866.47
0.277,-0.192335,-0.00766602,0.330352,0.0664505,0.0622742,-0.10429,0.05778,-0.100347,-0.100647,0.327447,0.023022,-0.182809,1.98691e-08,-4.56731e-09,0.3,-0.3,-12.4836,-20.0056,0.560157,187.031,-22.9478,1.04443,86.6385,-18.3288,866.454
0.278,-0.192335,-0.00766602,0.330352,0.0664505,0.0622742,-0.10429,0.05778,-0.100347,-0.100647,0.327447,0.023022,-0.182809,1.98691e-08,-4.56731e-09,0.3,-0.3,-12.5034,-20.0146,0.555993,187.01,-22.9877,1.0169,86.7197,-18.3358,866.438
0.279,-0.192335,-0.00766602,0.330352,0.0664505,0.0622742,-0.10429,0.05778,-0.100347,-0.100647,0.327447,0.023022,-0.182809,1.98691e-08,-4.56731e-09,0.3,-0.3,-12.5233,-20.0236,0.551585,186.989,-23.0275,0.98881,86.8021,-18.3439,866.422
0.28,-0.192335,-0.00766602,0.330352,0.0664505,0.0622742,-0.10429,0.05778,-0.100347,-0.100647,0.327447,0.023022,-0.182809,1.98691e-08,-4.56731e-09,0.3,-0.3,-12.5432,-20.0326,0.546931,186.968,-23.0674,0.960171,86.8859,-18.3532,866.405
0.281,-0.192335,-0.00766602,0.330352,0.0664505,0.0622742,-0.10429,0.05778,-0.100347,-0.100647,0.327447,0.023022,-0.182809,1.98691e-08,-4.56731e-09,0.3,-0.3,-12.563,-20.0416,0.54203,186.947,-23.1073,0.930979,86.9709,-18.3636,866.388
0.282,-0.192335,-0.00766602,0.330352,0.0664505,0.0622742,-0.10429,0.05778,-0.100347,-0.100647,0.327447,0.023022,-0.182809,1.98691e-08,-4.56731e-09,0.3,-0.3,-12.583,-20.0506,0.53688,186.926,-23.1471,0.901237,87.0572,-18.3751,866.371
0.283,-0.192335,-0.00766602,0.330352,0.0664505,0.0622742,-0.10429,0.05778,-0.100347,-0.100647,0.327447,0.023022,-0.182809,1.98691e-08,-4.56731e-09,0.3,-0.3,-12.6029,-20.0596,0.531479,186.904,-23.187,0.870943,87.1449,-18.3878,866.353
0.284,-0.192335,-0.00766602,0.330352,0.0664505,0.0622742,-0.10429,0.05778,-0.100347,-0.100647,0.327447,0.023022,-0.182809,1.98691e-08,-4.56731e-09,0.3,-0.3,-12.6228,-20.0686,0.525824,186.882,-23.227,0.840097,87.2338,-18.4015,866.334
0.285,-0.192335,-0.00766602,0.330352,0.0664505,0.0622742,-0.10429,0.05778,-0.100347,-0.100647,0.327447,0.023022,-0.182809,1.98691e-08,-4.56731e-09,0.3,-0.3,-12.6428,-20.0776,0.519916,186.861,-23.2669,0.808704,87.324,-18.4164,866.315
0.286,-0.192335,-0.00766602,0.330352,0.0664505,0.0622742,-0.10429,0.05778,-0.100347,-0.100647,0.327447,0.023022,-0.182809,1.98691e-08,-4.56731e-09,0.3,-0.3,-12.6628,-20.0866,0.513752,186.839,-23.3069,0.776758,87.4156,-18.4325,866.296
0.287,-0.192335,-0.00766602,0.330352,0.0664505,0.0622742,-0.10429,0.05778,-0.100347,-0.100647,0.327447,0.023022,-0.182809,1.98691e-08,-4.56731e-09,0.3,-0.3,-12.6829,-20.0956,0.507331,186.817,-23.3469,0.744261,87.5084,-18.4496,866.277
0.288,-0.192335,-0.00766602,0.330352,0.0664505,0.0622742,-0.10429,0.05778,-0.100347,-0.100647,0.327447,0.023022,-0.182809,1.98691e-08,-4.56731e-09,0.3,-0.3,-12.703,-20.1047,0.500652,186.795,-23.3869,0.711212,87.6026,-18.4679,866.257
0.289,-0.192335,-0.00766602,0.330352,0.0664505,0.0622742,-0.10429,0.05778,-0.100347,-0.100647,0.327447,0.023022,-0.182809,1.98691e-08,-4.56731e-09,0.3,-0.3,-12.7231,-20.1137,0.493713,186.774,-23.427,0.67761,87.6981,-18.4873,866.237
0.29,-0.192335,-0.00766602,0.330352,0.0664505,0.0622742,-0.10429,0.05778,-0.100347,-0.100647,0.327447,0.023022,-0.182809,1.98691e-08,-4.56731e-09,0.3,-0.3,-12.7432,-20.1228,0.486515,186.752,-23.4672,0.643454,87.7949,-18.5079,866.216
0.291,-0.192335,-0.00766602,0.330352,0.0664505,0.0622742,-0.10429,0.05778,-0.100347,-0.100647,0.327447,0.023022,-0.182809,1.98691e-08,-4.56731e-09,0.3,-0.3,-12.7634,-20.1318,0.479057,186.73,-23.5073,0.608744,87.893,-18.5295,866.194
0.292,-0.192335,-0.00766602,0.330352,0.0664505,0.0622742,-0.10429,0.05778,-0.100347,-0.100647,0.327447,0.023022,-0.182809,1.98691e-08,-4.56731e-09,0.3,-0.3,-12.7836,-20.1409,0.471339,186.709,-23.5475,0.573475,87.9924,-18.5523,866.173
0.293,-0.192335,-0.00766602,0.330352,0.0664505,0.0622742,-0.10429,0.05778,-0.100347,-0.100647,0.327447,0.023022,-0.182809,1.98691e-08,-4.56731e-09,0.3,-0.3,-12.8039,-20.15,0.46336,186.687,-23.5878,0.537649,88.0932,-18.5763,866.151
0.294,-0.192335,-0.00766602,0.330352,0.0664505,0.0622742,-0.10429,0.05778,-0.100347,-0.100647,0.327447,0.023022,-0.182809,1.98691e-08,-4.56731e-09,0.3,-0.3,-12.8242,-20.1591,0.45512,186.666,-23.6281,0.501266,88.1953,-18.6013,866.128
0.295,-0.192335,-0.00766602,0.330352,0.0664505,0.0622742,-0.10429,0.05778,-0.100347,-0.100647,0.327447,0.023022,-0.182809,1.98691e-08,-4.56731e-09,0.3,-0.3,-12.8445,-20.1682,0.44685,186.648,-23.6193,0.482916,88.2966,-18.6249,866.113
0.296,-0.192335,-0.00766602,0.330352,0.0664505,0.0622742,-0.10429,0.05778,-0.100347,-0.100647,0.327447,0.023022,-0.182809,1.98691e-08,-4.56731e-09,0.3,-0.3,-12.8715,-20.1613,0.43919,186.629,-23.6105,0.466095,88.3962,-18.6501,866.101
0.297,-0.192335,-0.00766602,0.330352,0.0664505,0.0622742,-0.10429,0.05778,-0.100347,-0.100647,0.327447,0.023022,-0.182809,1.98691e-08,-4.56731e-09,0.3,-0.3,-12.8981,-20.1586,0.441746,186.61,-23.6015,0.451431,88.494,-18.6764,866.092
0.298,-0.192335,-0.00766602,0.330352,0.0664505,0.0622742,-0.10429,0.05778,-0.100347,-0.100647,0.327447,0.023022,-0.182809,1.98691e-08,-4.56731e-09,0.3,-0.3,-12.9159,-20.1559,0.449879,186.592,-23.5929,0.440973,88.5903,-18.7035,866.089
0.299,-0.192335,-0.00766602,0.330352,0.0664505,0.0622742,-0.10429,0.05778,-0.100347,-0.100647,0.327447,0.023022,-0.182809,1.98691e-08,-4.56731e-09,0.3,-0.3,-12.9327,-20.1518,0.461023,186.574,-23.5843,0.432907,88.6847,-18.7317,866.089
0.3,-0.192335,-0.00766602,0.330352,0.0664505,0.0622742,-0.10429,0.05778,-0.100347,-0.100647,0.327447,0.023022,-0.182809,1.98691e-08,-4.56731e-09,0.3,-0.3,-12.9544,-20.1426,0.473091,186.555,-23.5756,0.427382,88.7772,-18.7612,866.093
0.301,-0.192335,-0.00766602,0.330352,0.0664505,0.0622742,-0.10429,0.05778,-0.100347,-0.100647,0.327447,0.023022,-0.182809,1.98691e-08,-4.56731e-09,0.3,-0.3,-12.9747,-20.1336,0.488316,186.537,-23.5667,0.424591,88.8678,-18.7917,866.101
0.302,-0.192335,-0.00766602,0.330352,0.0664505,0.0622742,-0.10429,0.05778,-0.100347,-0.100647,0.327447,0.023022,-0.182809,1.98691e-08,-4.56731e-09,0.3,-0.3,-12.9937,-20.124,0.506623,186.518,-23.558,0.424587,88.9564,-18.8232,866.111
0.303,-0.192335,-0.00766602,0.330352,0.0664505,0.0622742,-0.10429,0.05778,-0.100347,-0.100647,0.327447,0.023022,-0.182809,1.98691e-08,-4.56731e-09,0.3,-0.3,-13.0113,-20.1131,0.528058,186.5,-23.5493,0.427412,89.043,-18.8557,866.126
0.304,-0.192335,-0.00766602,0.330352,0.0664505,0.0622742,-0.10429,0.05778,-0.100347,-0.100647,0.327447,0.023022,-0.182809,1.98691e-08,-4.56731e-09,0.3,-0.3,-13.0276,-20.1002,0.552586,186.482,-23.5408,0.42675,89.1285,-18.8887,866.138
0.305,-0.192335,-0.00766602,0.330352,0.0664505,0.0622742,-0.10429,0.05778,-0.100347,-0.100647,0.327447,0.023022,-0.182809,1.98691e-08,-4.56731e-09,0.3,-0.3,-13.044,-20.0832,0.572093,186.465,-23.5325,0.425789,89.2128,-18.9222,866.148
0.306,-0.192335,-0.00766602,0.330352,0.0664505,0.0622742,-0.10429,0.05778,-0.100347,-0.100647,0.327447,0.023022,-0.182809,1.98691e-08,-4.56731e-09,0.3,-0.3,-13.0593,-20.0628,0.589971,186.447,-23.5242,0.424671,89.2957,-18.9563,866.157
0.307,-0.192335,-0.00766602,0.330352,0.0664505,0.0622742,-0.10429,0.05778,-0.100347,-0.100647,0.327447,0.023022,-0.182809,1.98691e-08,-4.56731e-09,0.3,-0.3,-13.0731,-20.0392,0.607432,186.43,-23.5159,0.423422,89.3771,-18.9912,866.167
0.308,-0.192335,-0.00766602,0.330352,0.0664505,0.0622742,-0.10429,0.05778,-0.100347,-0.100647,0.327447,0.023022,-0.182809,1.98691e-08,-4.56731e-09,0.3,-0.3,-13.0856,-20.0129,0.62481,186.413,-23.5077,0.422043,89.4572,-19.0268,866.175
0.309,-0.192335,-0.00766602,0.330352,0.0664505,0.0622742,-0.10429,0.05778,-0.100347,-0.100647,0.327447,0.023022,-0.182809,1.98691e-08,-4.56731e-09,0.3,-0.3,-13.0969,-19.984,0.642228,186.396,-23.4996,0.42053,89.5358,-19.0633,866.184
0.31,-0.192335,-0.00766602,0.330352,0.0664505,0.0622742,-0.10429,0.05778,-0.100347,-0.100647,0.327447,0.023022,-0.182809,1.98691e-08,-4.56731e-09,0.3,-0.3,-13.1074,-19.9528,0.659595,186.379,-23.4916,0.418879,89.6129,-19.1006,866.193
0.311,-0.192335,-0.00766602,0.330352,0.0664505,0.0622742,-0.10429,0.05778,-0.100347,-0.100647,0.327447,0.023022,-0.182809,1.98691e-08,-4.56731e-09,0.3,-0.3,-13.1172,-19.9197,0.676882,186.362,-23.4835,0.41707,89.6887,-19.1388,866.201
0.312,-0.192335,-0.00766602,0.330352,0.0664505,0.0622742,-0.10429,0.05778,-0.100347,-0.100647,0.327447,0.023022,-0.182809,1.98691e-08,-4.56731e-09,0.3,-0.3,-13.1267,-19.8847,0.694141,186.346,-23.4756,0.415104,89.7629,-19.1779,866.209
0.313,-0.192335,-0.00766602,0.330352,0.0664505,0.0622742,-0.10429,0.05778,-0.100347,-0.100647,0.327447,0.023022,-0.182809,1.98691e-08,-4.56731e-09,0.3,-0.3,-13.1362,-19.8481,0.711335,186.329,-23.4676,0.412968,89.8357,-19.2178,866.217
0.314,-0.192335,-0.00766602,0.330352,0.0664505,0.0622742,-0.10429,0.05778,-0.100347,-0.100647,0.327447,0.023022,-0.182809,1.98691e-08,-4.56731e-09,0.3,-0.3,-13.1457,-19.8101,0.728438,186.313,-23.4597,0.410654,89.9071,-19.2588,866.224
0.315,-0.192335,-0.00766602,0.330352,0.0664505,0.0622742,-0.10429,0.05778,-0.100347,-0.100647,0.327447,0.023022,-0.182809,1.98691e-08,-4.56731e-09,0.3,-0.3,-13.1556,-19.7708,0.745481,186.296,-23.4519,0.408171,89.977,-19.3007,866.231
0.316,-0.192335,-0.00766602,0.330352,0.0664505,0.0622742,-0.10429,0.05778,-0.100347,-0.100647,0.327447,0.023022,-0.182809,1.98691e-08,-4.56731e-09,0.3,-0.3,-13.1656,-19.7304,0.762324,186.28,-23.4441,0.405504,90.0454,-19.3436,866.238
0.317,-0.192335,-0.00766602,0.330352,0.0664505,0.0622742,-0.10429,0.05778,-0.100347,-0.100647,0.327447,0.023022,-0.182809,1.98691e-08,-4.56731e-09,0.3,-0.3,-13.1761,-19.689,0.778946,186.264,-23.4363,0.402641,90.1124,-19.3874,866.245
0.318,-0.192335,-0.00766602,0.330352,0.0664505,0.0622742,-0.10429,0.05778,-0.100347,-0.100647,0.327447,0.023022,-0.182809,1.98691e-08,-4.56731e-09,0.3,-0.3,-13.187,-19.6468,0.795382,186.247,-23.4285,0.399572,90.1779,-19.4323,866.251
0.319,-0.192335,-0.00766602,0.330352,0.0664505,0.0622742,-0.10429,0.05778,-0.100347,-0.100647,0.327447,0.023022,-0.182809,1.98691e-08,-4.56731e-09,0.3,-0.3,-13.1985,-19.6039,0.811574,186.231,-23.4207,0.396301,90.242,-19.4783,866.257
0.32,-0.192335,-0.00766602,0.330352,0.0664505,0.0622742,-0.10429,0.05778,-0.100347,-0.100647,0.327447,0.023022,-0.182809,1.98691e-08,-4.56731e-09,0.3,-0.3,-13.2105,-19.5604,0.827477,186.215,-23.4129,0.392817,90.3046,-19.5252,866.262
0.321,-0.192335,-0.00766602,0.330352,0.0664505,0.0622742,-0.10429,0.05778,-0.100347,-0.100647,0.327447,0.023022,-0.182809,1.98691e-08,-4.56731e-09,0.3,-0.3,-13.2231,-19.5166,0.843051,186.199,-23.4052,0.389122,90.3658,-19.5733,866.268
0.322,-0.192335,-0.00766602,0.330352,0.0664505,0.0622742,-0.10429,0.05778,-0.100347,-0.100647,0.327447,0.023022,-0.182809,1.98691e-08,-4.56731e-09,0.3,-0.3,-13.2362,-19.4725,0.858256,186.183,-23.3974,0.385206,90.4255,-19.6224,866.272
0.323,-0.192335,-0.00766602,0.330352,0.0664505,0.0622742,-0.10429,0.05778,-0.100347,-0.100647,0.327447,0.023022,-0.182809,1.98691e-08,-4.56731e-09,0.3,-0.3,-13.2499,-19.4282,0.873055,186.166,-23.3897,0.381067,90.4838,-19.6726,866.277
0.324,-0.192335,-0.00766602,0.330352,0.0664505,0.0622742,-0.10429,0.05778,-0.100347,-0.100647,0.327447,0.023022,-0.182809,1.98691e-08,-4.56731e-09,0.3,-0.3,-13.264,-19.384,0.887409,186.15,-23.3819,0.376705,90.5406,-19.7239,866.281
0.325,-0.192335,-0.00766602,0.330352,0.0664505,0.0622742,-0.10429,0.05778,-0.100347,-0.100647,0.327447,0.023022,-0.182809,1.98691e-08,-4.56731e-09,0.3,-0.3,-13.2785,-19.34,0.901284,186.134,-23.3741,0.37211,90.596,-19.7764,866.285
0.326,-0.192335,-0.00766602,0.330352,0.0664505,0.0622742,-0.10429,0.05778,-0.100347,-0.100647,0.327447,0.023022,-0.182809,1.98691e-08,-4.56731e-09,0.3,-0.3,-13.2935,-19.2963,0.914645,186.118,-23.3663,0.367283,90.65,-19.8299,866.288
0.327,-0.192335,-0.00766602,0.330352,0.0664505,0.0622742,-0.10429,0.05778,-0.100347,-0.100647,0.327447,0.023022,-0.182809,1.98691e-08,-4.56731e-09,0.3,-0.3,-13.3088,-19.253,0.927463,186.102,-23.3586,0.362225,90.7026,-19.8846,866.292
0.328,-0.192335,-0.00766602,0.330352,0.0664505,0.0622742,-0.10429,0.05778,-0.100347,-0.100647,0.327447,0.023022,-0.182809,1.98691e-08,-4.56731e-09,0.3,-0.3,-13.3245,-19.2102,0.93971,186.085,-23.3508,0.356922,90.7537,-19.9405,866.294
0.329,-0.192335,-0.00766602,0.330352,0.0664505,0.0622742,-0.10429,0.05778,-0.100347,-0.100647,0.327447,0.023022,-0.182809,1.98691e-08,-4.56731e-09,0.3,-0.3,-13.3404,-19.1681,0.951393,186.069,-23.343,0.351389,90.8035,-19.9974,866.296
0.33,-0.192335,-0.00766602,0.330352,0.0664505,0.0622742,-0.10429,0.05778,-0.100347,-0.100647,0.327447,0.023022,-0.182809,1.98691e-08,-4.56731e-09,0.3,-0.3,-13.3566,-19.1267,0.962417,186.053,-23.3352,0.34561,90.8518,-20.0556,866.298
0.331,-0.192335,-0.00766602,0.330352,0.0664505,0.0622742,-0.10429,0.05778,-0.100347,-0.100647,0.327447,0.023022,-0.182809,1.98691e-08,-4.56731e-09,0.3,-0.3,-13.373,-19.086,0.972795,186.037,-23.3274,0.339584,90.8987,-20.1148,866.3
0.332,-0.192335,-0.00766602,0.330352,0.0664505,0.0622742,-0.10429,0.05778,-0.100347,-0.100647,0.327447,0.023022,-0.182809,1.98691e-08,-4.56731e-09,0.3,-0.3,-13.3896,-19.0463,0.982533,186.021,-23.3195,0.333315,90.9442,-20.1753,866.301
0.333,-0.192335,-0.00766602,0.330352,0.0664505,0.0622742,-0.10429,0.05778,-0.100347,-0.100647,0.327447,0.023022,-0.182809,1.98691e-08,-4.56731e-09,0.3,-0.3,-13.4063,-19.0074,0.991577,186.004,-23.3117,0.326794,90.9883,-20.2368,866.302
0.334,-0.192335,-0.00766602,0.330352,0.0664505,0.0622742,-0.10429,0.05778,-0.100347,-0.100647,0.327447,0.023022,-0.182809,1.98691e-08,-4.56731e-09,0.3,-0.3,-13.4233,-18.9693,0.999981,185.988,-23.3038,0.320019,91.031,-20.2996,866.302
0.335,-0.192335,-0.00766602,0.330352,0.0664505,0.0622742,-0.10429,0.05778,-0.100347,-0.100647,0.327447,0.023022,-0.182809,1.98691e-08,-4.56731e-09,0.3,-0.3,-13.4405,-18.9322,1.00772,185.972,-23.2959,0.312994,91.0723,-20.3635,866.302
0.336,-0.192335,-0.00766602,0.330352,0.0664505,0.0622742,-0.10429,0.05778,-0.100347,-0.100647,0.327447,0.023022,-0.182809,1.98691e-08,-4.56731e-09,0.3,-0.3,-13.4578,-18.8959,1.01478,185.956,-23.288,0.305719,91.1122,-20.4285,866.302
0.337,-0.192335,-0.00766602,0.330352,0.0664505,0.0622742,-0.10429,0.05778,-0.100347,-0.100647,0.327447,0.023022,-0.182809,1.98691e-08,-4.56731e-09,0.3,-0.3,-13.4753,-18.8606,1.02117,185.939,-23.2801,0.298195,91.1507,-20.4947,866.301
0.338,-0.192335,-0.00766602,0.330352,0.0664505,0.0622742,-0.10429,0.05778,-0.100347,-0.100647,0.327447,0.023022,-0.182809,1.98691e-08,-4.56731e-09,0.3,-0.3,-13.493,-18.826,1.02688,185.923,-23.2722,0.290417,91.1878,-20.5621,866.3
0.339,-0.192335,-0.00766602,0.330352,0.0664505,0.0622742,-0.10429,0.05778,-0.100347,-0.100647,0.327447,0.023022,-0.182809,1.98691e-08,-4.56731e-09,0.3,-0.3,-13.5108,-18.7923,1.03193,185.907,-23.2643,0.282387,91.2235,-20.6306,866.298
0.34,-0.192335,-0.00766602,0.330352,0.0664505,0.0622742,-0.10429,0.05778,-0.100347,-0.100647,0.327447,0.023022,-0.182809,1.98691e-08,-4.56731e-09,0.3,-0.3,-13.5287,-18.7594,1.03632,185.89,-23.2564,0.274107,91.2578,-20.7002,866.296
0.341,-0.192335,-0.00766602,0.330352,0.0664505,0.0622742,-0.10429,0.05778,-0.100347,-0.100647,0.327447,0.023022,-0.182809,1.98691e-08,-4.56731e-09,0.3,-0.3,-13.5467,-18.7272,1.04006,185.874,-23.2485,0.265574,91.2908,-20.771,866.294
0.342,-0.192335,-0.00766602,0.330352,0.0664505,0.0622742,-0.10429,0.05778,-0.100347,-0.100647,0.327447,0.023022,-0.182809,1.98691e-08,-4.56731e-09,0.3,-0.3,-13.5648,-18.6956,1.04347,185.884,-23.2442,0.27463,91.3245,-20.8383,866.297
0.343,-0.192335,-0.00766602,0.330352,0.0664505,0.0622742,-0.10429,0.05778,-0.100347,-0.100647,0.327447,0.023022,-0.182809,1.98691e-08,-4.56731e-09,0.3,-0.3,-13.576,-18.6613,1.05373,185.895,-23.2394,0.283182,91.3571,-20.9034,866.303
0.344,-0.192335,-0.00766602,0.330352,0.0664505,0.0622742,-0.10429,0.05778,-0.100347,-0.100647,0.327447,0.023022,-0.182809,1.98691e-08,-4.56731e-09,0.3,-0.3,-13.5842,-18.6222,1.06462,185.906,-23.2345,0.29211,91.3885,-20.9667,866.311
0.345,-0.192335,-0.00766602,0.330352,0.0664505,0.0622742,-0.10429,0.05778,-0.100347,-0.100647,0.327447,0.023022,-0.182809,1.98691e-08,-4.56731e-09,0.3,-0.3,-13.5887,-18.5791,1.07702,185.918,-23.2293,0.301392,91.4188,-21.0285,866.321
0.346,-0.192335,-0.00766602,0.330352,0.0664505,0.0622742,-0.10429,0.05778,-0.100347,-0.100647,0.327447,0.023022,-0.182809,1.98691e-08,-4.56731e-09,0.3,-0.3,-13.5897,-18.5333,1.09065,185.93,-23.224,0.310966,91.4479,-21.0889,866.332
0.347,-0.192335,-0.00766602,0.330352,0.0664505,0.0622742,-0.10429,0.05778,-0.100347,-0.100647,0.327447,0.023022,-0.182809,1.98691e-08,-4.56731e-09,0.3,-0.3,-13.5875,-18.486,1.10523,185.942,-23.2188,0.320784,91.4757,-21.1481,866.344
0.348,-0.192335,-0.00766602,0.330352,0.0664505,0.0622742,-0.10429,0.05778,-0.100347,-0.100647,0.327447,0.023022,-0.182809,1.98691e-08,-4.56731e-09,0.3,-0.3,-13.5825,-18.4384,1.12052,185.955,-23.2133,0.330841,91.5024,-21.2062,866.356
0.349,-0.192335,-0.00766602,0.330352,0.0664505,0.0622742,-0.10429,0.05778,-0.100347,-0.100647,0.327447,0.023022,-0.182809,1.98691e-08,-4.56731e-09,0.3,-0.3,-13.575,-18.3917,1.13629,185.967,-23.2079,0.34103,91.5278,-21.2633,866.369
0.35,-0.192335,-0.00766602,0.330352,0.0664505,0.0622742,-0.10429,0.05778,-0.100347,-0.100647,0.327447,0.023022,-0.182809,1.98691e-08,-4.56731e-09,0.3,-0.3,-13.5655,-18.3467,1.15238,185.98,-23.2025,0.351326,91.5521,-21.3195,866.383
0.351,-0.192335,-0.00766602,0.330352,0.0664505,0.0622742,-0.10429,0.05778,-0.100347,-0.100647,0.327447,0.023022,-0.182809,1.98691e-08,-4.56731e-09,0.3,-0.3,-13.5541,-18.3041,1.16869,185.992,-23.1972,0.361713,91.5751,-21.3749,866.396
0.352,-0.192335,-0.00766602,0.330352,0.0664505,0.0622742,-0.10429,0.05778,-0.100347,-0.100647,0.327447,0.023022,-0.182809,1.98691e-08,-4.56731e-09,0.3,-0.3,-13.5412,-18.2646,1.18506,186.004,-23.1918,0.372198,91.5969,-21.4293,866.41
0.353,-0.192335,-0.00766602,0.330352,0.0664505,0.0622742,-0.10429,0.05778,-0.100347,-0.100647,0.327447,0.023022,-0.182809,1.98691e-08,-4.56731e-09,0.3,-0.3,-13.5269,-18.2282,1.2014,186.016,-23.1864,0.382772,91.6175,-21.4829,866.424
0.354,-0.192335,-0.00766602,0.330352,0.0664505,0.0622742,-0.10429,0.05778,-0.100347,-0.100647,0.327447,0.023022,-0.182809,1.98691e-08,-4.56731e-09,0.3,-0.3,-13.5116,-18.1951,1.21771,186.029,-23.1809,0.393124,91.6368,-21.5357,866.438
0.355,-0.192335,-0.00766602,0.330352,0.0664505,0.0622742,-0.10429,0.05778,-0.100347,-0.100647,0.327447,0.023022,-0.182809,1.98691e-08,-4.56731e-09,0.3,-0.3,-13.4954,-18.1652,1.2337,186.042,-23.1755,0.403208,91.655,-21.5877,866.452
0.356,-0.192335,-0.00766602,0.330352,0.0664505,0.0622742,-0.10429,0.05778,-0.100347,-0.100647,0.327447,0.023022,-0.182809,1.98691e-08,-4.56731e-09,0.3,-0.3,-13.4786,-18.1384,1.24884,186.054,-23.17,0.413017,91.672,-21.6388,866.465
0.357,-0.192335,-0.00766602,0.330352,0.0664505,0.0622742,-0.10429,0.05778,-0.100347,-0.100647,0.327447,0.023022,-0.182809,1.98691e-08,-4.56731e-09,0.3,-0.3,-13.4612,-18.1142,1.26294,186.067,-23.1645,0.422537,91.6879,-21.6891,866.477
0.358,-0.192335,-0.00766602,0.330352,0.0664505,0.0622742,-0.10429,0.05778,-0.100347,-0.100647,0.327447,0.023022,-0.182809,1.98691e-08,-4.56731e-09,0.3,-0.3,-13.4432,-18.0925,1.27595,186.08,-23.159,0.431765,91.7025,-21.7384,866.488
0.359,-0.192335,-0.00766602,0.330352,0.0664505,0.0622742,-0.10429,0.05778,-0.100347,-0.100647,0.327447,0.023022,-0.182809,1.98691e-08,-4.56731e-09,0.3,-0.3,-13.4246,-18.0728,1.28786,186.093,-23.1535,0.440685,91.7159,-21.7868,866.499
0.36,-0.192335,-0.00766602,0.330352,0.0664505,0.0622742,-0.10429,0.05778,-0.100347,-0.100647,0.327447,0.023022,-0.182809,1.98691e-08,-4.56731e-09,0.3,-0.3,-13.4056,-18.0548,1.29871,186.105,-23.148,0.449297,91.7281,-21.8343,866.509
0.361,-0.192335,-0.00766602,0.330352,0.0664505,0.0622742,-0.10429,0.05778,-0.100347,-0.100647,0.327447,0.023022,-0.182809,1.98691e-08,-4.56731e-09,0.3,-0.3,-13.3861,-18.0381,1.30853,186.118,-23.1426,0.457598,91.739,-21.8807,866.518
0.362,-0.192335,-0.00766602,0.330352,0.0664505,0.0622742,-0.10429,0.05778,-0.100347,-0.100647,0.327447,0.023022,-0.182809,1.98691e-08,-4.56731e-09,0.3,-0.3,-13.3664,-18.0224,1.31734,186.13,-23.1372,0.465586,91.7486,-21.9261,866.527
0.363,-0.192335,-0.00766602,0.330352,0.0664505,0.0622742,-0.10429,0.05778,-0.100347,-0.100647,0.327447,0.023022,-0.182809,1.98691e-08,-4.56731e-09,0.3,-0.3,-13.3466,-18.0075,1.32518,186.143,-23.1318,0.473263,91.7569,-21.9704,866.535
0.364,-0.192335,-0.00766602,0.330352,0.0664505,0.0622742,-0.10429,0.05778,-0.100347,-0.100647,0.327447,0.023022,-0.182809,1.98691e-08,-4.56731e-09,0.3,-0.3,-13.3267,-17.993,1.33211,186.155,-23.1265,0.480625,91.7639,-22.0136,866.543
0.365,-0.192335,-0.00766602,0.330352,0.0664505,0.0622742,-0.10429,0.05778,-0.100347,-0.100647,0.327447,0.023022,-0.182809,1.98691e-08,-4.56731e-09,0.3,-0.3,-13.3069,-17.9788,1.33815,186.167,-23.1213,0.48768,91.7696,-22.0557,866.55
0.366,-0.192335,-0.00766602,0.330352,0.0664505,0.0622742,-0.10429,0.05778,-0.100347,-0.100647,0.327447,0.023022,-0.182809,1.98691e-08,-4.56731e-09,0.3,-0.3,-13.2873,-17.9646,1.34335,186.179,-23.116,0.494429,91.774,-22.0966,866.557
0.367,-0.192335,-0.00766602,0.330352,0.0664505,0.0622742,-0.10429,0.05778,-0.100347,-0.100647,0.327447,0.023022,-0.182809,1.98691e-08,-4.56731e-09,0.3,-0.3,-13.2679,-17.9504,1.34776,186.191,-23.1108,0.500868,91.7769,-22.1364,866.563
0.368,-0.192335,-0.00766602,0.330352,0.0664505,0.0622742,-0.10429,0.05778,-0.100347,-0.100647,0.327447,0.023022,-0.182809,1.98691e-08,-4.56731e-09,0.3,-0.3,-13.2489,-17.9361,1.35142,186.203,-23.1057,0.507,91.7786,-22.175,866.568
0.369,-0.192335,-0.00766602,0.330352,0.0664505,0.0622742,-0.10429,0.05778,-0.100347,-0.100647,0.327447,0.023022,-0.182809,1.98691e-08,-4.56731e-09,0.3,-0.3,-13.2303,-17.9214,1.35437,186.215,-23.1006,0.512833,91.7789,-22.2124,866.573
0.37,-0.192335,-0.00766602,0.330352,0.0664505,0.0622742,-0.10429,0.05778,-0.100347,-0.100647,0.327447,0.023022,-0.182809,1.98691e-08,-4.56731e-09,0.3,-0.3,-13.2122,-17.9064,1.35664,186.227,-23.0955,0.518364,91.7777,-22.2486,866.578
0.371,-0.192335,-0.00766602,0.330352,0.0664505,0.0622742,-0.10429,0.05778,-0.100347,-0.100647,0.327447,0.023022,-0.182809,1.98691e-08,-4.56731e-09,0.3,-0.3,-13.1946,-17.891,1.35828,186.238,-23.0905,0.5236,91.7753,-22.2836,866.582
0.372,-0.192335,-0.00766602,0.330352,0.0664505,0.0622742,-0.10429,0.05778,-0.100347,-0.100647,0.327447,0.023022,-0.182809,1.98691e-08,-4.56731e-09,0.3,-0.3,-13.1776,-17.8752,1.35932,186.25,-23.0856,0.528543,91.7714,-22.3174,866.586
0.373,-0.192335,-0.00766602,0.330352,0.0664505,0.0622742,-0.10429,0.05778,-0.100347,-0.100647,0.327447,0.023022,-0.182809,1.98691e-08,-4.56731e-09,0.3,-0.3,-13.1612,-17.859,1.35978,186.261,-23.0806,0.533197,91.7661,-22.35,866.589
0.374,-0.192335,-0.00766602,0.330352,0.0664505,0.0622742,-0.10429,0.05778,-0.100347,-0.100647,0.327447,0.023022,-0.182809,1.98691e-08,-4.56731e-09,0.3,-0.3,-13.1454,-17.8423,1.35969,186.273,-23.0758,0.537569,91.7595,-22.3813,866.592
0.375,-0.192335,-0.00766602,0.330352,0.0664505,0.0622742,-0.10429,0.05778,-0.100347,-0.100647,0.327447,0.023022,-0.182809,1.98691e-08,-4.56731e-09,0.3,-0.3,-13.1302,-17.8252,1.35907,186.284,-23.0709,0.54166,91.7514,-22.4114,866.594
0.376,-0.192335,-0.00766602,0.330352,0.0664505,0.0622742,-0.10429,0.05778,-0.100347,-0.100647,0.327447,0.023022,-0.182809,1.98691e-08,-4.56731e-09,0.3,-0.3,-13.1156,-17.8076,1.35793,186.295,-23.0661,0.545475,91.742,-22.4403,866.596
0.377,-0.192335,-0.00766602,0.330352,0.0664505,0.0622742,-0.10429,0.05778,-0.100347,-0.100647,0.327447,0.023022,-0.182809,1.98691e-08,-4.56731e-09,0.3,-0.3,-13.1017,-17.7896,1.3563,186.306,-23.0614,0.549023,91.7312,-22.468,866.598
0.378,-0.192335,-0.00766602,0.330352,0.0664505,0.0622742,-0.10429,0.05778,-0.100347,-0.100647,0.327447,0.023022,-0.182809,1.98691e-08,-4.56731e-09,0.3,-0.3,-13.0883,-17.7712,1.35418,186.317,-23.0566,0.552299,91.7189,-22.4945,866.599
0.379,-0.192335,-0.00766602,0.330352,0.0664505,0.0622742,-0.10429,0.05778,-0.100347,-0.100647,0.327447,0.023022,-0.182809,1.98691e-08,-4.56731e-09,0.3,-0.3,-13.0756,-17.7524,1.35158,186.328,-23.0519,0.555317,91.7054,-22.5197,866.6
0.38,-0.192335,-0.00766602,0.330352,0.0664505,0.0622742,-0.10429,0.05778,-0.100347,-0.100647,0.327447,0.023022,-0.182809,1.98691e-08,-4.56731e-09,0.3,-0.3,-13.0634,-17.7332,1.34851,186.339,-23.0473,0.558075,91.6904,-22.5437,866.6
0.381,-0.192335,-0.00766602,0.330352,0.0664505,0.0622742,-0.10429,0.05778,-0.100347,-0.100647,0.327447,0.023022,-0.182809,1.98691e-08,-4.56731e-09,0.3,-0.3,-13.0517,-17.7137,1.34496,186.35,-23.0426,0.560585,91.6741,-22.5666,866.6
0.382,-0.192335,-0.00766602,0.330352,0.0664505,0.0622742,-0.10429,0.05778,-0.100347,-0.100647,0.327447,0.023022,-0.182809,1.98691e-08,-4.56731e-09,0.3,-0.3,-13.0406,-17.6938,1.34095,186.36,-23.038,0.562841,91.6563,-22.5882,866.6
0.383,-0.192335,-0.00766602,0.330352,0.0664505,0.0622742,-0.10429,0.05778,-0.100347,-0.100647,0.327447,0.023022,-0.182809,1.98691e-08,-4.56731e-09,0.3,-0.3,-13.0299,-17.6736,1.33648,186.371,-23.0333,0.564856,91.6373,-22.6086,866.599
0.384,-0.192335,-0.00766602,0.330352,0.0664505,0.0622742,-0.10429,0.05778,-0.100347,-0.100647,0.327447,0.023022,-0.182809,1.98691e-08,-4.56731e-09,0.3,-0.3,-13.0196,-17.6532,1.33153,186.382,-23.0287,0.566626,91.6168,-22.6279,866.598
0.385,-0.192335,-0.00766602,0.330352,0.0664505,0.0622742,-0.10429,0.05778,-0.100347,-0.100647,0.327447,0.023022,-0.182809,1.98691e-08,-4.56731e-09,0.3,-0.3,-13.0098,-17.6325,1.32611,186.393,-23.0241,0.568161,91.595,-22.6459,866.596
0.386,-0.192335,-0.00766602,0.330352,0.0664505,0.0622742,-0.10429,0.05778,-0.100347,-0.100647,0.327447,0.023022,-0.182809,1.98691e-08,-4.56731e-09,0.3,-0.3,-13.0004,-17.6115,1.32021,186.403,-23.0196,0.569464,91.5719,-22.6628,866.594
0.387,-0.192335,-0.00766602,0.330352,0.0664505,0.0622742,-0.10429,0.05778,-0.100347,-0.100647,0.327447,0.023022,-0.182809,1.98691e-08,-4.56731e-09,0.3,-0.3,-12.9912,-17.5904,1.31384,186.414,-23.015,0.570536,91.5474,-22.6785,866.592
0.388,-0.192335,-0.00766602,0.330352,0.0664505,0.0622742,-0.10429,0.05778,-0.100347,-0.100647,0.327447,0.023022,-0.182809,1.98691e-08,-4.56731e-09,0.3,-0.3,-12.9824,-17.569,1.30698,186.424,-23.0104,0.571379,91.5215,-22.693,866.589
0.389,-0.192335,-0.00766602,0.330352,0.0664505,0.0622742,-0.10429,0.05778,-0.100347,-0.100647,0.327447,0.023022,-0.182809,1.98691e-08,-4.56731e-09,0.3,-0.3,-12.9739,-17.5475,1.29963,186.435,-23.0058,0.571999,91.4944,-22.7064,866.586
0.39,-0.192335,-0.00766602,0.330352,0.0664505,0.0622742,-0.10429,0.05778,-0.100347,-0.100647,0.327447,0.023022,-0.182809,1.98691e-08,-4.56731e-09,0.3,-0.3,-12.9656,-17.5259,1.29179,186.446,-23.0013,0.572397,91.4658,-22.7186,866.582
0.391,-0.192335,-0.00766602,0.330352,0.0664505,0.0622742,-0.10429,0.05778,-0.100347,-0.100647,0.327447,0.023022,-0.182809,1.98691e-08,-4.56731e-09,0.3,-0.3,-12.9575,-17.5042,1.28344,186.456,-22.9967,0.572577,91.436,-22.7296,866.578
0.392,-0.192335,-0.00766602,0.330352,0.0664505,0.0622742,-0.10429,0.05778,-0.100347,-0.100647,0.327447,0.023022,-0.182809,1.98691e-08,-4.56731e-09,0.3,-0.3,-12.9495,-17.4824,1.27459,186.467,-22.9921,0.57254,91.4048,-22.7395,866.574
0.393,-0.192335,-0.00766602,0.330352,0.0664505,0.0622742,-0.10429,0.05778,-0.100347,-0.100647,0.327447,0.023022,-0.182809,1.98691e-08,-4.56731e-09,0.3,-0.3,-12.9416,-17.4606,1.26523,186.477,-22.9876,0.572289,91.3723,-22.7482,866.57
0.394,-0.192335,-0.00766602,0.330352,0.0664505,0.0622742,-0.10429,0.05778,-0.100347,-0.100647,0.327447,0.023022,-0.182809,1.98691e-08,-4.56731e-09,0.3,-0.3,-12.9339,-17.4387,1.25535,186.488,-22.983,0.571827,91.3385,-22.7558,866.565
0.395,-0.192335,-0.00766602,0.330352,0.0664505,0.0622742,-0.10429,0.05778,-0.100347,-0.100647,0.327447,0.023022,-0.182809,1.98691e-08,-4.56731e-09,0.3,-0.3,-12.9262,-17.4169,1.24496,186.498,-22.9785,0.571154,91.3034,-22.7622,866.559
0.396,-0.192335,-0.00766602,0.330352,0.0664505,0.0622742,-0.10429,0.05778,-0.100347,-0.100647,0.327447,0.023022,-0.182809,1.98691e-08,-4.56731e-09,0.3,-0.3,-12.9185,-17.3951,1.23404,186.509,-22.9739,0.570274,91.2669,-22.7675,866.553
0.397,-0.192335,-0.00766602,0.330352,0.0664505,0.0622742,-0.10429,0.05778,-0.100347,-0.100647,0.327447,0.023022,-0.182809,1.98691e-08,-4.56731e-09,0.3,-0.3,-12.9108,-17.3733,1.22259,186.519,-22.9694,0.569189,91.2291,-22.7716,866.547
0.398,-0.192335,-0.00766602,0.330352,0.0664505,0.0622742,-0.10429,0.05778,-0.100347,-0.100647,0.327447,0.023022,-0.182809,1.98691e-08,-4.56731e-09,0.3,-0.3,-12.9031,-17.3516,1.21061,186.53,-22.9649,0.567898,91.1901,-22.7746,866.541
0.399,-0.192335,-0.00766602,0.330352,0.0664505,0.0622742,-0.10429,0.05778,-0.100347,-0.100647,0.327447,0.023022,-0.182809,1.98691e-08,-4.56731e-09,0.3,-0.3,-12.8953,-17.33,1.1981,186.54,-22.9604,0.566404,91.1497,-22.7764,866.534
0.4,-0.192335,-0.00766602,0.330352,0.0664505,0.0622742,-0.10429,0.05778,-0.100347,-0.100647,0.327447,0.023022,-0.182809,1.98691e-08,-4.56731e-09,0.3,-0.3,-12.8874,-17.3086,1.18505,186.551,-22.9559,0.564709,91.108,-22.7771,866.527
0.401,-0.192335,-0.00766602,0.330352,0.0664505,0.0622742,-0.10429,0.05778,-0.100347,-0.100647,0.327447,0.023022,-0.182809,1.98691e-08,-4.56731e-09,0.3,-0.3,-12.8794,-17.2873,1.17146,186.561,-22.9514,0.562815,91.0651,-22.7767,866.519
0.402,-0.192335,-0.00766602,0.330352,0.0664505,0.0622742,-0.10429,0.05778,-0.100347,-0.100647,0.327447,0.023022,-0.182809,1.98691e-08,-4.56731e-09,0.3,-0.3,-12.8713,-17.2661,1.15733,186.571,-22.9469,0.560722,91.0208,-22.7751,866.511
0.403,-0.192335,-0.00766602,0.330352,0.0664505,0.0622742,-0.10429,0.05778,-0.100347,-0.100647,0.327447,0.023022,-0.182809,1.98691e-08,-4.56731e-09,0.3,-0.3,-12.863,-17.245,1.14266,186.582,-22.9424,0.558434,90.9752,-22.7724,866.503
0.404,-0.192335,-0.00766602,0.330352,0.0664505,0.0622742,-0.10429,0.05778,-0.100347,-0.100647,0.327447,0.023022,-0.182809,1.98691e-08,-4.56731e-09,0.3,-0.3,-12.8545,-17.2241,1.12736,186.592,-22.9381,0.555632,90.9287,-22.7685,866.494
0.405,-0.192335,-0.00766602,0.330352,0.0664505,0.0622742,-0.10429,0.05778,-0.100347,-0.100647,0.327447,0.023022,-0.182809,1.98691e-08,-4.56731e-09,0.3,-0.3,-12.8431,-17.2014,1.10973,186.601,-22.9339,0.552502,90.8812,-22.7634,866.483
0.406,-0.192335,-0.00766602,0.330352,0.0664505,0.0622742,-0.10429,0.05778,-0.100347,-0.100647,0.327447,0.023022,-0.182809,1.98691e-08,-4.56731e-09,0.3,-0.3,-12.8289,-17.1776,1.09116,186.611,-22.9299,0.549105,90.8325,-22.7571,866.472
0.407,-0.192335,-0.00766602,0.330352,0.0664505,0.0622742,-0.10429,0.05778,-0.100347,-0.100647,0.327447,0.023022,-0.182809,1.98691e-08,-4.56731e-09,0.3,-0.3,-12.8122,-17.153,1.07198,186.62,-22.9258,0.54546,90.7828,-22.7497,866.461
0.408,-0.192335,-0.00766602,0.330352,0.0664505,0.0622742,-0.10429,0.05778,-0.100347,-0.100647,0.327447,0.023022,-0.182809,1.98691e-08,-4.56731e-09,0.3,-0.3,-12.7937,-17.128,1.05226,186.629,-22.9217,0.541578,90.7318,-22.741,866.449
0.409,-0.192335,-0.00766602,0.330352,0.0664505,0.0622742,-0.10429,0.05778,-0.100347,-0.100647,0.327447,0.023022,-0.182809,1.98691e-08,-4.56731e-09,0.3,-0.3,-12.7737,-17.1027,1.03198,186.639,-22.9176,0.537468,90.6797,-22.7311,866.438
0.41,-0.192335,-0.00766602,0.330352,0.0664505,0.0622742,-0.10429,0.05778,-0.100347,-0.100647,0.327447,0.023022,-0.182809,1.98691e-08,-4.56731e-09,0.3,-0.3,-12.7527,-17.0774,1.01115,186.648,-22.9135,0.533117,90.6264,-22.7201,866.425
0.411,-0.192335,-0.00766602,0.330352,0.0664505,0.0622742,-0.10429,0.05778,-0.100347,-0.100647,0.327447,0.023022,-0.182809,1.98691e-08,-4.56731e-09,0.3,-0.3,-12.731,-17.0521,0.989798,186.658,-22.9094,0.528532,90.5718,-22.7079,866.412
0.412,-0.192335,-0.00766602,0.330352,0.0664505,0.0622742,-0.10429,0.05778,-0.100347,-0.100647,0.327447,0.023022,-0.182809,1.98691e-08,-4.56731e-09,0.3,-0.3,-12.7091,-17.027,0.967913,186.667,-22.9053,0.523712,90.516,-22.6946,866.399
0.413,-0.192335,-0.00766602,0.330352,0.0664505,0.0622742,-0.10429,0.05778,-0.100347,-0.100647,0.327447,0.023022,-0.182809,1.98691e-08,-4.56731e-09,0.3,-0.3,-12.687,-17.0022,0.945514,186.677,-22.9012,0.518652,90.4589,-22.6802,866.386
0.414,-0.192335,-0.00766602,0.330352,0.0664505,0.0622742,-0.10429,0.05778,-0.100347,-0.100647,0.327447,0.023022,-0.182809,1.98691e-08,-4.56731e-09,0.3,-0.3,-12.6651,-16.9776,0.922616,186.686,-22.8971,0.513355,90.4005,-22.6646,866.372
0.415,-0.192335,-0.00766602,0.330352,0.0664505,0.0622742,-0.10429,0.05778,-0.100347,-0.100647,0.327447,0.023022,-0.182809,1.98691e-08,-4.56731e-09,0.3,-0.3,-12.6435,-16.9535,0.899223,186.696,-22.893,0.50782,90.3408,-22.6479,866.358
0.416,-0.192335,-0.00766602,0.330352,0.0664505,0.0622742,-0.10429,0.05778,-0.100347,-0.100647,0.327447,0.023022,-0.182809,1.98691e-08,-4.56731e-09,0.3,-0.3,-12.6224,-16.9298,0.875363,186.705,-22.8888,0.502043,90.2798,-22.6301,866.344
0.417,-0.192335,-0.00766602,0.330352,0.0664505,0.0622742,-0.10429,0.05778,-0.100347,-0.100647,0.327447,0.023022,-0.182809,1.98691e-08,-4.56731e-09,0.3,-0.3,-12.6017,-16.9065,0.851048,186.715,-22.8847,0.496019,90.2173,-22.6112,866.329
0.418,-0.192335,-0.00766602,0.330352,0.0664505,0.0622742,-0.10429,0.05778,-0.100347,-0.100647,0.327447,0.023022,-0.182809,1.98691e-08,-4.56731e-09,0.3,-0.3,-12.5817,-16.8837,0.826292,186.724,-22.8807,0.489754,90.1535,-22.5911,866.313
0.419,-0.192335,-0.00766602,0.330352,0.0664505,0.0622742,-0.10429,0.05778,-0.100347,-0.100647,0.327447,0.023022,-0.182809,1.98691e-08,-4.56731e-09,0.3,-0.3,-12.5624,-16.8614,0.801092,186.733,-22.8766,0.483236,90.0884,-22.57,866.298
0.42,-0.192335,-0.00766602,0.330352,0.0664505,0.0622742,-0.10429,0.05778,-0.100347,-0.100647,0.327447,0.023022,-0.182809,1.98691e-08,-4.56731e-09,0.3,-0.3,-12.5437,-16.8395,0.775464,186.743,-22.8725,0.476473,90.0218,-22.5477,866.282
0.421,-0.192335,-0.00766602,0.330352,0.0664505,0.0622742,-0.10429,0.05778,-0.100347,-0.100647,0.327447,0.023022,-0.182809,1.98691e-08,-4.56731e-09,0.3,-0.3,-12.5259,-16.8182,0.74942,186.752,-22.8685,0.469454,89.9538,-22.5244,866.266
0.422,-0.192335,-0.00766602,0.330352,0.0664505,0.0622742,-0.10429,0.05778,-0.100347,-0.100647,0.327447,0.023022,-0.182809,1.98691e-08,-4.56731e-09,0.3,-0.3,-12.5088,-16.7972,0.722944,186.761,-22.8645,0.462191,89.8845,-22.4999,866.249
0.423,-0.192335,-0.00766602,0.330352,0.0664505,0.0622742,-0.10429,0.05778,-0.100347,-0.100647,0.327447,0.023022,-0.182809,1.98691e-08,-4.56731e-09,0.3,-0.3,-12.4925,-16.7768,0.696045,186.77,-22.8605,0.454672,89.8137,-22.4744,866.233
0.424,-0.192335,-0.00766602,0.330352,0.0664505,0.0622742,-0.10429,0.05778,-0.100347,-0.100647,0.327447,0.023022,-0.182809,1.98691e-08,-4.56731e-09,0.3,-0.3,-12.4771,-16.7569,0.668723,186.779,-22.8565,0.446903,89.7415,-22.4477,866.215
0.425,-0.192335,-0.00766602,0.330352,0.0664505,0.0622742,-0.10429,0.05778,-0.100347,-0.100647,0.327447,0.023022,-0.182809,1.98691e-08,-4.56731e-09,0.3,-0.3,-12.4625,-16.7374,0.640963,186.788,-22.8526,0.438883,89.6679,-22.42,866.198
0.426,-0.192335,-0.00766602,0.330352,0.0664505,0.0622742,-0.10429,0.05778,-0.100347,-0.100647,0.327447,0.023022,-0.182809,1.98691e-08,-4.56731e-09,0.3,-0.3,-12.4486,-16.7183,0.612755,186.798,-22.8486,0.430613,89.5928,-22.3911,866.18
0.427,-0.192335,-0.00766602,0.330352,0.0664505,0.0622742,-0.10429,0.05778,-0.100347,-0.100647,0.327447,0.023022,-0.182809,1.98691e-08,-4.56731e-09,0.3,-0.3,-12.4355,-16.6996,0.584092,186.807,-22.8446,0.422092,89.5164,-22.3612,866.161
0.428,-0.192335,-0.00766602,0.330352,0.0664505,0.0622742,-0.10429,0.05778,-0.100347,-0.100647,0.327447,0.023022,-0.182809,1.98691e-08,-4.56731e-09,0.3,-0.3,-12.4231,-16.6813,0.554964,186.816,-22.8407,0.413317,89.4386,-22.3301,866.143
